mit-biomimetics/pkGym/resources/robots/mit_humanoid/trajectories/humanoid3d_jump.csv
t,x,y,z,qw,qx,qy,qz,x_v,y_v,z_v,wx,wy,wz,left_arm_pitch,left_shoulder_abad,left_shoulder_yaw,left_elbow,left_hip_yaw_joint,left_hip_abad_joint,left_hip_pitch,left_knee,left_ankle,right_arm_pitch,right_shoulder_abad,right_shoulder_yaw,right_elbow,right_hip_yaw_joint,right_hip_abad_joint,right_hip_pitch,right_knee,right_ankle,left_arm_pitch_v,left_shoulder_abad_v,left_shoulder_yaw_v,left_elbow_v,left_hip_yaw_joint_v,left_hip_abad_joint_v,left_hip_pitch_v,left_knee_v,left_ankle_v,right_arm_pitch_v,right_shoulder_abad_v,right_shoulder_yaw_v,right_elbow_v,right_hip_yaw_joint_v,right_hip_abad_joint_v,right_hip_pitch_v,right_knee_v,right_ankle_v
0,0,0,0.61735723,0.994728365015269,-0.00491095390007538,0.102426103401572,0.000505675600007771,0,0,0,0,0,0,0.0495067726987191,0.288259213657652,0.565056083527721,-0.3062459426,-0.0372058283153898,0.104066088346169,-0.166099311358132,0.1566712257,-0.227902988642854,0.0746378112469138,0.346169352793896,0.347434030435676,-0.6249465548,-0.180802561242983,0.0917868768163796,-0.15022147645463,0.0965201984,-0.356011956533749,0,0,0,0,0,0,0,0,0,0,0,0,0,0,0,0,0,0
0.0166660007,0.0003513006,-0.00074163362,0.617245216,0.9947202319198,-0.00582726890011599,0.102360368702038,0.00447862320008915,0.0210788782698179,-0.0444997953228215,-0.00672110856205221,0,0,0,0.088898850032532,0.294674112383696,0.540334480218208,-0.3058270636,-0.0218679762187065,0.106291777546879,-0.169736423442147,0.1657312299,-0.234934755153302,0.134715051804692,0.330871574784821,0.330066173700148,-0.6061447135,-0.17961869518531,0.0890565696811952,-0.149550995031627,0.1008747947,-0.360644107510783,2.36361908552019,0.3849093037686,-1.48335547048865,0.0251337442941535,0.920307899464048,0.133546688301147,-0.218235445292821,0.543621974046839,-0.421922849820076,3.6047784732049,-0.917903358126891,-1.04211304488475,1.12815555683974,0.0710348018690037,-0.163824974229384,0.0402304929101871,0.261286218474718,-0.277940164555133
0.0333320014,0.00053983573,-0.00150608262,0.617062082,0.994695602653378,-0.00662433670035548,0.102336963605492,0.00799513010042904,0.0113125598272656,-0.0458687728244245,-0.0109884790776554,0,0,0,0.133606545773715,0.297835138131026,0.502608464548555,-0.2920616519,-0.00679155617393812,0.107798982559023,-0.173283161163293,0.1738400295,-0.239717037094184,0.179766998949572,0.332203622848112,0.32090898000286,-0.5835224924,-0.175478082764172,0.0861345356565024,-0.150160673733976,0.1073866183,-0.364543395234582,2.6825689345605,0.189669123638637,-2.2636513911615,0.825957705618002,0.904621349545985,0.0904359143669399,-0.212812766841287,0.486547417461707,-0.286948382336382,2.70322484415112,0.0799260774836549,-0.54945357690331,1.3573875044899,0.248446672700418,-0.175329047279641,-0.0365821838918282,0.390725028590692,-0.233966612265829
0.0499980021,0.00036501472,-0.00230528578,0.617022966,0.99460402206345,-0.00771675879971642,0.10285307349622,0.0111595788995899,-0.0104896797466233,-0.0479541057501576,-0.0023470537835721,0,0,0,0.20913780496158,0.308196574339892,0.481574477612387,-0.2834676506,0.00372583416062231,0.110377020870151,-0.176260556194269,0.1770252554,-0.242098421907184,0.214621804464869,0.311844626907484,0.313841305154442,-0.5642792286,-0.169394898314065,0.0814486326696705,-0.153675793850793,0.1160539233,-0.368131595989775,4.53205664319122,0.621711014860691,-1.26208964674817,0.515660682769561,0.631068636314196,0.154688479709937,-0.178650840388817,0.191121190820543,-0.142888798330598,2.09137189795613,-1.22158856867371,-0.424077436191254,1.15464196518364,0.365005651902224,-0.281165414017521,-0.210915634775983,0.520059080520739,-0.215300648294882
0.0666640028,-0.00022305136,-0.00313776813,0.617006964,0.994433468791164,-0.00837803759992556,0.104229233999074,0.0129673209998848,-0.0352853747330036,-0.0499509369395382,-0.000960158366005555,0,0,0,0.242698819217609,0.316072574764717,0.451238174014179,-0.2812283931,0.00128351059882359,0.113295077304779,-0.178096746708316,0.1717177091,-0.240429011606892,0.267801614544149,0.293318786301481,0.312091451837135,-0.5407885702,-0.164658170180695,0.0772913016558908,-0.162419553122404,0.1288436961,-0.372915468184442,2.01374132043744,0.472578908797531,-1.82025094947993,0.134360818789599,-0.146545269363796,0.175090382339169,-0.110175833248791,-0.318465503244578,0.100168620555223,3.19091610738263,-1.11159485346732,-0.10499539444443,1.40949582463416,0.28421504466697,-0.249449828343025,-0.52464652012226,0.767417032449782,-0.28704380137623
0.0833300035,-0.0012589038,-0.00424165273,0.61694829,0.994111388207663,-0.0078874805000608,0.107304794900827,0.0128847382000993,-0.0621536299347449,-0.0662357226470055,-0.00352058067536481,0,0,0,0.29340686106117,0.325945997170825,0.423332613468138,-0.27630831,-0.0106305639596555,0.115326442814524,-0.179441009269042,0.1562663094,-0.232492806828126,0.317162239918124,0.274963923717028,0.313618367421046,-0.5209456498,-0.15703168948006,0.074755835396196,-0.178696331778726,0.1473372049,-0.38062664645006,3.04260408698778,0.592429016645124,-1.67440053845915,0.295216782272184,-0.714873038405613,0.121886800937491,-0.0806589766149113,-0.927121027902033,0.476191314378545,2.96175586827947,-1.10133576224154,0.0916185959305224,1.1906227989058,0.457607127103706,-0.15213405455424,-0.976645744189966,1.1096548675892,-0.462689184071511
0.0999960042,-0.00287501991,-0.00508682909,0.616882504,0.993582878049527,-0.00604396810030127,0.112269086005596,0.0123364186006149,-0.0969708413608791,-0.0507126079743894,-0.00394731772691913,0,0,0,0.343215218237538,0.332319169018849,0.398601742786121,-0.2769959696,-0.0245027919044552,0.113935237442701,-0.184558339407501,0.1384726776,-0.222019452641772,0.360830881024539,0.258593054756165,0.31619526525859,-0.5009788111,-0.157467681912759,0.0754366227651138,-0.20526517244344,0.1742065487,-0.391189159236481,2.98862084989397,0.382405591044023,-1.48391153505813,-0.0412612247160173,-0.832366936406029,-0.0834756578296795,-0.307052077494466,-1.06766056958104,0.628426361841764,2.62022316526215,-0.982291388051063,0.154620048560534,1.19805819400932,-0.026160591286879,0.0408488743743895,-1.59419414069232,1.61222504928852,-0.633776091610296
0.1166620049,-0.00496843522,-0.00570992562,0.616614026,0.992881303059771,-0.00373191370022466,0.118381398207127,0.0125950551007582,-0.125609937721891,-0.0373872857211629,-0.0161093236963539,0,0,0,0.391156091024615,0.334292684368103,0.372552285273985,-0.2802038848,-0.0360896003740569,0.111087245298973,-0.195907559901292,0.1271507266,-0.215608605239317,0.400868226586713,0.242943368288688,0.314637834281665,-0.4838079897,-0.158015204629383,0.0768730598039644,-0.238019397230326,0.2068721309,-0.403777260714401,2.87656730910114,0.118415652607927,-1.56302990627714,-0.192482603219861,-0.695236288427715,-0.17088635690073,-0.680980440243911,-0.679344205235753,0.384666214639937,2.40233672630138,-0.939018709358243,-0.0934495926743181,1.03029045234589,-0.0328526757246636,0.0861896662977237,-1.96533201794995,1.96001325020945,-0.755316269602724
0.1333280056,-0.00764955415,-0.00640740072,0.616142856,0.9920488313345,-0.00151843360005281,0.125189538204354,0.0128214715004459,-0.16087356398587,-0.0418501782494225,-0.0282713296657954,0,0,0,0.395538315073105,0.326244134845681,0.352519900617482,-0.2832459937,-0.0506183451976779,0.108287082835196,-0.215085987799893,0.1263443845,-0.211658667312843,0.435939642793811,0.247394972340647,0.306982620306518,-0.4620407077,-0.150535245081638,0.0773189835605997,-0.275149373636148,0.2447963903,-0.415606638713654,0.262943949623778,-0.482932268352893,-1.20199110855091,-0.182533827686684,-0.871759523184285,-0.168016461428419,-1.15075165565068,-0.0483824592663088,0.237005745864006,2.10436905880473,0.267106916175729,-0.459331192464613,1.30608910870861,0.448815506634706,0.0267564945341247,-2.22788760628231,2.27554649028666,-0.709791041785634
0.1499940063,-0.01065907087,-0.00733747917,0.615620124,0.991086938584953,0.000492113599992529,0.132429986197989,0.0144477245997806,-0.180578218744465,-0.055806936933586,-0.0313651732895925,0,0,0,0.393461560794816,0.318576451562688,0.354059736721186,-0.2834309986,-0.0621887489867489,0.105545947504711,-0.242522433832019,0.138469187,-0.211538156491602,0.493722056107658,0.233157361520445,0.297220411825813,-0.4439438533,-0.144867530772012,0.0773035822197546,-0.315273614485568,0.2870089236,-0.427184569246959,-0.124610235873179,-0.460079380831473,0.0923938580960122,-0.011100737563272,-0.694251968264411,-0.164474691908831,-1.64625254288672,0.727517220133082,0.00723093820831284,3.46708333654678,-0.854290784963326,-0.585755914477132,1.08585465258021,0.340076447352257,-0.00092411737658649,-2.40755065187414,2.5328532057484,-0.694703590964409
0.166660007,-0.01426154639,-0.00834393532,0.614985378,0.989819599754615,0.0026985470001489,0.141327416507798,0.0166264587009174,-0.216157168408135,-0.0603897820549113,-0.0380862818516514,0,0,0,0.388176280572716,0.310265100347818,0.358407034333382,-0.2838830388,-0.0607010005643706,0.101528454944649,-0.28038451938369,0.1645269527,-0.218160236725748,0.524870195367876,0.234548635627579,0.289749322045006,-0.4248364531,-0.1400929496568,0.0778620452370515,-0.359802824373007,0.3292197116,-0.437927760412599,-0.31712948518593,-0.498700999986773,0.260848279707287,-0.0271234958006454,0.0892684723323148,-0.241059185846667,-2.27181591032037,1.56352841746851,-0.397340690988121,1.86896303563805,0.0834797821131733,-0.44828329935244,1.14648982344037,0.286486314332912,0.033509119995228,-2.67185935540244,2.53274848356391,-0.644617227553575
0.1833260077,-0.01826128822,-0.00929758466,0.614066152,0.988372032698174,0.00560875869998964,0.150671430399722,0.0196821458999637,-0.239994099484227,-0.0572212468465815,-0.0551557639140175,0,0,0,0.379363846918075,0.301225645553485,0.365865640333533,-0.2820940763,-0.0465526350304645,0.0956522540432365,-0.325444636878565,0.2036362906,-0.23111623123703,0.532244613761681,0.232173735382924,0.288905948872306,-0.4007531194,-0.14225606073657,0.0804868626100718,-0.40700383724609,0.3729559172,-0.449942133859055,-0.528767147756194,-0.542388960438051,0.44753424258237,0.107342039173201,0.848935853813212,-0.352586142721843,-2.70371508473986,2.34665404160219,-0.77739073365583,0.4424827843554,-0.142499708682673,-0.0506044124131479,1.44505776361812,-0.129791851009025,0.157495335579835,-2.83217394039134,2.62427719686823,-0.720891212158379
0.1999920084,-0.02266058753,-0.01022877527,0.612665088,0.9867561377033,0.00886282130002965,0.160246612300536,0.0235541578000788,-0.263968506253573,-0.0558736692000739,-0.084067199157141,0,0,0,0.367168663721145,0.291441328540573,0.375191357664913,-0.2781932655,-0.0212040648459338,0.0899417246807113,-0.37864555206969,0.2583192014,-0.251047416940012,0.516575392606401,0.226619004891431,0.289578013302721,-0.3827131242,-0.147619232857711,0.084198924522564,-0.456757045659085,0.4196748907,-0.464596193421066,-0.731740230691893,-0.587082479416455,0.559565398997013,0.234058000489583,1.52097498619034,-0.342645453178532,-3.19218246469445,3.28110575442373,-1.19591892870746,-0.940190837462318,-0.333297147377008,0.0403254771503332,1.08244296425597,-0.321803185880152,0.222732614699352,-2.98531179186823,2.80325042228038,-0.879278707939291
0.2166580091,-0.02768663058,-0.01093879031,0.610510152,0.984725317188887,0.0120020952998646,0.171651076298063,0.0266065292996997,-0.301574633319198,-0.0426026047148792,-0.129301326622412,0,0,0,0.351870517781203,0.280255557140954,0.388405250233858,-0.2758981576,0.00783333880979787,0.0867485013120786,-0.443549226885139,0.3275895741,-0.275757453525711,0.497727221080332,0.222545071644838,0.286368972846131,-0.3645806265,-0.149895567724311,0.0883093559314723,-0.51417582340851,0.4716822118,-0.480050432989853,-0.917925434861096,-0.671173102711966,0.792865235445748,0.137711976695164,1.74231383872027,-0.191601058113038,-3.89437610040713,4.15638844296941,-1.48266143932772,-1.1309354814841,-0.244445762359346,-0.192550121313146,1.08799333603772,-0.136585549681371,0.246635739605382,-3.44526433083765,3.12056395749461,-0.927291426838077
0.2333240098,-0.03315989383,-0.01167816517,0.60734709,0.982382008832014,0.0145198035989952,0.183891540587274,0.0299777471979254,-0.328408917563528,-0.0443642643072733,-0.189791303680909,0,0,0,0.332997745843417,0.269974092904007,0.402624253831235,-0.275152902,0.0265494170883245,0.0864685039763846,-0.517349946994238,0.4065692133,-0.299805598250523,0.478497170079296,0.218826354175831,0.279135443536519,-0.3400853949,-0.147343879954704,0.0921896627732409,-0.577274867090013,0.5318157858,-0.499922169704086,-1.13241156516846,-0.616912504806676,0.853174306981598,0.0447171228067961,1.12300956992799,-0.0168005114564762,-4.42822014936667,4.73896771167182,-1.44294634073864,-1.1538491655671,-0.22313196404741,-0.434029101511596,1.46977262517456,0.153107384041241,0.232827713835905,-3.78609390563049,3.60815861480193,-1.19235184684902
0.2499900105,-0.03904762239,-0.01280500067,0.602930538,0.979561751815834,0.0146775543002373,0.197859631403198,0.0330894249005349,-0.353277829875526,-0.067612831673528,-0.265003709018206,0,0,0,0.3129523819272,0.262622677240173,0.414198983311435,-0.2770937082,0.0362887000594251,0.0938813542872888,-0.598882293374055,0.4913311284,-0.325579932749629,0.457465870576811,0.214836751984068,0.281377517321179,-0.335312656,-0.135023493443077,0.0931763352398285,-0.646796785319486,0.5988591184,-0.521638738815482,-1.2027698952525,-0.441102565406389,0.694511520103343,-0.116453025229984,0.584380328935225,0.444788791524785,-4.89213626276978,5.0859181291166,-1.54652186586707,-1.26192839428386,-0.239385696879489,0.134529802621497,0.286375777003299,0.739252729758226,0.0592027136172906,-4.17148177783726,4.02276069747195,-1.3030462138044
0.2666560112,-0.04502256899,-0.01439994248,0.59708803,0.97641263642769,0.0124964567003544,0.212718514806033,0.0348286585009877,-0.358511121387389,-0.0957003325938898,-0.350564487855804,0,0,0,0.292427456497028,0.258207652774362,0.42318828492479,-0.2782403895,0.0384560172354264,0.1092074783928,-0.683137391015873,0.5788436826,-0.356980364331075,0.435017687134881,0.210690095774891,0.29637770524502,-0.3395904579,-0.113838097936644,0.0915394996230476,-0.720945321673523,0.6716498202,-0.545264342356548,-1.23154473587484,-0.264912053304445,0.539379649333294,-0.0688036272553383,0.130044226867291,0.919604191874977,-5.05550786649245,5.25096306998235,-1.88410117980171,-1.34694482773725,-0.248809314473203,0.90004723951807,-0.256678370354322,1.27117452397761,-0.0982140614443241,-4.44908995797874,4.36761662922527,-1.41759285663934
0.2833220119,-0.05065743452,-0.01634014676,0.589728888,0.97304327259508,0.00848697069995709,0.227864851998848,0.0345307139998254,-0.338105441817244,-0.116416908586833,-0.441566164100784,0,0,0,0.273123225092129,0.255909519389802,0.427505220794905,-0.2771547947,0.033126189953859,0.130509274619201,-0.768570014250331,0.669888783,-0.392572080316729,0.411535087874613,0.207721840640474,0.32471946412857,-0.3416132945,-0.0870211454922109,0.0886075279628102,-0.795415783081942,0.7444091062,-0.574945450293104,-1.15830016765205,-0.137893513022635,0.259026502387883,0.0651382907958256,-0.319802415558961,1.27815884625521,-5.12616222525766,5.46292431152964,-2.13558829297625,-1.40901225692783,-0.178102424681693,1.70057348452829,-0.121375045904086,1.60908144234224,-0.175925329238549,-4.46840623308142,4.36573160590351,-1.78093763889951
0.2999880126,-0.05573131739,-0.01820530915,0.58082822,0.969653591452074,0.00423795099979054,0.242445428788017,0.0312116390984573,-0.304445137218793,-0.111914215268214,-0.534061420026221,0,0,0,0.255803358091234,0.252466927091049,0.424945253287889,-0.2744809502,0.01897072332289,0.151591387753194,-0.852743385122456,0.7631434703,-0.433294822361212,0.38534284586709,0.208208335513216,0.363346583296229,-0.3394176704,-0.05824283090032,0.0866821587062747,-0.867316981598365,0.815101922,-0.611931095661017,-1.03923354574773,-0.206563791801159,-0.153604188137115,0.16043708074487,-0.849361936662405,1.26497733400391,-5.05060406436468,5.59550482318172,-2.44346215852988,-1.57159731833699,0.0291908587728312,2.31771976150572,0.131742710175214,1.72676787370415,-0.115526771610872,-4.31424429955907,4.24173843938456,-2.21922739796313
0.3166540133,-0.06021477371,-0.01984827656,0.570323796,0.966274994510075,0.000547192200005705,0.256175362802671,0.0262015087002732,-0.269018128626383,-0.0985819837389063,-0.630290625152804,0,0,0,0.239168428819245,0.247874510133227,0.420059190014065,-0.2706324992,0.00146436599379794,0.170153733008268,-0.935383085669019,0.8581295241,-0.476821198997658,0.356924157733344,0.21133323279502,0.404967056607531,-0.3359130492,-0.0333473789045116,0.0850833325307426,-0.937292478247405,0.8865906082,-0.65956619477468,-0.998135639823253,-0.275556028137078,-0.293175511136495,0.230916286952996,-1.05042341256425,1.11378521993427,-4.95858016774017,5.69939096426415,-2.61168695597415,-1.70518942398382,0.187501329086388,2.49732818691781,0.210285674594986,1.4937868084818,-0.0959334038388725,-4.19869757049996,4.28949257154418,-2.85822015558079
0.333320014,-0.06412252553,-0.02134262557,0.558340076,0.962941188032778,-0.0022561599000768,0.268894950709153,0.0208490675007097,-0.234474478331205,-0.0896645234150266,-0.719051931877096,0,0,0,0.221564203979432,0.24363778406168,0.420844497883014,-0.2654349086,-0.0162234203066466,0.185325512585912,-1.01598452912213,0.9555625296,-0.52362893645947,0.324590112529385,0.214972516661878,0.448674486257049,-0.3296508078,-0.0124103255776959,0.0843979325281553,-1.00923212939187,0.9656330795,-0.709048307929542,-1.05629569785227,-0.254213722164768,0.0471203549720762,0.311867897617451,-1.0613095858351,0.910343150150221,-4.83627985525724,5.84621393301634,-2.80857647280744,-1.9401202355619,0.218365757470397,2.62255057084679,0.375749498198448,1.25627339778137,-0.0411256434536988,-4.31655154943462,4.74273778831654,-2.96904542640888
0.3499860147,-0.06737993871,-0.02289878444,0.545095754,0.959909834173683,-0.0048585197998668,0.279805250792329,0.0160787645995593,-0.19545260069502,-0.0933732632088514,-0.794691074265947,0,0,0,0.200665738048588,0.240540725494121,0.420665692490858,-0.2541478644,-0.0326371471197164,0.199925080259412,-1.09367343099087,1.0564041633,-0.569604542216476,0.290106319173673,0.216649472194982,0.496224791094756,-0.3215559707,0.00809914557373946,0.0843400525540287,-1.08479006936381,1.0586556379,-0.751666171103348,-1.25395806150688,-0.185830939486209,-0.0107287522288236,0.677249713544056,-0.984862961938421,0.876009063980176,-4.66152037715528,6.05073979746083,-2.75864657542025,-2.06911027885125,0.100621352614252,2.85313229572272,0.485709633985553,1.23061744209787,-0.00347293721922614,-4.53365755420493,5.5815765326351,-2.55717396998582
0.3666520154,-0.06972143171,-0.02452701314,0.530873532,0.956957307705474,-0.00823087880004709,0.289838021401658,0.0126049678000721,-0.140495193906957,-0.0976976258017317,-0.853367418855316,0,0,0,0.17992093036099,0.240344029443318,0.430466948811297,-0.2426025115,-0.0472073183853291,0.217758065867972,-1.16840351664979,1.155996141,-0.615303742112614,0.254371983015047,0.216237681796233,0.544752953255257,-0.3098500476,0.0239368163263338,0.0824251017996919,-1.16036872061209,1.1574709443,-0.789539970288052,-1.2447381985048,-0.011802234641865,0.588098878481282,0.692748854858741,-0.874245209026823,1.07002189244839,-4.48398431058037,5.97575744131583,-2.74206156106409,-2.1441458452972,-0.0247084112236191,2.9118060795774,0.702383451837969,0.950298217171825,-0.114901636499796,-4.53490028044217,5.92915530118752,-2.27251875638673
0.3833180161,-0.07103944295,-0.02564980306,0.51596678,0.954812765763652,-0.010785238000719,0.296891577619792,0.0084647572005643,-0.0790838344318562,-0.0673700871739434,-0.894440860067888,0,0,0,0.157455831117471,0.238641454258624,0.447858111136143,-0.2272017261,-0.0588701884066372,0.233517643347461,-1.2321926961552,1.2522562853,-0.663412558578717,0.217549439287683,0.218742312662595,0.599433779435406,-0.2964947881,0.0345845013141292,0.0799395696787694,-1.22576288983262,1.2515232471,-0.829980258054819,-1.34795981638944,-0.102158593134681,1.04351143612078,0.924084048550412,-0.699800163893438,0.945612433550953,-3.82750370971815,5.77583944899271,-2.88664433250044,-2.20944090848169,0.15028385702406,3.28098067223459,0.801347590247011,0.638886627899597,-0.149137886507019,-3.92380694070967,5.64336366552535,-2.42651422466138
0.3999840168,-0.07116490815,-0.02630991902,0.500716874,0.953545137056265,-0.0120476611007109,0.300971586817759,0.00475703550028069,-0.00752821281232802,-0.0396085402780524,-0.915030922805612,0,0,0,0.131948488873402,0.234558292447512,0.477554251920509,-0.206252539,-0.0676858718283364,0.245791835829249,-1.28534991941243,1.3446767052,-0.708937021465413,0.174675260647297,0.220427786557005,0.657612457557168,-0.27005305,0.0400709897776622,0.0776855908192051,-1.27880060175827,1.3394162828,-0.876526434520929,-1.53050169043071,-0.244999498356716,1.78183964581051,1.25700145326407,-0.528962141571202,0.73648097721415,-3.18956084390606,5.54544677896238,-2.73157692155237,-2.5725535125164,0.101132474716042,3.49086017509665,1.58656768207144,0.329202462083959,-0.135244135659031,-3.18238987747399,5.27379287221559,-2.79288218595301
0.4166500175,-0.07009165408,-0.02678293345,0.485603874,0.953018845838081,-0.0128677318005142,0.302626365612093,0.00260457140010407,0.0643978174079881,-0.0283819998879516,-0.906816234563103,0,0,0,0.0982452119471188,0.229825859954718,0.518425712415042,-0.1770235101,-0.072450201269323,0.257465955393734,-1.3281108773041,1.4313776812,-0.752201151651694,0.126263946813545,0.221259999002971,0.72024449738749,-0.2414523394,0.0425894687319427,0.0759966818402504,-1.32183382703166,1.4234067624,-0.921994920600098,-2.02227742173822,-0.283957295933238,2.45238562209664,1.75381181281242,-0.285871189300179,0.700475163455703,-2.56575999613784,5.20226643216211,-2.5959515402085,-2.90479489981975,0.0499347420503686,3.75807255488244,1.71611120837167,0.151114775501034,-0.101338588024581,-2.58209669182287,5.03963014954151,-2.72821817889214
0.4333160182,-0.06818412692,-0.0272904989,0.471157624,0.952981481552746,-0.0135890520993262,0.302722051284989,0.00099656729995057,0.114456203040961,-0.0304551439266408,-0.866809635979431,0,0,0,0.0525272713493742,0.223057217231091,0.568572277648388,-0.1355754311,-0.079936435654687,0.264938326344146,-1.36345598744944,1.5123766665,-0.790060264668523,0.0701330991112099,0.219392804181942,0.779868765761459,-0.2094185664,0.0454858358179021,0.0743869846180413,-1.35827121175319,1.5041160231,-0.961305198092207,-2.74318604809278,-0.406134791751638,3.00891414419214,2.48698411491126,-0.449192011936255,0.448360172600512,-2.12079135130152,4.86013331920716,-2.271637551103,-3.36798544010231,-0.112036166002829,3.57759905614122,1.922103183399,0.173788969417204,-0.0965856927036579,-2.18633044468364,4.84274914857048,-2.35871089889665
0.4499820189,-0.0659651272,-0.02779928907,0.457820846,0.953118047413216,-0.015000857200208,0.302219388304191,-0.00209840690002906,0.133145303420033,-0.0305286300630002,-0.800238655936217,0,0,0,-0.00422441441403094,0.215125967398252,0.620323525012825,-0.0912964279,-0.0934927127545076,0.271384180701325,-1.394039531127,1.5864798559,-0.822311938899743,0.00368459911076133,0.213959064106111,0.828827928482047,-0.1737213471,0.0524311423507413,0.0716022226868364,-1.3881254891669,1.5754825362,-0.995169104857742,-3.40523721227284,-0.475894005743029,3.10519891940468,2.65684635426662,-0.813409128191178,0.386766715855158,-1.83508594701778,4.44636903201378,-1.93517777970692,-3.98706931534261,-0.326037432353637,2.93766714653915,2.1419187447892,0.416735043869236,-0.167092392550117,-1.79132822271571,4.28216189262491,-2.0319155972155
0.4666480196,-0.0635748554,-0.02823330146,0.445844238,0.953383612856239,-0.0162510752992541,0.301263767786172,-0.00597758379972563,0.143422038857829,-0.0260417839776041,-0.718625194825535,0,0,0,-0.0730225713796714,0.202940580719741,0.648782327023104,-0.0395858128,-0.108817041362888,0.275472973486518,-1.41765594110011,1.6521181983,-0.856457320542442,-0.0720415955538632,0.204277462256208,0.854092051615727,-0.1327706869,0.0623513037690645,0.0693951750694683,-1.41184887513835,1.6377331945,-1.02225116593064,-4.12805436673481,-0.731152416098892,1.70759635275177,3.10276088611949,-0.919496457742273,0.245337370302214,-1.41704122051922,3.93845791690144,-2.04880476470272,-4.5437532391694,-0.580919323368471,1.51590796067106,2.45713779431199,0.595233469438363,-0.132428148606047,-1.42346003690333,3.73518874867202,-1.62498859566846
0.4833140203,-0.06066738615,-0.02890730206,0.435558508,0.953796894880694,-0.0183104235015491,0.299784507425363,-0.00809078580068448,0.17445512587792,-0.0404416519675294,-0.617168460817354,0,0,0,-0.1461119811312,0.192726388887629,0.661898807218302,-0.0023684118,-0.121745751940781,0.281529669231311,-1.43395130038014,1.7073473973,-0.883130496286211,-0.151403900510157,0.190708187107062,0.868991598049761,-0.0924884878,0.072833131939702,0.0640967372957502,-1.42807257566995,1.6910338047,-1.04751638671151,-4.38553982249192,-0.612875999225904,0.787020259467432,2.23313329154006,-0.775753632237233,0.363416266074767,-0.97776062616112,3.31388435619111,-1.60045449558693,-4.76192857451961,-0.814189042314542,0.89400850883403,2.41702852562583,0.628934821215837,-0.317918969829282,-0.973460929447469,3.19816440425326,-1.51597382213377
0.499980021,-0.05726604926,-0.02900723126,0.427310366,0.954349199216207,-0.0175855202002986,0.298043488905061,-0.00885630600015038,0.204088368363023,-0.00599599158783153,-0.494908295545678,0,0,0,-0.215989664083078,0.183032769428921,0.666825808101439,-0.0213453768,-0.123925778295301,0.278504451864648,-1.44195031574944,1.7522861348,-0.902643482809286,-0.227060609616074,0.181327263725882,0.872104036974046,-0.0657448075,0.0785144089562633,0.0652337089779,-1.437109095234,1.7354960674,-1.07084724554798,-4.19282851415445,-0.581640408709933,0.29563186584633,-1.13866339871209,-0.130806808049622,-0.181520295187779,-0.479960100403914,2.69643199402962,-1.1708259752488,-4.53958393905003,-0.562877894345652,0.18675379776536,1.60468493800075,0.340890242285979,0.068221026904785,-0.54221283958354,2.66784236364517,-1.39990746769119
0.5166460217,-0.05322481451,-0.02913203587,0.421446522,0.954997454345327,-0.016016869399083,0.29606918318305,-0.00814621739953365,0.242483774166648,-0.00748857582851302,-0.351844699010483,0,0,0,-0.288919340937494,0.173859072084761,0.666987941422342,-0.0287979327,-0.119549666755849,0.271358135644467,-1.44165066401068,1.7861193423,-0.919431382654495,-0.303229429889155,0.175463582807424,0.868264193964701,-0.0516949072,0.0810453002407704,0.0657123226858499,-1.43788987309573,1.7696539062,-1.08601647950757,-4.3759554656935,-0.550443835284361,0.00972838798106576,-0.447171222067691,0.262577184426254,-0.428796107045697,0.0179798227633252,2.03007356767961,-1.00731424097496,-4.57031183690526,-0.351834913727005,-0.230399786875393,0.843027703700985,0.151859545074128,0.0287179699896378,-0.0468485436783565,2.04955222400777,-0.910190406963543
0.5333120224,-0.04862132625,-0.02929741633,0.417986534,0.955835128446382,-0.0151112455991523,0.29343448768354,-0.0068599505996152,0.276220332812058,-0.00992322411218905,-0.207607575583503,0,0,0,-0.362437863014131,0.168812413537589,0.660462420394087,-0.0176173534,-0.111995269014154,0.265257883804842,-1.43445348713625,1.8105661692,-0.927793844702043,-0.381476304056475,0.17305419277408,0.844206630656029,-0.0530108854,0.0844938854060317,0.0650931312139413,-1.43030952740921,1.792976741,-1.09592186086663,-4.41128759082773,-0.302811612576708,-0.391546907126614,0.670861564286386,0.453281976742936,-0.366029736193691,0.431847868242833,1.46686822712062,-0.501767772489532,-4.69500005285134,-0.144569178695838,-1.44351147835194,-0.0789618471574886,0.206923378160021,-0.0371529728730094,0.454838915644884,1.39942600626435,-0.594346630445883
0.5499780231,-0.04341406279,-0.02947494487,0.41660325,0.957011205641492,-0.0147959673006415,0.289623519512557,-0.00537108680023287,0.312448292408868,-0.0106521380381319,-0.0830003565282419,0,0,0,-0.431309846531529,0.167547205225457,0.645126495594889,-0.0128770392,-0.102553063141416,0.263316195193879,-1.41926650133045,1.8252705682,-0.9261532660551,-0.449922099597225,0.175840403540836,0.834741220831452,-0.0792728547,0.0892899441202935,0.0631465952194163,-1.41391300810536,1.8065449306,-1.10294805112714,-4.13248413684505,-0.075915532160756,-0.920192256994091,0.284430217262621,0.566554990768581,-0.116505972003376,0.911255560298053,0.882299194911242,0.0984386522282259,-4.10691183642814,0.16717932615683,-0.567947283512181,-1.57578112306212,0.287775021770025,-0.116796826639097,0.983830470128606,0.814123906763077,-0.421588261454737
0.5666440238,-0.03743494769,-0.02947074732,0.41747447,0.958233495169473,-0.0141700767010273,0.285601890420706,-0.00439748220031882,0.358761241381683,0.000251863063944389,0.0522752888159875,0,0,0,-0.500499591709457,0.164663907624212,0.626205963240425,-0.0512166869,-0.0910036513651999,0.261963263521032,-1.39518592569655,1.8289427409,-0.925896412064874,-0.518120825051665,0.182242288934907,0.801658359979986,-0.1138513178,0.0947676512067324,0.0611239351578341,-1.39016445706455,1.8090337701,-1.1036737946824,-4.15155059833449,-0.173004768999307,-1.13527730467837,-2.3004707842116,0.692992397163179,-0.0811791441271011,1.44489227303941,0.220339166312406,0.0154118552404858,-4.0920870388803,0.384128472649793,-1.98505096975463,-2.07479069048641,0.328675558404302,-0.121364453175754,1.42497000139997,0.149336337181361,-0.0435463533404341
0.5833100245,-0.03088359281,-0.02944798325,0.420625086,0.959103514231689,-0.0138105465004563,0.28269683680934,-0.00349517550011544,0.393097000169933,0.00136589877858342,0.189044513840684,0,0,0,-0.573863845847548,0.159045616791334,0.594197831577813,-0.0877883161,-0.0783901849236991,0.262395932019464,-1.36558475697862,1.8198199049,-0.923511550081721,-0.584734454956212,0.190218942382088,0.763312334967555,-0.1612823856,0.0983323603505716,0.0574299350821249,-1.36112453923165,1.7982144741,-1.10317694514427,-4.40203114464594,-0.337110920250816,-1.92056464167866,-2.19438543525322,0.756838228231972,0.0259611472614715,1.7761410941214,-0.547392032690854,0.143097436876531,-3.9969775055,0.478618331462111,-2.30085343824756,-2.84597778758044,0.213891095290737,-0.221648861187745,1.74246469537841,-0.6491837000823,0.0298121635217041
0.5999760252,-0.02320825955,-0.02940851774,0.425843516,0.959933460268833,-0.0136770970995559,0.279868630390913,-0.00377340619987749,0.460538397793299,0.00236802522155177,0.313118311581491,0,0,0,-0.635327347788835,0.156301177581946,0.572841492284708,-0.1465081735,-0.0661013821882277,0.263436660414441,-1.32748182009866,1.7986525517,-0.916727501933362,-0.6440290622687,0.196301498633152,0.734593378265922,-0.2216637963,0.102818879143494,0.055199318950979,-1.32422075252585,1.7756421308,-1.10327285148542,-3.68795747988218,-0.164672932564337,-1.2814315610286,-3.52333222930922,0.737357627464359,0.0624461989238424,2.28626756747699,-1.27009194233382,0.407059154171221,-3.55781860206495,0.36496795845358,-1.72320625797363,-3.62302941100921,0.269201884344242,-0.133842315940011,2.21431568197439,-1.35439471690409,-0.00575461041122178
0.6166420259,-0.01465876419,-0.0293360935,0.433238218,0.960603706412913,-0.0137339839001846,0.277538239703731,-0.00494190390006645,0.512990219663197,0.00434562804260536,0.443699849358586,0,0,0,-0.689575753323018,0.155979739774059,0.563928979286968,-0.2197736048,-0.0549810476427869,0.262327182547932,-1.28316924957941,1.7667688768,-0.910079623643188,-0.700757395596732,0.200775420401466,0.719358473435887,-0.2818130784,0.108706815086151,0.0539230903702513,-1.28188583680283,1.7419625123,-1.09394299673795,-3.25503439671546,-0.0192870391446911,-0.534772148289914,-4.39610153742523,0.667246734571468,-0.0665713320478227,2.6588604739022,-1.91309693752743,0.398888636202565,-3.40383601016126,0.268446032665364,-0.914130816641263,-3.60910113846329,0.353290273332134,-0.0765767746984308,2.54019644455036,-2.02085785943835,0.559813653882052
0.6333080266,-0.00448735567,-0.02932404202,0.442711402,0.961600549987207,-0.0137737324012491,0.274025095824851,-0.0067017474006078,0.610308897922943,0.000723117694336865,0.568413752676728,0,0,0,-0.735076224842986,0.159779791463496,0.574366468281835,-0.2964354468,-0.0407496289272634,0.258928668758351,-1.22626084720913,1.7212576713,-0.902542959558073,-0.749612000372618,0.203198499924937,0.713740258506697,-0.3411507824,0.113101790460031,0.0515659389060982,-1.22850512559321,1.6951929242,-1.08257626379553,-2.73013738202756,0.228012212278197,0.626274364363069,-4.59989432257734,0.853919243836555,-0.203918975569326,3.41464058442535,-2.73078144656504,0.452217914830341,-2.9313934191714,0.145390580925123,-0.337106365847581,-3.56040450664328,0.263709059719424,-0.141434739298499,3.20297065687899,-2.80628741963272,0.682031229149259
0.6499740273,0.00762025411,-0.02939838419,0.454328854,0.963223477841958,-0.0148160259006454,0.268104538511679,-0.0100485591004377,0.726485615712233,-0.00446070844098799,0.697074973721798,0,0,0,-0.774101325299589,0.169348916067974,0.596990047548126,-0.3670916109,-0.0262127734767696,0.255391591761267,-1.15427945853293,1.6614103312,-0.889156312934416,-0.793434312896837,0.201177864122532,0.717342765339813,-0.3946521052,0.123016858768452,0.0459686956804228,-1.16080668789142,1.6331831212,-1.0697997415136,-2.34159959303275,0.57417041897026,1.35746899772366,-4.23953924950933,0.872246180242499,-0.212233100235229,4.31905590140775,-3.59098389453447,0.80323089291949,-2.62944381876924,-0.121242992771823,0.216159047270192,-3.21020764147694,0.594927870633092,-0.335848013355442,4.06206857424347,-3.72073685320317,0.766621969596277
0.666640028,0.02200676695,-0.02949853529,0.467939444,0.965700109504661,-0.0163460323000789,0.258766618001249,-0.0139979691000676,0.863225263155065,-0.006009306119854,0.816668032421242,0,0,0,-0.803998685670171,0.179770735725895,0.625833824430094,-0.4303022006,-0.00910466537320163,0.24960394642514,-1.06448722121785,1.5867259473,-0.870909136369241,-0.827397912841306,0.193707667653675,0.710125773431304,-0.437232903,0.128373315679515,0.0338750030836196,-1.07722686068968,1.5564689194,-1.04903938098142,-1.79391330342267,0.625334166577909,1.7306957680596,-3.79278693418032,1.02652750420009,-0.34727259648607,5.38774952259994,-4.48124209547165,1.09487434289944,-2.03789742697352,-0.44822969849369,-0.433036817795719,-2.55494995869045,0.321400257175283,-0.725650551352918,5.01499002107551,-4.60303603611393,1.24567140646899
0.6833060287,0.03880158534,-0.02978280837,0.483525392,0.969161921875362,-0.0184859502995301,0.245027053193771,-0.0185790750995277,1.00772937025018,-0.0170570663662579,0.935194248491782,0,0,0,-0.825170922789128,0.189816514609352,0.649593851945947,-0.4780613901,0.0073134402505594,0.241181909920871,-0.955969117155778,1.4968973413,-0.842535833256911,-0.846473052843837,0.187685693538179,0.707520603149705,-0.4827772697,0.128401290786322,0.0165679701652692,-0.974867321780827,1.4632892811,-1.01804224786932,-1.27038498918082,0.602770818523762,1.42565861741818,-2.86566587627708,0.985125701078426,-0.50534238272704,6.51134642410479,-5.3899317308921,1.70246621388478,-1.14455413424592,-0.361332885069191,-0.156316462989156,-2.73277119807153,0.0016785734808804,-1.03846347002436,6.14181774928478,-5.59100170324606,1.85990230470226
0.6999720294,0.05808471466,-0.03016422234,0.500985352,0.973408920194864,-0.0210272132998891,0.226931383198803,-0.023131746699878,1.15703399196425,-0.0228857526689052,1.0476394615776,0,0,0,-0.834627356351707,0.203295251842699,0.681301541697914,-0.5256076498,0.024896681654047,0.227717605380746,-0.831462349950815,1.3944569861,-0.797575603486318,-0.850980272469221,0.178558938540716,0.697615302007619,-0.5167047252,0.118269729371558,-0.00313805574367868,-0.855279823142165,1.3560527613,-0.970601344163771,-0.567408686270998,0.808756550295083,1.90253740670774,-2.85288957776175,1.05503664136337,-0.807890554098265,7.47070454671007,-6.14666692051681,2.69772158179457,-0.270443983923758,-0.547627181934697,-0.594341817235466,-2.03572867364634,-0.607917976072358,-1.18240880122775,7.17553663841271,-6.434448295685,2.84656796549548
0.7166380301,0.08001448616,-0.03068421083,0.520150414,0.978083078727236,-0.0231016378006433,0.204878738505705,-0.0290604189008093,1.3158388682895,-0.031200556111821,1.14994966968891,0,0,0,-0.829053852892893,0.219511291697383,0.712645774646791,-0.5686858663,0.0409841078606713,0.208831112055161,-0.69402422438654,1.2806213764,-0.726714554538638,-0.837288728178004,0.168217114052554,0.691797565621599,-0.5427345656,0.0985152214175994,-0.0199233962188427,-0.718638384259034,1.2325218475,-0.903474801708179,0.334423570425822,0.973001270465812,1.88072912710707,-2.58479627328949,0.965284143221254,-1.13323488133448,8.24661705218068,-6.83040951150326,4.25183283159708,0.821525483988316,-0.620534264597909,-0.349078131625211,-1.56185283251548,-1.18531784016776,-1.007160672636,8.19881394119537,-7.41215100272977,4.02775348830943
0.7333040308,0.10482788225,-0.03109441405,0.540712984,0.983072692196068,-0.0222823656999109,0.178315139699287,-0.0357111885998571,1.48886325739804,-0.0246131766933142,1.23380350032026,0,0,0,-0.80289305495905,0.229610918158703,0.731892436944849,-0.5961224422,0.0604644181874402,0.179901687527341,-0.542267739829761,1.1544934126,-0.622453940480962,-0.799688725828369,0.160335687769341,0.694304256750214,-0.5620187085,0.0625149957379039,-0.0229790702495764,-0.563761895936536,1.0950422623,-0.811466379753164,1.56971059852667,0.606001802299217,1.15484588321529,-1.64626033527048,1.16886532512679,-1.73583483215743,9.10575292108193,-7.56798022935401,6.25588681618594,2.25609028983387,-0.472904473309677,0.150407477698895,-1.15709480919439,-2.1600998540517,-0.183347768054138,9.29296062747058,-8.24910472972679,5.52072591446698
0.7499700315,0.1320436194,-0.03129036911,0.562609054,0.987679753731226,-0.0181319686005732,0.149360805304722,-0.0430265688013603,1.63300948079283,-0.0117577734171104,1.31381669748759,0,0,0,-0.755435532825376,0.236700839017565,0.740036412261205,-0.6185202525,0.0774398910082666,0.141907371948427,-0.385813914866892,1.0188848203,-0.477465876022734,-0.742728544616292,0.156441444064471,0.707654814293648,-0.5772659049,0.00725597937313701,-0.0050815664744694,-0.398113430952863,0.9435965525,-0.690819585996756,2.84756511102717,0.425412250154384,0.488658044779495,-1.343922318448,1.01856906923245,-2.27975002898648,9.38760460767704,-8.13684066987948,8.69963148736868,3.41774743907681,-0.233663959036694,0.801065461579784,-0.914868340309139,-3.31567346956651,1.0738931371284,9.93930505377174,-9.08710569056919,7.23909688521781
0.7666360322,0.16072061957,-0.0312793572,0.585849292,0.99120638166617,-0.0102335969006832,0.121282262608096,-0.0519210479034661,1.72068876548169,0.000660741001889204,1.39447000023227,0,0,0,-0.692716973469919,0.242698180713898,0.735461917629258,-0.6406667353,0.0836055490314685,0.097871100496176,-0.237896296048221,0.8784434113,-0.28735361031249,-0.675789254650175,0.155253521879959,0.728965622538012,-0.5851303585,-0.0559049699904528,0.0366192016311759,-0.237057078070321,0.7832234833,-0.53562396022038,3.7632639338277,0.3598548808613,-0.2744806456144,-1.32884206587127,0.369954264024597,-2.64228186743394,8.87541177282389,-8.42682125892387,11.4071917511826,4.01651788998886,-0.0712781792042311,1.27869958893998,-0.471886071623649,-3.78980839497923,2.50214606709127,9.66376731776699,-9.62276865859006,9.31210963985957
0.7833020329,0.18928361564,-0.03181942981,0.609930524,0.993556843532458,-0.00348023379976342,0.0962362879934579,-0.0597600494959376,1.71384824614822,-0.0324056514650215,1.44493165657913,0,0,0,-0.625974178881825,0.250275747644818,0.728488629918602,-0.6628812862,0.0721616247202817,0.0675813830220253,-0.108325728137019,0.7360594509,-0.0635711723956177,-0.607537698165159,0.159501690269713,0.761412754620474,-0.5972272357,-0.106263436214099,0.0822017262826257,-0.0938885921305805,0.6257197356,-0.336051228915775,4.00472769619492,0.454672183646333,-0.418413981625276,-1.3329263150697,-0.686662896347222,-1.81745567034272,7.77454472993047,-8.5433790003381,13.4274828103705,4.09525702738129,0.254900288691016,1.94690571940643,-0.725841635180063,-3.02162871165883,2.7350607666451,8.59045241368199,-9.45060248917426,11.9748423690277
0.7999680336,0.21557127942,-0.03318594909,0.633912188,0.994777272910707,-0.000803473200008648,0.0776118272008353,-0.0662867710007135,1.57732285346658,-0.0819944331335591,1.43895733785731,0,0,0,-0.569824194539841,0.262845803786792,0.72080528285839,-0.6866666332,0.038116823859748,0.062573215899096,-0.00846871615925565,0.6112980799,0.144995550258509,-0.553099841150252,0.16270293954168,0.785298998200264,-0.6101322001,-0.113121484136239,0.105361145444357,0.0172902484740479,0.4915440587,-0.10777170349395,3.3691336843628,0.754233506180859,-0.461019245019693,-1.42717784717242,-2.04276967662276,-0.300502034836061,5.99166013342139,-7.48598138484418,12.514503413775,3.2664019397831,0.1920826315558,1.43323188386707,-0.774328804630375,-0.411499318018153,1.38962067616688,6.67099699597567,-8.0508623103562,13.6973188427759
0.8166340343,0.24011699649,-0.03472845152,0.656857278,0.995470021322007,0.000739361900016346,0.0618976670013684,-0.0721634867015954,1.4728018744173,-0.0925538440665009,1.37676041259257,0,0,0,-0.516698997352236,0.274723438629273,0.703438715363715,-0.7133754068,0.00627432092720577,0.0649899630882002,0.0700544605492413,0.5114722282,0.309674062466351,-0.508408255961312,0.1702962168117,0.802414690668096,-0.6289416134,-0.0764411448773572,0.105011108194616,0.108803617583414,0.3815621358,0.120948757743276,3.18763920294358,0.712686568078764,-1.04203568734248,-1.60259045230929,-1.91062652076705,0.145010625680832,4.71157886777822,-5.98979044204648,9.88110556168654,2.68160226279962,0.455614841659022,1.02698258423998,-1.12860989499418,2.20090829942673,-0.0210030742253051,5.49102155680134,-6.59917906399704,13.7237760488769
0.833300035,0.26205678177,-0.03544555182,0.677775448,0.99592824873886,0.00408653070015945,0.0503355832019641,-0.0746763195029138,1.3164397190983,-0.0430277373023273,1.25514035289823,0,0,0,-0.474193957207629,0.282222669098889,0.687383753574786,-0.7441455614,-0.00679641105343473,0.0594262533163717,0.111431229968267,0.4715338588,0.352928501556037,-0.474644997319515,0.18812262168417,0.810298013973075,-0.6570990102,-0.0487398456671248,0.102569495939972,0.162323952577499,0.3255196136,0.285904285326233,2.55040431773213,0.449971808150446,-0.96333620032365,-1.8462830497781,-0.784275256909146,-0.333835925725633,2.48270536908266,-2.39639791926806,2.59537005117763,2.02587646847972,1.06962703250516,0.47301829916393,-1.68951131749323,1.66214436857863,-0.146502589229096,3.21134841870524,-3.36268569819513,9.89772714835883
0.849966035700001,0.28127637594,-0.03626560987,0.69664714,0.996268145736921,0.00616139670022834,0.0424857907015745,-0.0748784119027749,1.15322173063391,-0.0492054491513374,1.13234676631208,0,0,0,-0.448563189421626,0.288821496322644,0.680949141515645,-0.7717549247,-0.0115599545996514,0.0571027823653756,0.115554109744079,0.4902629869,0.343384883603684,-0.448646166243365,0.211606359479555,0.80899957635972,-0.6972538003,-0.0340069152885132,0.0941625176499483,0.170313065913249,0.356966956,0.292842110145396,1.53790751886883,0.395945454613781,-0.386092151018642,-1.65662799354136,-0.285824033729742,-0.139413827757497,0.247382671465496,1.12379259050433,-0.572639958688621,1.5599921987373,1.4090805717646,-0.0779093699038838,-2.40938368015309,0.884011146034065,-0.504438853769162,0.479365954649808,1.88691594138719,0.416286123110697
0.866632036400001,0.29832845007,-0.03691462138,0.713607482,0.996624285470487,0.00789725099976614,0.0357107531989425,-0.0735010825978234,1.02316533144031,-0.0389422466542917,1.01766118370558,0,0,0,-0.432382331128338,0.292905415980147,0.680267767730748,-0.791909987,0.0117447048577525,0.042163999177316,0.101307553847543,0.5380815179,0.339383135272561,-0.421863132306693,0.239129662860931,0.804960271387769,-0.7386704636,-0.00204040038764169,0.0740419769693959,0.158160023617677,0.4252285284,0.262481906205384,0.970890292431543,0.245044970957135,-0.040884060739137,-1.20935206128967,1.39833544213184,-0.896362808148664,-0.8548275109898,2.86922650855283,-0.240114494362322,1.60704625055439,1.65146419208875,-0.242367982856928,-2.48509909758974,1.9180675361949,-1.20728068135461,-0.72921167557448,4.09585800629422,-1.82168502729106
0.883298037100001,0.31352622049,-0.03777634168,0.729031632,0.996893574094144,0.00830929549995119,0.0305850387998203,-0.0721021007995764,0.911902663006607,-0.0517052840397397,0.92548598056881,0,0,0,-0.422527662864171,0.295968992284476,0.681635914834061,-0.8043629112,0.0481793853592748,0.0236620728102042,0.0762497940641768,0.5944661247,0.315644464351302,-0.392135027249658,0.26442661755202,0.793306593970165,-0.7733902984,0.0193968502586168,0.0517432517270153,0.134853277725253,0.4914969347,0.248324041037508,0.591303723164206,0.183821923416177,0.0820921064352096,-0.74720530882973,2.18616818499967,-1.11015994179766,-1.50352566488051,3.38321159436889,-1.42437717053853,1.78375757880746,1.51787793283181,-0.6992485856312,-2.08327333143578,1.28628643620893,-1.3379769774269,-1.39846063323542,3.9762632615274,-0.849505854627453
0.899964037800001,0.32822507746,-0.03840976685,0.74292848,0.997115769004869,0.00844484820004124,0.0258921395001264,-0.0708408417003459,0.881966659823794,-0.0380070288848602,0.833844198746501,0,0,0,-0.411611024717146,0.295101877101431,0.681033896226815,-0.8078465884,0.0748417213764559,0.0100447243503386,0.0488384373017735,0.641916391,0.29153683811852,-0.356642546570326,0.288463628445789,0.778209046344975,-0.7974514073,0.0197188677055948,0.0391568945759805,0.110279746728538,0.540870554,0.229308426725808,0.655024462288976,-0.0520289899570672,-0.036122559820056,-0.209028984380157,1.59980408600253,-0.817073556217095,-1.64474712654988,2.84712974361029,-1.44651537382826,2.12963393667274,1.4422782841818,-0.905889055026261,-1.44372422233248,0.0193218188799195,-0.755211605807433,-1.4744707767062,2.9625355349949,-1.14098245007879
0.916630038500001,0.34300769678,-0.03879055572,0.755173566,0.997180074419669,0.00880966569929031,0.0213440226982806,-0.0714053335942477,0.886992601650378,-0.0228482451701802,0.734734518521895,0,0,0,-0.397709749217175,0.291372850677142,0.676583763913484,-0.802893344,0.0795949658817371,0.00470677472347201,0.0280142284167376,0.6632565319,0.271022066466937,-0.317570792416607,0.31077957319981,0.765475419043407,-0.8108590268,-0.00327811556093428,0.0400642460325596,0.0884838282685386,0.5656332855,0.212145648084071,0.83410985936004,-0.223750526080889,-0.2670186083294,0.297206539778917,0.285206066580881,-0.320289775750858,-1.24950246072148,1.28045961860544,-1.23093548481508,2.34439892671549,1.33901018941042,-0.764048167930762,-0.804489315784082,-1.37987413300235,0.0544432628386434,-1.30780736496665,1.48582326052585,-1.02980786756696
0.933296039200001,0.35880923365,-0.03889743809,0.765809562,0.99704863188383,0.0105210729008846,0.0134905077011343,-0.0748420930062926,0.94813009758244,-0.00641319845858433,0.638185260606642,0,0,0,-0.373840608300356,0.284369355567925,0.666626750117718,-0.7938717371,0.0700465472007469,-0.000297403112361451,0.0275720221511124,0.6494666854,0.243414772944391,-0.271334892533762,0.332483600233075,0.751140778706816,-0.8139342969,-0.0430153955838012,0.0547235449411345,0.082152827612461,0.5569345645,0.191867908206252,1.4322056830838,-0.420226497963415,-0.597444700441298,0.5413180439864,-0.572928013916988,-0.300262668045697,-0.0265334361605551,-0.827423852202289,-1.65650380193169,2.77426484704542,1.3022936590459,-0.860112788582295,-0.184523579193176,-2.38433207451305,0.879593081294837,-0.379875218418633,-0.521944115842982,-1.21671301008764
0.949962039900001,0.37390637739,-0.03943770425,0.774738678,0.996906319638815,0.0101674069003959,0.00987401370038445,-0.0773105268030101,0.905864820946511,-0.0324172649290719,0.535768368232452,0,0,0,-0.355058937503693,0.278092278288361,0.657768824676717,-0.7824066693,0.0546706579150413,0.00418409771024666,0.0205437943094102,0.623134903,0.208794377306252,-0.236180195475133,0.352894971847811,0.743749741629098,-0.80459504,-0.0865323985973733,0.0640455265416093,0.0738757093938393,0.5212914504,0.155800977508187,1.12694527827924,-0.376639686542418,-0.531496764007713,0.68793155636913,-0.922590222002427,0.268900794094417,-0.421710521211136,-1.57997007644431,-2.07730674331115,2.10936610956877,1.22473123469485,-0.443479945234734,0.560377805576351,-2.61112451612774,0.559341246186005,-0.49664693813566,-2.13867230306789,-2.16410231508415
0.966628040600001,0.38813652066,-0.03984157268,0.781738664,0.996808707212222,0.00989481749912867,0.00948851159916445,-0.0786413501930749,0.853842714047171,-0.0242330741051748,0.420015942997054,0,0,0,-0.343072899545992,0.27356354378265,0.651905101808941,-0.7733501558,0.038828713576838,0.010424603581441,0.00421704757581465,0.5944608887,0.175529232920961,-0.211691251343922,0.37193494088914,0.736811697348008,-0.7865535714,-0.135032012224186,0.0720895217662289,0.0590548261750511,0.4752566461,0.093101129284398,0.719191014896639,-0.271734928326947,-0.351837430786661,0.543412523677623,-0.950554642554608,0.374445314357532,-0.979643948628634,-1.72050960612284,-1.99598841882274,1.46939536197253,1.14244379224878,-0.416299291352485,1.08253137178855,-2.9100930991088,0.482658999565476,-0.889288527318268,-2.76219862993286,-3.76214122106628
0.983294041300001,0.40235345381,-0.04061080079,0.786761514,0.996712368993555,0.00885115599994277,0.00802909359994808,-0.0801351619994818,0.853050075174904,-0.0461555308827034,0.30138304266362,0,0,0,-0.327964491246086,0.270751504700621,0.645731859456583,-0.7665451169,0.0181364727584226,0.0211141900962935,-0.0104857867261395,0.5649107191,0.152244323982541,-0.182024383804205,0.391088433827408,0.725687357660727,-0.7759506963,-0.179197256696026,0.0743141225543274,0.047775649874507,0.423153332,0.0320825840379742,0.906540721548482,-0.168729086998574,-0.370409341957976,0.408318649596598,-1.24158406032081,0.641400819985114,-0.882205309276996,-1.77308102477159,-1.39715036363943,1.78008318094673,1.1492554982473,-0.667487052684491,0.636197927196776,-2.65002055783185,0.133481380934933,-0.676777620712812,-3.12632376764511,-3.66125901137301
0.999960042000001,0.41594488656,-0.04101821696,0.7895832,0.99658695444535,0.00775154540035273,0.00753335780034281,-0.0818388923037241,0.815518551490282,-0.0244459470111507,0.169307925206075,0,0,0,-0.314522313718612,0.269028498042219,0.640295444371662,-0.7626530328,-0.00412154707756618,0.0324065631268067,-0.0319044403797866,0.5414377861,0.138112071711125,-0.156727251993539,0.410753887684173,0.718891968557257,-0.7603526889,-0.216549333370361,0.0719183038280821,0.0307128056914771,0.3757554254,-0.00971735438549156,0.806562880288028,-0.10338453054319,-0.326197939312498,0.233534377566664,-1.33553455544909,0.677569456151123,-1.28517057206454,-1.40843225813617,-0.847969019431028,1.51788856043106,1.17997438082221,-0.407739638668715,0.93591784140511,-2.24121415489531,-0.143754867731722,-1.02381156044412,-2.84398803607394,-2.50809652392885
1.0166260427,0.42962892189,-0.04146981258,0.790335294,0.99650121099615,0.00721789769997211,0.00743074839997129,-0.0829338435996795,0.821074928311983,-0.0270968199347306,0.0451274432023677,0,0,0,-0.299558722995796,0.268843360989186,0.639136507188914,-0.7639480672,-0.0242886397850919,0.041989312213037,-0.0556079896508823,0.5218272665,0.128497801889583,-0.128205977289177,0.431737656035628,0.710851786830509,-0.7474826309,-0.248570548820068,0.0665214490813038,0.0124377664844655,0.3310523072,-0.0313219000298239,0.897851319712006,-0.0111086670621532,-0.069539009604643,-0.077705168943141,-1.21007391458502,0.574987920541143,-1.4222697873219,-1.17667819370727,-0.576879240233172,1.71134486417984,1.25907641126255,-0.482430180550003,0.772234336939633,-1.92134970027376,-0.323824224175048,-1.09654616821249,-2.68229427111449,-1.2963245371958
1.0332920434,0.44291888207,-0.04194498875,0.788991126,0.996311732179208,0.00671181829985993,0.00755814159984227,-0.0852100833982218,0.797429474486942,-0.0285117094708871,-0.0806533027446665,0,0,0,-0.283433336427139,0.269828458286075,0.637015079166624,-0.7681403479,-0.0477941851938099,0.052131332634922,-0.0842271326116233,0.5107758417,0.110490975639318,-0.0996006914747944,0.452503992227085,0.704782191509095,-0.7348761178,-0.267724347405894,0.0554679387790107,-0.00889687949030454,0.2923339231,-0.0516991574248855,0.967561855956035,0.0591081996588322,-0.127290767621858,-0.251546893310763,-1.41038908084997,0.608545541575851,-1.71721719420911,-0.663111984628681,-1.08045274774681,1.71638573220403,1.24602996035259,-0.364190271599722,0.756421011070763,-1.14927383783359,-0.663237119766417,-1.28012990991714,-2.32319587626082,-1.22268429972294
1.0499580441,0.45576839868,-0.04214315882,0.785708938,0.996112049306277,0.00699009830004405,0.00830719690005235,-0.0874237624005509,0.771001804290096,-0.0118906793277648,-0.196939149294529,0,0,0,-0.265577994829704,0.270464662200341,0.635464612750493,-0.773802196,-0.0644214430299454,0.0585620046731566,-0.116010105374524,0.5018781531,0.0780274249470941,-0.0686576007759145,0.476151979316496,0.700134827381098,-0.7271268558,-0.278469424459733,0.0430674015948718,-0.0359987474930072,0.2636442009,-0.0829219093174432,1.07136330538103,0.0381737602030634,-0.0930317023286211,-0.339724460710003,-0.997675335279177,0.385855740317747,-1.90705456786048,-0.533882648882888,-1.94789087535703,1.85665963033831,1.41893592320627,-0.278852990087607,0.464974299443053,-0.644730385367037,-0.744061962276224,-1.62617705894508,-1.72145211778372,-1.87343997246788
1.0666240448,0.46902317329,-0.04237244732,0.780510066,0.995982322011964,0.00729907989935483,0.00764774809932401,-0.0889238416921399,0.795318255926872,-0.0137578597365594,-0.311944784689701,0,0,0,-0.243778928629141,0.273376479964838,0.640308103484277,-0.7880842253,-0.0771726168573388,0.0641661924701471,-0.142563612554844,0.4872365861,0.0463209571086713,-0.0356018771306428,0.500180372691998,0.696250988876982,-0.7161853868,-0.28479743585788,0.0309277742117418,-0.060015211491666,0.2365898522,-0.114194881729332,1.30799623694742,0.174716047173633,0.290621056663188,-0.856956000247858,-0.765101001549423,0.336264704284487,-1.59327409486548,-0.878529124266745,-1.90246408896544,1.98342267231944,1.4417612124246,-0.233039622044164,0.656514373001319,-0.379695855775814,-0.728406748664661,-1.44104542121247,-1.62332578685179,-1.87645332403527
1.0832900455,0.48187196162,-0.04268098002,0.773238046,0.995720698360587,0.00684225109972917,0.00824340289967371,-0.0917906354963667,0.770958105743988,-0.0185127017305355,-0.436338635219196,0,0,0,-0.22259651910675,0.278538974558341,0.646644758802412,-0.8027362645,-0.0927450300958665,0.0723622374820198,-0.171129605026485,0.4692963466,0.00976342829871236,-0.00182451127948197,0.523398401925726,0.691114083531311,-0.7090522261,-0.274931984462161,0.0130543873162429,-0.0871548602893029,0.2118777353,-0.142237373525431,1.27099535777598,0.309762053082286,0.380214511699551,-0.879157481374642,-0.934382130352829,0.491782351351555,-1.71402803743079,-1.07645738308411,-2.193539378044,2.02672293486468,1.39313742100876,-0.308226636860203,0.42800674429349,0.591950736910674,-1.07244606652986,-1.62844399722346,-1.4827862631735,-1.68261674176568
1.0999560462,0.49496862751,-0.0428741642,0.7640689,0.995540440973965,0.00635410110047208,0.00693325740051511,-0.0938657857069739,0.785831353649231,-0.0115915139737158,-0.550170743722575,0,0,0,-0.199575381559286,0.283678729622078,0.658701631693521,-0.8165627626,-0.102882789520519,0.079127949196885,-0.19107611822838,0.4423554443,-0.0433427298138014,0.0342567960691629,0.547495006390917,0.686746399743715,-0.6995401817,-0.262542727448011,-0.0020990822322689,-0.109705080386425,0.1872249595,-0.173128530564795,1.38132344777015,0.308397626776603,0.72344128073329,-0.829623036077277,-0.608289871525837,0.405958924198605,-1.19683861539108,-1.61651873085545,-3.18649681279047,2.16496494858811,1.44585404134729,-0.262071499108748,0.570745469847483,0.743385125031796,-0.909244504502619,-1.35306727168939,-1.47922565489872,-1.85354348625246
1.1166220469,0.50803213916,-0.04312567903,0.752883502,0.995251946718782,0.0056406254995397,0.00570591319953437,-0.0970009713920842,0.783842019759427,-0.01509149282587,-0.671150697839588,0,0,0,-0.177246248714806,0.290560200965536,0.671712010268617,-0.8325011095,-0.117624965803455,0.087448576262784,-0.209434692910918,0.4098172711,-0.0945430983378997,0.0689931925631405,0.567467930606132,0.67468702081028,-0.6842092096,-0.242521360467803,-0.0172373021712915,-0.132918059535009,0.1654432504,-0.204411014896107,1.33980150645743,0.412904779456642,0.780653907874579,-0.956339027394854,-0.884565922461314,0.499257573288052,-1.10155849702668,-1.95236840473672,-3.07214486821054,2.08426707278235,1.19842333951269,-0.723591649281216,0.919895083167734,1.20133002155752,-0.908329491371174,-1.39283440379209,-1.30695476929867,-1.87702406200621
1.1332880476,0.52135809257,-0.04309929785,0.73970141,0.995034804191813,0.00548474129995487,0.00396773799996736,-0.099297095199183,0.799589154583438,0.0015829340508788,-0.790957125064802,0,0,0,-0.153283748805939,0.297829345769163,0.68803755030285,-0.8530663241,-0.130785933761121,0.0935909084075402,-0.226697408127416,0.3772249926,-0.150971942122112,0.107127835211627,0.586990545091279,0.653255948902934,-0.6693285323,-0.219499372849299,-0.0277483295803543,-0.158043118809322,0.1506463491,-0.24131049080312,1.43780744644195,0.436166116543292,0.979571543773748,-1.2339621826609,-0.789689631878264,0.368554655392297,-1.03580430165815,-1.95561485245828,-3.38586591948314,2.28816998960564,1.17140367605686,-1.28591569706017,0.892876315551816,1.38137445407063,-0.630686845528741,-1.50756379569296,-0.887849554692506,-2.21405702371133
1.1499540483,0.53480557291,-0.04295750774,0.724545738,0.994879490971433,0.00606967329982571,0.00234264639993273,-0.100858661097104,0.806881061753465,0.00850774655253662,-0.909376656872449,0,0,0,-0.131872226111805,0.303374243305601,0.706746667751677,-0.8688214112,-0.141577132929632,0.0978227586321365,-0.245279208314195,0.3478825173,-0.21041614712308,0.147529772388277,0.605140502065324,0.622650364864091,-0.654060392,-0.193166940502336,-0.0342579975352374,-0.186133203099557,0.1436737588,-0.28072373563462,1.28474269739672,0.332707146498423,1.12259190345686,-0.945343000015592,-0.647497822828667,0.253921159657472,-1.11495256248126,-1.76061886880876,-3.56679482204559,2.42421309730594,1.0890409343404,-1.83640842153832,0.916125024523731,1.58000907482043,-0.390595684715356,-1.68547240552047,-0.418372135313783,-2.36488918613212
1.166620049,0.54834366139,-0.04289735093,0.707517832,0.994734102579255,0.00614091489987193,0.0014051232999707,-0.102295551997867,0.812317767393345,0.0036095528305122,-1.02171518569539,0,0,0,-0.111046449596138,0.309423757984384,0.724410566957194,-0.8853933125,-0.154310197458482,0.1043580951584,-0.266987984913344,0.3240395744,-0.25050534559106,0.188917189613051,0.621158803924423,0.586373383298434,-0.6395601965,-0.16429641928135,-0.0404368292326492,-0.218752689332854,0.1480842057,-0.312775269267397,1.24959652231786,0.362985384897,1.05987630286837,-0.994353810389554,-0.764014400218356,0.392135860540524,-1.30257864438643,-1.43063373926296,-2.405448024971,2.48334426295649,0.961136516638833,-2.17670587075259,0.870046495317862,1.73230049252221,-0.370744716062071,-1.95724738168873,0.264637388380765,-1.92316886394807
1.1832860497,0.56174620642,-0.04270227192,0.68849501,0.994677377978118,0.00563433439987605,0.000918406799979796,-0.102880146497737,0.804184835417656,0.0117052083167136,-1.14141492865773,0,0,0,-0.0939088525276872,0.312929039154968,0.739226676534823,-0.8964761533,-0.164031114534207,0.112193069378747,-0.292985192479752,0.3113405587,-0.270492510088511,0.229965324894904,0.634849163786601,0.545010586987661,-0.6253165646,-0.132295901613426,-0.0455286878745517,-0.256759350880688,0.1687314508,-0.344531296951791,1.02829691279512,0.210325274412399,0.889002097403523,-0.664997019950923,-0.583278331179054,0.470117238165438,-1.55989478426024,-0.761971388852755,-1.19927779058899,2.46298653292704,0.821454415406226,-2.48186694908593,0.854652064187181,1.92010778374225,-0.305523726631221,-2.28049081672207,1.23888420933524,-1.90543779854716
1.1999520504,0.57511820835,-0.0427558264,0.66745238,0.994591850098954,0.00431029029999547,-0.00100913059999894,-0.103766346999891,0.802352176188262,-0.00321339720092508,-1.2626082513005,0,0,0,-0.0782012469011143,0.316944924718418,0.751331502058859,-0.9064891072,-0.177025951141987,0.122929378372339,-0.325353863033747,0.3262805771,-0.29025649704724,0.271268521246791,0.645333861708695,0.49966110010391,-0.6134605429,-0.0958717860926809,-0.049125160587552,-0.29784159615808,0.2129249328,-0.381541193229478,0.942493997769533,0.240962762197036,0.726318553678936,-0.600801240815981,-0.779721352572613,0.644204280730148,-1.94219783958099,0.896436923826604,-1.18588660318061,2.4782908086574,0.629107013183669,-2.72107794185742,0.71138972771074,2.18553426082273,-0.215796985595966,-2.4650332144407,2.65171487722306,-2.22068251069298
1.2166180511,0.58870419601,-0.04277730751,0.64430282,0.994629046753295,0.00255000149988026,-0.00355756389983295,-0.103411317495144,0.815191833035262,-0.00128891810258948,-1.38902910282489,0,0,0,-0.0632501672567792,0.319218263016666,0.763727245326997,-0.9120444901,-0.184527214135834,0.13383690785997,-0.36715880865965,0.3769841372,-0.317078739901538,0.315553772487843,0.653523194618338,0.449360914895907,-0.6016760798,-0.068471725415231,-0.0508052258975939,-0.346144605815235,0.2887786874,-0.419044099286209,0.897100625006883,0.136405748395737,0.74377431582237,-0.333336293451615,-0.450093764477507,0.654477920886605,-2.5083969680802,3.04233517162879,-1.60939887961835,2.65722125170989,0.491379609124993,-3.01813171098711,0.707096040143567,1.64406933436946,-0.100807946686447,-2.89829638955644,4.55140714112655,-2.25026427946399
1.2332840518,0.60210912041,-0.04268178397,0.618932538,0.994756813721292,0.000998690600021376,-0.00731547210015659,-0.102001804102183,0.804327603322371,0.00573164142492783,-1.52227774717422,0,0,0,-0.050202439905901,0.319606844408425,0.778264724006315,-0.914493187,-0.184324531790253,0.142837284599638,-0.417290584616764,0.4629852362,-0.344767521487721,0.36165186322893,0.660044335139515,0.397153295787512,-0.5908881997,-0.0530710090148423,-0.0505558350528768,-0.397067918328701,0.3853320471,-0.45658611262565,0.782894923968062,0.0233158151589262,0.872283575466201,-0.146927684936438,0.0121614266811567,0.540044183465574,-3.00802675215981,5.16027213415394,-1.66139328112367,2.76599596813212,0.391284066199345,-3.132582318228,0.647298670760292,0.924079908408299,0.0149640486164792,-3.05552084330979,5.79343307599885,-2.25261081018918
1.2499500525,0.61480764387,-0.04224740303,0.59161179,0.994983625054852,-0.000986644800054392,-0.00944787800052085,-0.09958589260549,0.761941853272573,0.0260638978612307,-1.63931038356431,0,0,0,-0.0407074348079067,0.317787865152485,0.794668939586229,-0.9144146473,-0.182293391628553,0.151319587913013,-0.47885618714437,0.5647588755,-0.35235214150683,0.409006471285694,0.66544262377192,0.34439662161826,-0.5805767945,-0.0410201474864965,-0.0495104264899769,-0.453520419896873,0.4891477216,-0.465412797623604,0.569723070874125,-0.109143116497065,0.984292265145164,0.00471257030488703,0.121873279514536,0.508958535767663,-3.69408375985528,6.1066623680149,-0.455095385848016,2.84139001966823,0.323910260750512,-3.16552693828051,0.618709034375593,0.723080584554748,0.062727020220267,-3.3872854432421,6.22918937594908,-0.529622262523641
1.2666160532,0.62415758202,-0.04080331843,0.562473926,0.995241383058659,-0.00245325190014459,-0.00185161910010913,-0.0973916963057402,0.561018706185466,0.0866485383022939,-1.74834170023766,0,0,0,-0.0569643085134403,0.311470282814477,0.811322142465537,-0.9057141809,-0.184405270677455,0.155205980512995,-0.581305252695062,0.7021215237,-0.184386765550534,0.433467111815632,0.669549300683901,0.296272496740726,-0.5626278285,-0.0308091070232358,-0.060341391401346,-0.58017625357973,0.6874782113,-0.358385007294782,-0.975451399419032,-0.379070087163016,0.999232100074764,0.522048844027709,-0.126717806324257,0.233192873919786,-6.14718956244203,8.24208822936147,10.0783252670988,1.46769707803614,0.246410460788044,-2.88756287388932,1.07698099400656,0.612686909539172,-0.64988386274153,-7.59965368793345,11.900304894383,6.42192402696961
1.2832820539,0.63281066422,-0.03967485235,0.534477538,0.995417584797792,-0.00404220079999103,0.000755578599998324,-0.095534923399788,0.519205678420495,0.0677106703829668,-1.67985040346242,0,0,0,-0.0853881429222571,0.307984813296823,0.821034734077393,-0.8816530718,-0.179361139049894,0.166299221870746,-0.731329290548298,0.9805870605,-0.307230500821132,0.440663815601223,0.66282745855104,0.270211621130575,-0.5311647781,-0.00747910682646301,-0.0609001259068965,-0.733320097083902,0.9783704924,-0.468638148783776,-1.7054982128266,-0.209136527736632,0.582778783385987,1.44372423433296,0.302659991341595,0.665621078352132,-9.0018019651971,16.7085998502328,-7.37091864340305,0.43181948177833,-0.403326644097717,-1.56371501953383,1.88785845904831,1.39985594725031,-0.0335254099413627,-9.18899778422376,17.4542343022942,-6.6154528296038
1.2999480546,0.63737093427,-0.03855008444,0.511489776,0.995100391985198,-0.00311107659995372,0.0255335413996202,-0.09546501629858,0.27362713659312,0.0674887713163241,-1.37932083490193,0,0,0,-0.13031191788217,0.297207969958526,0.831174220729693,-0.8383671612,-0.18781033841537,0.168641236353895,-0.891685606278578,1.1781810213,-0.347353585688488,0.422180426065147,0.641445440596367,0.24495644496326,-0.4677185691,-0.0055815864158284,-0.0670250577620319,-0.88076974375802,1.1561933633,-0.514975326982516,-2.69553420575057,-0.646636438596626,0.60839350932582,2.59725841725184,-0.506972219524466,0.140526484146157,-9.62176341023911,11.8561113944991,-2.4074812901787,-1.10904768749206,-1.28297234228921,-1.51537112123817,3.80692465709545,0.113855774087098,-0.367510596296529,-8.84733232215206,10.6697985978124,-2.78034178882159
1.3166140553,0.64477925743,-0.03829577024,0.494607666,0.994918054416613,-0.00537401850008974,0.0339093731005662,-0.0946537867015806,0.444517151616348,0.0152594617375722,-1.01296707613843,0,0,0,-0.148327744053559,0.277386845859907,0.825340137746731,-0.7861381831,-0.195357950619753,0.174269778576059,-0.957947974463168,1.2901630912,-0.414268126059543,0.402216062046364,0.604794614908916,0.219143674970288,-0.377258154,0.0279104712954117,-0.066371444737105,-0.940039938079712,1.258111865,-0.586068825964158,-1.0809927645922,-1.18931496856465,-0.350058966633926,3.13386390893407,-0.452874828235416,0.337726028186476,-3.97590096012596,6.71919267950109,-4.01503285494616,-1.19790970720311,-2.19913741437986,-1.54882808765102,5.42784179170231,2.00960376242154,0.0392183485823853,-3.5563537640852,6.11535445933348,-4.26578039095141
1.333280056,0.65543058609,-0.03809995161,0.482154554,0.995826161262456,-0.00460400170028875,0.0212809912013347,-0.088635089705559,0.639105256967855,0.0117495872900092,-0.747216577279994,0,0,0,-0.148141680159226,0.242260321707554,0.795548569067438,-0.7346666782,-0.17061359157603,0.172870490779861,-0.944805793325461,1.3591105782,-0.489748257831895,0.395179624312987,0.568427557650171,0.191340994956051,-0.2895029991,0.0322666968966444,-0.0531271181773036,-0.934948659443191,1.3389886772,-0.657328771892007,0.0111642797622231,-2.10767566764553,-1.78756554830177,3.08841370083466,1.4847208690999,-0.0839606226703888,0.788562377637868,4.13701452682646,-4.5289888756786,-0.422203134395423,-2.18211062830121,-1.6682274598871,5.26551969363592,0.261383980455054,0.794691347864963,0.305488924917731,4.85280264028789,-4.27576760679294
1.3499460567,0.66490756472,-0.03824859647,0.473465468,0.996779158021718,-0.00451068940009828,0.0126818121002763,-0.0790577982017225,0.568641439574641,-0.00891904798731937,-0.521365992742335,0,0,0,-0.141785352205155,0.206623964417917,0.743541127985338,-0.6933599708,-0.138776863595916,0.171779359577313,-0.937629795384845,1.415797127,-0.538079695012536,0.396993037070862,0.528286157801321,0.183492744252239,-0.2320711947,0.0338233242603263,-0.044136753348932,-0.931538980801234,1.4054979389,-0.699202202445917,0.381394917022382,-2.1382668782461,-3.12057115670827,2.47850147996213,1.91028000977548,-0.0654704882226535,0.430577081435984,3.40132883829773,-2.90000210912274,0.108809113267048,-2.40858023297992,-0.470913859004672,3.44604596110451,0.0934013739530183,0.53944344478346,0.204588893480443,3.99071516299649,-2.51250622795849
1.3666120574,0.67189149573,-0.03967767062,0.46766741,0.997394834021099,-0.0110448511002337,0.0130834391002768,-0.0700741033014824,0.419052605103998,-0.0857478753136023,-0.347897381283564,0,0,0,-0.143602458057527,0.182111725679716,0.691738805384633,-0.6670770576,-0.122472174512366,0.188645945847364,-0.952800631950414,1.4628669114,-0.560829532600557,0.394845590311785,0.482807702713979,0.181608200852432,-0.2130715405,0.0435309352615629,-0.0565083818208678,-0.938203276578684,1.4477331616,-0.724914751692484,-0.109030707791345,-1.47079309424255,-3.10826355603748,1.5770378072767,0.978320436741006,1.01203561512218,-0.910286567164801,2.82429991737609,-1.36504479974135,-0.128851954211041,-2.72881634328396,-0.113077122324094,1.14002480511116,0.582479934807428,-0.742327370233208,-0.399873724801314,2.53421462414795,-1.54281460257986
1.3832780581,0.67774796509,-0.04108266204,0.46411141,0.997694354098026,-0.0158965203999685,0.017162971299966,-0.0637079967998739,0.351402202929222,-0.0843028537734307,-0.213368525779553,0,0,0,-0.149093706535343,0.167831195211484,0.654837724552561,-0.6571199541,-0.115732691727458,0.200626170643587,-0.966398698311706,1.4930000211,-0.582564123141773,0.379942611863835,0.444148438704668,0.198842690427603,-0.2124152967,0.0484834991501936,-0.0678137132577435,-0.945190679825895,1.473471532,-0.741165002461687,-0.329488074353444,-0.856866066748175,-2.21415332306276,0.597450082910413,0.404385125515287,0.718842211270441,-0.815916584072361,1.80805882841468,-1.30412754280135,-0.894214437897504,-2.31964852907463,1.03411069550546,0.0393762013942543,0.297165707465182,-0.678346991601633,-0.419260947661609,1.54436393369407,-0.975054007360263
1.3999440588,0.68323693235,-0.04182677653,0.463487332,0.99771177745321,-0.0168508183008987,0.0223115650011899,-0.061558534103283,0.329351195815084,-0.0446486534708956,-0.0374461762743099,0,0,0,-0.156338470310712,0.158491346426326,0.634299703638182,-0.6556573683,-0.11530299082482,0.202822841213928,-0.969045714212375,1.5035051578,-0.599681647508519,0.35836507277042,0.415549845637859,0.241280242616449,-0.2287899757,0.0522578935894431,-0.0706298227002311,-0.947092197381186,1.4837864279,-0.754144284588105,-0.43470319639245,-0.560413320104922,-1.23233049632472,0.0877586546603245,0.0257830843987779,0.131805500904627,-0.158827300461429,0.630333388861551,-1.02709250256696,-1.29470407939048,-1.71598415130321,2.546354878579,-0.982519999534142,0.226472715751744,-0.168973318385109,-0.114095612349938,0.618918484744807,-0.778788046397783
1.4166100595,0.68905168612,-0.04214798469,0.465713388,0.997641044760604,-0.0165138572010032,0.0258964951015731,-0.0613922623037294,0.34889916751294,-0.0192732597209117,0.133568697137999,0,0,0,-0.161167083411651,0.154772077693149,0.624940224727199,-0.6599997474,-0.116306873167874,0.201558553347348,-0.959149220283449,1.4991907039,-0.611312919462363,0.334323172766025,0.392851480330817,0.284262642323182,-0.2639478881,0.0521007720232814,-0.0703047192507585,-0.937883248900925,1.4800898206,-0.765078150355096,-0.289728363022274,-0.22316504121937,-0.561591174719159,-0.260553157183056,-0.0602353474672541,-0.0758603032207764,0.593813363329965,-0.258877578230269,-0.69790420408681,-1.44257164254141,-1.36195633947393,2.57904703596546,-2.10955903776003,-0.00942767068056604,0.0195069864285159,0.552558987967681,-0.221805300896212,-0.656058160791466
1.4332760602,0.69492931172,-0.04205726973,0.469841904,0.997586029980018,-0.0138427191997227,0.0260513822994782,-0.0628634821987408,0.35267162805291,0.0054431150959927,0.247720858430063,0,0,0,-0.16615907662101,0.154606144026033,0.629214212352127,-0.6611429382,-0.115339512031989,0.192641558844233,-0.934004111583581,1.4812365018,-0.616689772050057,0.311129116500325,0.374944369048466,0.320917935490285,-0.3098238677,0.050321321834351,-0.0634790818464898,-0.913764306665908,1.462121656,-0.775197089566199,-0.299531561243661,-0.00995641786550724,0.256449504704978,-0.0685941888866011,0.058043987474783,-0.535041049357136,1.50876680929622,-1.07729517256051,-0.322624046673333,-1.39169898545005,-1.07446961059778,2.19940547387006,-2.75266876713859,-0.106771277702537,0.4095546092392,1.44719436109331,-1.07813295603665,-0.607160613589969
1.4499420609,0.69969546836,-0.0419845132,0.4755884,0.997562947313224,-0.0124576475001651,0.0281541778003732,-0.06261242240083,0.285980825621831,0.00436556623929594,0.344803537659757,0,0,0,-0.176029926013314,0.158551327511363,0.640748964838073,-0.6582736168,-0.108383711500779,0.185957031091346,-0.910434060866842,1.453449115,-0.615028299655589,0.286017141091249,0.356940141667015,0.340170702395352,-0.3705194377,0.0438042690813226,-0.05904866138816,-0.889722656263637,1.4329292789,-0.778046487520295,-0.5922746296479,0.236720467996281,0.692112804600222,0.172166163415562,0.417364708931643,-0.401087691835244,1.41425955398762,-1.6673098303662,0.0996923271741299,-1.50677873240917,-1.080296809387,1.15521217427208,-3.64187972222994,-0.391038790309691,0.265835849768675,1.44255666581549,-1.75161261693695,-0.170970708893373
1.4666080616,0.7041632969,-0.04231038175,0.483502278,0.997747350494454,-0.0134807068999251,0.0284514036998419,-0.0592369204996707,0.268080424357593,-0.0195528942945505,0.474851654122395,0,0,0,-0.183827252960322,0.165488147877738,0.65960165309284,-0.6562961587,-0.0957498076390396,0.184229115049034,-0.87846452080049,1.4149314437,-0.611904902723565,0.262854685536344,0.337001627625924,0.35282537059491,-0.4325536753,0.0360904991472618,-0.0592568949753147,-0.856051086923557,1.392177586,-0.771496377105205,-0.467858311502867,0.416225853535127,1.13120649603522,0.118652227105687,0.758064522446525,-0.103679105348396,1.91824905337678,-2.31115262703667,0.18741130450234,-1.38980286703727,-1.19635864656423,0.759310432499743,-3.72220298778699,-0.462844690391786,-0.0124945144850957,2.02037489054472,-2.4451992792728,0.393022329291621
1.4832740623,0.7080742893,-0.04272535526,0.49251496,0.998002679616262,-0.0155544844002535,0.0296616492004833,-0.0535620767008728,0.234668920900743,-0.0248994055304457,0.54078252858828,0,0,0,-0.193249980174741,0.174086707587876,0.682366621486509,-0.6444827617,-0.0768231718508109,0.184328973508483,-0.846286510362952,1.3682578487,-0.599735357927832,0.239711237710185,0.316024612909843,0.352845683167283,-0.497954653,0.027031842246551,-0.0614768012385307,-0.820959866152638,1.3429488293,-0.760078090607221,-0.565386224567938,0.515934198307001,1.36595268435745,0.708832143514794,1.13564352533771,0.00599174698516193,1.93075777547148,-2.80052760348199,0.730201865150105,-1.38866235774003,-1.25867117694777,0.00121880304330562,-3.92421546580158,-0.543541132859231,-0.133199698186498,2.10555738011694,-2.95384343167585,0.685124566086468
1.499940063,0.71134665,-0.04318836207,0.502368636,0.998094452426037,-0.0178290119004651,0.0331232998008641,-0.048912548301276,0.196349487732833,-0.0277815186939244,0.591244184935137,0,0,0,-0.202619333830633,0.183304528732969,0.702948538637197,-0.621934581,-0.0587695368183398,0.185793840470977,-0.816661892306775,1.3149118601,-0.582650367046015,0.212893342113811,0.297105092312179,0.353428106863594,-0.559259343,0.0215308064863695,-0.0649272588503263,-0.788983295600741,1.2861785046,-0.738830546165666,-0.562183683089131,0.553091369130513,1.23496437574783,1.35294490297243,1.08326138690676,0.0878955298792119,1.77754811063801,-3.20088721705141,1.02514041546974,-1.60913803371998,-1.1352165968446,0.0349468181836348,-3.67842838264131,-0.330075334761122,-0.207035729441412,1.91867089936561,-3.40635559315679,1.2749036090917
1.5166060637,0.71432522385,-0.0436049166,0.513029524,0.998106576087276,-0.0195084411017058,0.0373079863032623,-0.044841918503921,0.178721572356588,-0.0249942705210612,0.639678840287106,0,0,0,-0.209084213234873,0.192537059996362,0.719252253063593,-0.6082100484,-0.0420882947067668,0.185118271255502,-0.786436827440347,1.2560157245,-0.561732596788697,0.185525151860231,0.282578245875175,0.356853632557313,-0.6195168354,0.0144840428137614,-0.0668991780730395,-0.7563128832173,1.2230761255,-0.71670424557104,-0.387908264292814,0.553974011497109,0.978261954974983,0.823504861607257,1.00091452123682,-0.0405357726568697,1.81357635886981,-3.53390934394956,1.25511636737887,-1.64215703252552,-0.87164561543574,0.205539754580658,-3.61559401590569,-0.422822715506547,-0.118319881188607,1.96030307279661,-3.7862940387372,1.32763108516046
1.5332720644,0.71693072003,-0.04382351015,0.523830874,0.998060348995291,-0.0206224367999027,0.0415247245998041,-0.041544579799804,0.156336017674591,-0.013116137094606,0.648106897055388,0,0,0,-0.214730917605901,0.201217389063664,0.732841337820623,-0.5854995519,-0.0276332040047386,0.183518191986287,-0.754266092483449,1.1914228342,-0.537237147931085,0.161033584147593,0.273750336536074,0.364637945096882,-0.6896214755,0.00785863329813468,-0.0675811670602225,-0.722895780922412,1.155725615,-0.690184102439421,-0.338815800663454,0.520840555785054,0.815377666282571,1.36268424013687,0.867340099297384,-0.0960085924642569,1.93032122918957,-3.8757282843508,1.46978566115218,-1.46955278314839,-0.529695725927866,0.46707741585354,-4.20644648718873,-0.397540455859141,-0.0409209743512713,2.00510625772913,-4.04119210795425,1.59127217195061
1.5499380651,0.71932981428,-0.04370193415,0.534625112,0.997925292181302,-0.0208764450996088,0.0466660019991256,-0.0391352720992667,0.143951407010319,0.00729485148767564,0.647680160003834,0,0,0,-0.221200140288618,0.207496306177926,0.745322852924372,-0.5613421778,-0.0159615613700537,0.180855417854803,-0.723027165568779,1.1227423828,-0.507594607112493,0.136806568851112,0.267925150226249,0.369218205085807,-0.6983158896,0.00294577306618225,-0.0664132101781953,-0.69140735236689,1.0852945983,-0.659658895637794,-0.38816887141477,0.37675008103545,0.748920831603513,1.44950036513559,0.700326541729044,-0.15977283209183,1.87441051257545,-4.12099175058836,1.77862351935409,-1.45367900389448,-0.349525144915273,0.274826580856016,-0.521685691516865,-0.294783392871958,0.070080213186788,1.88938120922566,-4.22602986570137,1.83158559459481
1.5666040658,0.72190560729,-0.04372067938,0.545186432,0.997760548658474,-0.0206957151012129,0.0502604912029455,-0.0389802250022845,0.154553756258999,-0.00112475874310978,0.633704521565272,0,0,0,-0.207084807797539,0.223128894998816,0.757759768207793,-0.549116883,-0.0109133205943543,0.177808387362964,-0.686890261839912,1.0503897587,-0.479264439213206,0.116506712076154,0.266440368312543,0.376845890332262,-0.7030439068,0.000779825458103308,-0.0648380790420564,-0.656846077680733,1.012458518,-0.626923788613351,0.846953792044357,0.937992809570083,0.746244735452396,0.733546999070989,0.302906550081892,-0.182829134996917,2.168300864698,-4.34133091690078,1.69987799768227,-1.21804007694287,-0.0890904746995175,0.457679402740843,-0.283692367779628,-0.129962049508311,0.0945116446646315,2.07375934444533,-4.37033944802366,1.96418490636706
1.5832700665,0.72447848767,-0.0434993069,0.555424156,0.997561420212855,-0.0192861320002485,0.053776989900693,-0.0400910635005166,0.154378991475743,0.0132828795573011,0.614287985719334,0,0,0,-0.190308085272968,0.241151401878813,0.770908322063838,-0.5230595817,-0.00706925726733955,0.17288118953889,-0.648737588326685,0.9740455665,-0.449766704323463,0.0986211871201512,0.271276935588564,0.388598189300241,-0.7184019879,-0.00365366592217972,-0.059817748059284,-0.623438991412088,0.9405125555,-0.593011633056402,1.00664357493823,1.08139362312624,0.788944756017266,1.56350055235507,0.230653016054102,-0.295643682774766,2.2892518847204,-4.58083457298787,1.76993481643996,-1.07317437926201,0.290205632597917,0.705166115106382,-0.921521688163618,-0.266020112448635,0.30123189559043,2.00450527214038,-4.31693024589877,2.03481064038054
1.5999360672,0.72663809526,-0.04305495943,0.56492401,0.997421839086793,-0.017746593499765,0.0571782827992429,-0.0395648493994761,0.1295816332229,0.026661913556742,0.570014016620075,0,0,0,-0.189864393899784,0.25008970720164,0.780338284413954,-0.5098663659,-0.00161774250963907,0.166491580540259,-0.611948805301723,0.8991168363,-0.418866247337809,0.0823513712049935,0.281032752302896,0.402958591923274,-0.7224318736,-0.0126057306958711,-0.053376240813086,-0.590505417201289,0.870320649,-0.560730677942731,0.0266225461747805,0.536319749634127,0.565820350056505,0.791624579734957,0.327103955881899,-0.383391859489733,2.20741518539371,-4.49590345931042,1.85410150532722,-0.97622796302641,0.58537239316999,0.861658587535808,-0.241802803956445,-0.537145349675367,0.38650587877378,1.97609341338853,-4.21168268041655,1.93693470285708
1.6166020679,0.72901879911,-0.04262095075,0.573668214,0.997376093077277,-0.0164540964012749,0.059562930404615,-0.0377153681029222,0.142847938917943,0.0260415613687092,0.52467320489192,0,0,0,-0.169378498890797,0.266166927506233,0.784313408266427,-0.487908843,0.00216447095988124,0.160799007281508,-0.575460417819689,0.8268061,-0.387566704106466,0.0673136059295812,0.292167727408118,0.415722123333263,-0.7361004759,-0.0219589815481177,-0.0481223503886078,-0.555348927311051,0.8007692783,-0.525018476087987,1.22920281702536,0.964671764629959,0.238516961809147,1.31750401882559,0.226941876314712,-0.341568043900981,2.18939073259694,-4.33881754847161,1.87804763690801,-0.902301970706883,0.668125203260178,0.765842486133397,-0.820148909510126,-0.561217476262711,0.315246022069244,2.10947368376376,-4.17324899668341,2.14281773399566
1.6332680686,0.73169479705,-0.04248246856,0.581342062,0.99732554177034,-0.0156989563995331,0.0620260787981554,-0.0353280631989494,0.160566292307899,0.00830926342154763,0.460449278632278,0,0,0,-0.165524383992786,0.27529385138269,0.784652691979108,-0.4654120134,0.00672614407314872,0.157071539513693,-0.541585078319672,0.7583717402,-0.357156036353058,0.0505429735285062,0.302784228129133,0.42681054628856,-0.7404158589,-0.0324358035834244,-0.0440560202668714,-0.521926448483531,0.7347836153,-0.494718940595925,0.231256134413285,0.547637315079304,0.0203578362193192,1.34986371385428,0.273711323753124,-0.223657002955422,2.03260158869529,-4.10622566456511,1.82471297708564,-1.00627815292694,0.637015497126147,0.665331962652393,-0.258933326457852,-0.628634441093398,0.243989556638888,2.00542886257769,-3.95929798562891,1.81804477495682
1.6499340693,0.73433523366,-0.04204650737,0.587741084,0.997233231780533,-0.0132916900997405,0.0644877692987411,-0.0345042028993265,0.158432527246925,0.0261587166499999,0.383956662140311,0,0,0,-0.141204323714283,0.293611442910104,0.784431126788198,-0.4427790483,0.00883396325384846,0.149851201573463,-0.509654267910971,0.6933215735,-0.327338105647717,0.0330880034328434,0.315835256511493,0.439293450589508,-0.7341109134,-0.0428459206463083,-0.0357655614077517,-0.492661641755796,0.6750951002,-0.469273209217387,1.4592619258982,1.09909940945904,-0.0132944426739797,1.35803217024946,0.126474204498248,-0.43323758772131,1.91592518106046,-3.90316596470562,1.78914733306958,-1.0473400553537,0.783092993771442,0.749004186766169,0.378311846584762,-0.624631982817805,0.497447408550733,1.75595856825659,-3.58145401373949,1.52680489078213
1.66660007,0.73681326201,-0.04151411684,0.592968404,0.997185156890289,-0.0108189855998946,0.066441928399353,-0.0330179129996785,0.148687642260816,0.0319447082466523,0.313651732895939,0,0,0,-0.106196151157142,0.297273800952878,0.756847425461067,-0.429112848,0.0115688873076207,0.142489124612384,-0.479040289567583,0.6323711855,-0.300106841901232,0.025688979704295,0.330555049504806,0.444548407137423,-0.7253006838,-0.052448740863058,-0.0268426294541955,-0.466324963802782,0.6226235215,-0.447347359304251,2.10057428817589,0.219750263347442,-1.65508821364268,0.820004783751148,0.164102000414066,-0.441742268802365,1.83691209993693,-3.65716941317541,1.63394111380816,-0.44395916343316,0.883222871418309,0.315309992031566,0.528634899193302,-0.576192236494366,0.535397310619113,1.58026382136258,-3.1484205265874,1.31560356367538
1.6832660707,0.73918485179,-0.04098973186,0.597255162,0.997168387335731,-0.00906470420032481,0.0677953191024293,-0.0312543300011199,0.142301072866274,0.0314643560527392,0.257215757827251,0,0,0,-0.0913015704044445,0.29248847623207,0.727552825497184,-0.4050242782,0.0140546693029771,0.137491935142011,-0.451187579924139,0.5781682402,-0.277176568977818,0.015221770038506,0.34004271174104,0.444030957146157,-0.7172489356,-0.058999922628477,-0.020390332524251,-0.442481811927352,0.577213545,-0.42712857563028,0.893710556048236,-0.287130956427224,-1.75774623385702,1.44537194217207,0.149152879572145,-0.299843349362926,1.67122935758934,-3.25230667367007,1.37587135247232,-0.628057675875953,0.569282481563414,-0.0310482401015357,0.48312419667665,-0.393086612880021,0.38715328566766,1.43064627828982,-2.72470746386084,1.21317549650472
1.6999320714,0.7412782993,-0.04066559847,0.602019138,0.997099954513244,-0.00770838650010239,0.0697502065009265,-0.0294477534003912,0.125611869799084,0.0194487805343727,0.285849981993581,0,0,0,-0.0537079452925256,0.292113443351914,0.690108098268973,-0.3883334227,0.0120684464997484,0.134229000131146,-0.431628868650715,0.5344617051,-0.254634545338411,0.0185216281347689,0.350057347985948,0.43843187743132,-0.7094320706,-0.0651723689190366,-0.0158864896692315,-0.423362416879362,0.5384445463,-0.411032139491547,2.25570764028103,-0.0225028719791319,-2.24677341026454,1.00149134759127,-0.119178130313451,-0.195783923785897,1.17356956989831,-2.62249689573096,1.35257546457483,0.197999397435699,0.600902185544034,-0.335958207108268,0.469030641526375,-0.370361576341443,0.270241369605812,1.14720954307831,-2.32623287361316,0.965824760749768
1.7165980721,0.74274505837,-0.04063279794,0.606032798,0.996949009510307,-0.00632356720006538,0.0721139108007455,-0.0291936432003018,0.0880090608660568,0.00196811044175713,0.240829223054097,0,0,0,-0.0407849809549972,0.279646697361218,0.674427397658592,-0.3674520312,0.00820092768618668,0.131935935090097,-0.418427283393312,0.5006232614,-0.236424665294605,0.0438908952743631,0.36384286991359,0.407683228444575,-0.6816039967,-0.0668844355232486,-0.0124866618143264,-0.410153383995667,0.5072380593,-0.397018113763453,0.775408844038291,-0.748034649410303,-0.940879632291251,1.25293355471898,-0.232060401483226,-0.137589400260223,0.792126767245526,-2.0303877522338,1.09263646219612,1.52221685311667,0.827164367492295,-1.84499266142144,1.66975115391661,-0.102728101062179,0.203997822639303,0.792573642679295,-1.87246403991811,0.840875143374607
1.7332640728,0.74411415015,-0.04026418319,0.609408156,0.996834764218056,-0.00368667340006678,0.0738353553013374,-0.0292438300005297,0.0821487893013294,0.0221177687818047,0.202529572676665,0,0,0,-0.00587849717774413,0.27367618925914,0.637372813304898,-0.349334505,0.00405807698717808,0.125444941358763,-0.405980878299465,0.4715303682,-0.221418680689614,0.0533468841720961,0.373044245974286,0.376021930424833,-0.6660406237,-0.0669707739949754,-0.00618121218956641,-0.398977916535423,0.4818435187,-0.387974668732277,2.09447271757604,-0.358244800870416,-2.22336390239646,1.08709501014241,-0.248580974739105,-0.389475186529516,0.746814146830544,-1.74564334441676,0.900395054285048,0.567382005314148,0.552104624638334,-1.89975379154654,0.933839694366514,-0.00518051530663873,0.378342095279045,0.670554841645036,-1.52373332133605,0.542628384215586
1.7499300735,0.74513174617,-0.03940485969,0.612697638,0.996788303936592,-0.000381220300013994,0.0752225185027614,-0.0274682456010083,0.0610582009635914,0.0515614702932301,0.197376806782446,0,0,0,0.0249543679477069,0.261310605067331,0.603231872664018,-0.3215112025,0.00514133116167409,0.11557188068851,-0.396726680612375,0.4480487083,-0.208293559877334,0.0863784059412347,0.382098911935384,0.354850499064486,-0.6414591343,-0.0662282465756358,0.00219691263053425,-0.391946010701181,0.4648614651,-0.381350253486293,1.85004583165841,-0.741964698934003,-2.04853829394591,1.66946485847682,0.064997847653757,-0.592407311626538,0.555274048865832,-1.40895589305958,0.787538717208838,1.98197050172562,0.543301666913903,-1.27033664173237,1.47494829998417,0.0445534254261482,0.502707576395377,0.421931209581743,-1.01896393176078,0.397480797296729
1.7665960742,0.74600555162,-0.0388095778,0.61735723,0.996697237411587,0.00194445480002261,0.0768475009008934,-0.0261781901003044,0.0524304220147988,0.0357183406334546,0.279586691725027,0,0,0,0.0695027296967788,0.255256793546874,0.572314766758502,-0.3062459426,0.00325426371977727,0.107368350246676,-0.390684507141446,0.4297140246,-0.199353277424846,0.0995798195744593,0.378966257463381,0.338984226286629,-0.6249465548,-0.0632839066837756,0.00757266099287557,-0.387839108204671,0.4526493962,-0.377244251696014,2.67300851301848,-0.363243205699412,-1.85510048043598,0.915952193617752,-0.113228570901045,-0.492231495096114,0.362544894824658,-1.10012498079398,0.53643838215417,0.792116469383359,-0.187966779096759,-0.952014407263083,0.990794360161041,0.176667452789689,0.322557790504673,0.246423996400656,-0.73275341336089,0.246369951867232
