mit-biomimetics/pkGym/resources/robots/mit_humanoid/trajectories/humanoid3d_stealthy_walk.csv
t,x,y,z,qw,qx,qy,qz,x_v,y_v,z_v,wx,wy,wz,left_arm_pitch,left_shoulder_abad,left_shoulder_yaw,left_elbow,left_hip_yaw_joint,left_hip_abad_joint,left_hip_pitch,left_knee,left_ankle,right_arm_pitch,right_shoulder_abad,right_shoulder_yaw,right_elbow,right_hip_yaw_joint,right_hip_abad_joint,right_hip_pitch,right_knee,right_ankle,left_arm_pitch_v,left_shoulder_abad_v,left_shoulder_yaw_v,left_elbow_v,left_hip_yaw_joint_v,left_hip_abad_joint_v,left_hip_pitch_v,left_knee_v,left_ankle_v,right_arm_pitch_v,right_shoulder_abad_v,right_shoulder_yaw_v,right_elbow_v,right_hip_yaw_joint_v,right_hip_abad_joint_v,right_hip_pitch_v,right_knee_v,right_ankle_v
0,0,0,0.50527129688,0.987857860492503,0.00113158270010596,0.0590856533055328,0.143681775313454,0,0,0,0,0,0,0.678957895074981,0.0714069594567916,-0.23818524516287,-1.1316663838,0.25049850488709,0.104427245682631,-0.548386121587041,1.2499591835,0.0613032025341705,0.329656543760657,0.375952783411628,0.145335509517833,-1.3359870678,-0.175598455674428,0.152523615654346,-1.047180767929,0.8316771744,0.118231401450001,0,0,0,0,0,0,0,0,0,0,0,0,0,0,0,0,0,0
0.0416669995,0.01403785621,-0.00732061708,0.50299527187,0.986041653651256,-0.00182232500009473,0.0647448354033655,0.153383971407973,0.336905857836008,-0.175693406481069,-0.0546241639021765,0,0,0,0.695384381507376,0.070501353210021,-0.250049083048449,-1.1304881847,0.255078156705966,0.1305625566509,-0.544788533298627,1.2540381405,0.139781389648385,0.293602072390736,0.383277730543024,0.168463214398589,-1.3200276196,-0.192032164098952,0.128825392684965,-1.07611095649196,0.8973105223,0.0685152805280045,0.39423252524807,-0.0217343763082966,-0.28472983483199,0.0282765525269024,0.109910765685842,0.627242452825721,0.0863414292266007,0.0978941860212459,1.88346144565111,-0.865300400858506,0.175797326884443,0.555060483315004,0.383023697206708,-0.394405851674615,-0.568752808067718,-0.694318979290992,1.57518776700012,-1.19317737102707
0.083333999,0.02777154198,-0.01438486728,0.50356478291,0.984543058573388,-1.65911999995508e-05,0.0651570671982388,0.162571590795606,0.329605825588665,-0.169540650509284,0.0136681557787696,0,0,0,0.724957400748334,0.0566271167515563,-0.250784726021411,-1.1260339135,0.268999940109786,0.142312903781314,-0.523645175987607,1.2448090576,0.176871066422826,0.27694286799281,0.404044337708644,0.18573793853876,-1.3157552374,-0.209413611545357,0.114521883385163,-1.08158756145346,0.9498117057,0.023194722106795,0.709746792325596,-0.33297901516678,-0.0176552903206135,0.10690165486958,0.334120132740053,0.282006078465389,0.507436522061553,-0.221496220288195,0.890145132107267,-0.399817711806336,0.498394590798892,0.414590067618653,0.102536353739605,-0.417151406508294,-0.34328148106277,-0.131437469153332,1.26001833657353,-1.08768471368353
0.1250009985,0.03937087882,-0.01941442531,0.49791440951,0.985621991233615,-0.0034980301001193,0.0753877562025712,0.151174536205156,0.278381860445699,-0.120708428501073,-0.135607878364267,0,0,0,0.728218938301261,0.0548152500934765,-0.264940559058216,-1.1063121887,0.248397625373577,0.168375932430631,-0.532068007810316,1.2638157444,0.168512472658481,0.241603306691803,0.413640589790391,0.20085972799608,-1.3146781057,-0.193410738596248,0.076118837921035,-1.13003746136577,1.0069553724,0.0200370428546381,0.0782762759993558,-0.0434844524401095,-0.339737279061952,0.473317614338894,-0.494451603989604,0.625507691028176,-0.202146348999993,0.456156839419168,-0.200604647914338,-0.848142696260309,0.230308210259954,0.362920047970327,0.0258509543025773,0.384065882860338,-0.921665728873226,-1.16278830954257,1.37143704576088,-0.075783696691598
0.166667998,0.0519869623,-0.02341904565,0.49768961067,0.981806614263145,0.00817214039969324,0.0785319122970521,0.172689684293518,0.302783584884724,-0.0961101204323579,-0.00539512906371,0,0,0,0.739689336944784,0.0509704203733473,-0.251218546389258,-1.1032365049,0.314330809657487,0.141222447744398,-0.511592742383234,1.2505790744,0.127651163212711,0.223531216210072,0.428342566835707,0.199485566157733,-1.3090788041,-0.251268854673118,0.0941961972064203,-1.15366550597854,1.0653245366,-0.0106732269326135,0.27528736844907,-0.0922751761889914,0.329325673401513,0.0738158215592202,1.58238378273218,-0.651678426862321,0.491402444927241,-0.31767754239179,-0.980663593157695,-0.433726706952623,0.352844630564658,-0.0329796206791224,0.134382164955266,-1.38858369383834,0.433853157230228,-0.567068540962887,1.40084875082018,-0.737040587413826
0.2083349975,0.0643405959,-0.02890705167,0.49502677287,0.980258529322971,0.00983110280023038,0.0794236288018612,0.180799480904237,0.296484838079113,-0.131711092371794,-0.0639075967061171,0,0,0,0.733788443774774,0.0423963691676392,-0.251925115713145,-1.0873295735,0.332669564826944,0.147488031089492,-0.491245102327044,1.2417863156,0.132393609953463,0.202834847754295,0.43974409773824,0.194269956981867,-1.3124439719,-0.260261202890258,0.0810995215531754,-1.16279846949298,1.118531035,-0.0502817139500419,-0.141620304817255,-0.20577558520162,-0.0169575283165349,0.381763304074727,0.440126608335636,0.15037279910433,0.488339460492949,-0.211024525536092,0.113817812601344,-0.49670887522814,0.273634555867961,-0.125173620333887,-0.0807633820621031,-0.215814633284063,-0.314317704908052,-0.219189373461816,1.27694576135726,-0.950596095056673
0.250001997,0.07443714243,-0.03286252949,0.49187286092,0.979209947438965,0.0125758713992161,0.0836049231947888,0.184390734888507,0.242315181106333,-0.0949307093734935,-0.0756932821620629,0,0,0,0.732581849733054,0.0502883319427045,-0.260332481429812,-1.0736252294,0.339025810642998,0.148282422373673,-0.483298291486264,1.2419503136,0.140115360926809,0.197001391810949,0.434569923186962,0.193168226885883,-1.3159049724,-0.263572902069065,0.0777885356813084,-1.18091611538015,1.16443848,-0.086305198313582,-0.0289580256845594,0.189405593629684,-0.20177516542,0.32890163113377,0.152548681026424,0.0190652385272377,0.190721936691902,0.0039359205598692,0.185320543019805,-0.140001824305728,-0.124179197287241,-0.0264413110904235,-0.0830633484899717,-0.0794801454039591,-0.0794630261741529,-0.434820027949833,1.10176987906221,-0.864556718645894
0.2916689965,0.08546709549,-0.03742701347,0.48942457046,0.978617761148577,0.0155359153991836,0.0867901965954395,0.185831576090235,0.26471675888253,-0.109546740460637,-0.0587585016770873,0,0,0,0.716621472581159,0.043373765650722,-0.249249597271736,-1.0622245765,0.335883839580168,0.152300713954367,-0.468642600993741,1.2380106889,0.105513084084232,0.181838693056221,0.452589040158715,0.190677920868325,-1.3202894881,-0.25521260165573,0.0749851745354101,-1.19430963649526,1.204776574,-0.11329145714503,-0.383045991874097,-0.165948265412835,0.265987095088919,0.273613483975488,-0.0754067031591655,0.09643822758808,0.351733762171258,-0.0945502375327047,-0.830448010603133,-0.363901863265387,0.432455352868711,-0.0597668670036546,-0.10522753624244,0.200645607162925,-0.0672801300678818,-0.32144193908436,0.968106522765096,-0.647665038406417
0.333335996,0.09520222285,-0.04139261581,0.48817559896,0.977180089831689,0.0162304404988654,0.0902964714936877,0.191578161786608,0.233641190314172,-0.095173695912517,-0.0299750765590891,0,0,0,0.721347718372017,0.0599555923529404,-0.254372850781013,-1.0569625683,0.347527659984688,0.160901655528511,-0.461527815561092,1.2313435465,0.152551948035674,0.188392369857765,0.435721668942252,0.187666882737341,-1.3219632646,-0.257111819913189,0.0676876112394213,-1.2016337666998,1.235775138,-0.140675679848281,0.113428992909791,0.397960661943473,-0.122957102041324,0.126287188017945,0.279449457466207,0.206420948888915,0.170753486404713,-0.160010139439006,1.12892371699197,0.157286986828592,-0.404813675543459,-0.0722643378961054,-0.0401703151195202,-0.0455808740790027,-0.175140120084452,-0.175777720796466,0.743959593250767,-0.657216095035862
0.3750029955,0.10473663928,-0.04500346529,0.48711759726,0.976341583875289,0.0188653724995225,0.0935018572976334,0.194058269595088,0.228824166472558,-0.086659695282354,-0.0253918379699978,0,0,0,0.717363495747204,0.0639699515789756,-0.246438996034765,-1.0617167849,0.352188018871906,0.163304583312266,-0.444603428426707,1.2139236395,0.211535711450305,0.187570445759393,0.43399363484111,0.186000081576017,-1.3237275442,-0.255600996307113,0.0643642565880544,-1.20772117340448,1.2627859308,-0.162588677318964,-0.0956205791783366,0.0963438518301569,0.190410992906953,-0.11410028696691,0.111847719853648,0.0576698061437106,0.406182046643058,-0.418074428421467,1.41559901414622,-0.0197260207894674,-0.0414724871451774,-0.0400029083285324,-0.0423423721691345,0.0362594769051362,-0.0797598745109275,-0.146096593892757,0.648253848948256,-0.525907738345373
0.416669995,0.11430848835,-0.04876665703,0.48621043534,0.975376108100543,0.0190407002000106,0.0971700048000541,0.19707077320011,0.22972254265633,-0.0903158803167481,-0.0217717121675635,0,0,0,0.709275728943842,0.0717148328974858,-0.247390793685366,-1.0602313707,0.352235921284183,0.172714783154298,-0.432662489665894,1.2001319695,0.215596749379025,0.194129940340197,0.424129058594022,0.178636366432289,-1.3268904134,-0.249374916334827,0.0563141550015234,-1.21075794049905,1.2848116123,-0.182976872015481,-0.194104852771118,0.185875666869419,-0.0228429611448549,0.0356496560305485,0.00114964871124959,0.225842992174948,0.286580241056545,-0.330997435992482,0.0974641317457938,0.157426612415515,-0.236747938787594,-0.176727751748199,-0.0759082544448602,0.149424725730161,-0.193200894787997,-0.0728818280897361,0.528612133446277,-0.489312764086051
0.4583369945,0.12398105986,-0.05202216607,0.48621639465,0.974571521233526,0.0211468904985576,0.102078074593037,0.198351268486471,0.232139861906783,-0.0781315928448362,0.000143022297537166,0,0,0,0.702848575061968,0.0838054469964062,-0.224487332632406,-1.0681468902,0.357465879478714,0.177831789176749,-0.418424841500059,1.1774902421,0.259511230429525,0.200197181735191,0.424701808353914,0.172301856826155,-1.3268325964,-0.244937351358784,0.0514822443249551,-1.21671825488735,1.3030067768,-0.209832907404146,-0.154250461012304,0.290172420476793,0.549678674437786,-0.189970950512048,0.125517994030995,0.122807163555211,0.341700826473826,-0.543397116943828,1.05393912634624,0.145612630326155,0.0137458844352983,-0.152027016155417,0.00138759691587221,0.106500708697349,-0.115964929909778,-0.143046402664552,0.436680459796488,-0.644539700744829
0.500003994,0.1340521322,-0.05583555775,0.4864680261,0.974419208522284,0.0195413696984415,0.104264834191684,0.198126689984198,0.241703805430003,-0.091520669252894,0.00603910655961841,0,0,0,0.685029810160623,0.083523027704934,-0.217809043719869,-1.0672075062,0.357687794905723,0.192203048982883,-0.387064588270181,1.1500304943,0.288106295222074,0.207259807686131,0.423684651184906,0.167593361950758,-1.3344720185,-0.230899675103086,0.0341054406763878,-1.21054567395543,1.3187953948,-0.231010794359401,-0.427646941588498,-0.00677800885259841,0.160277653602982,0.0225450359102542,0.00532592770470684,0.34490748022626,0.752640065428243,-0.659028682878882,0.686276073047912,0.169501668843249,-0.024411577056519,-0.113002974341752,-0.18334466584281,0.33690153896727,-0.417039956250444,0.148140759017792,0.378923805156644,-0.5082652269035
0.5416709935,0.14326002075,-0.05876631593,0.48408212167,0.973775195488263,0.0185430897997765,0.106930205198711,0.19995988019759,0.220987559951371,-0.0703376344629759,-0.0572612489171457,0,0,0,0.675477827081916,0.098378786579328,-0.193300356053167,-1.0817916146,0.347808243393877,0.209328484182105,-0.383946493046686,1.1528457004,0.322235802374633,0.212124438882053,0.422168400215434,0.162703477769711,-1.3337718983,-0.227980579063452,0.016953327688331,-1.21495817489942,1.343156484,-0.256897162201019,-0.229245762673828,0.356535364980961,0.58820380542886,-0.350015805673745,-0.237107342270841,0.411007161656116,0.0748336875923899,0.0675644066955185,0.819101628677597,0.116750216101393,-0.0363897325861454,-0.117356282903156,0.0168027505796307,0.0700577453299423,-0.411647423473746,-0.105899176733188,0.584661470524176,-0.621267865511113
0.583337993,0.14902204583,-0.06015146648,0.47870032357,0.971267052597917,0.0108256669999768,0.136026442699708,0.194986985099582,0.138287497279472,-0.0332433476521389,-0.129162122652963,0,0,0,0.593106860810946,0.139077113497961,-0.19199328818938,-1.0837554183,0.301326807726273,0.261337200949522,-0.460437436009948,1.1760239172,0.444740145137646,0.167328655617609,0.389980234113048,0.152061626169589,-1.3468669409,-0.20401712600673,-0.00922439220484304,-1.2885700342616,1.364297388,-0.257808034178937,-1.97688739912672,0.976752043751865,0.0313693781522829,-0.0471309123182735,-1.11554554504468,1.24819923180253,-1.83576796700379,0.556272759693198,2.94008074094737,-1.07509021052605,-0.772509815648851,-0.255402398248561,-0.314278511943248,0.575118279316505,-0.628260258893229,-1.76667051252836,0.507377643067385,-0.0218607528463543
0.6250049925,0.16300493839,-0.0665564088,0.48066601072,0.970997195409918,0.0194068563001982,0.120612584401232,0.205524755002099,0.335586740773114,-0.153717387785506,0.0471761147571955,0,0,0,0.605538249913027,0.14998461716175,-0.155772711548893,-1.0883609457,0.316425075387164,0.251192010402028,-0.390148772011895,1.1294935933,0.480416916918871,0.234483631671525,0.399746153754043,0.124170302053147,-1.3534310714,-0.212766808034683,-0.00110193425187951,-1.23586143553927,1.3823287328,-0.300886708055554,0.29835095522251,0.261777996848307,0.869286895507978,-0.110531774672186,0.36235552936541,-0.243482628200621,1.68691446088056,-1.1167188532498,0.856235683138748,1.61170655098204,0.234380199154842,-0.669386431735799,-0.157537873587464,-0.209990691265226,0.194937433710904,1.26499626454584,0.432748818402439,-1.03387991440604
0.666671992,0.17590236489,-0.07135912924,0.48038210451,0.971116943824413,0.0220518839005544,0.109825008002761,0.210675255905296,0.309535763428322,-0.115264369828214,-0.00681369461220786,0,0,0,0.604283112864665,0.173914537051668,-0.141564700435252,-1.0874346256,0.318766361663295,0.254031379672263,-0.34620913527203,1.1036150069,0.508840402106415,0.285004242326506,0.383339346058836,0.103946334396696,-1.3654095,-0.216171609126152,-0.0109505050632674,-1.19609794725664,1.3998415625,-0.336313716236787,-0.0301230485377896,0.574313489741873,0.340989542902919,0.0222315048147406,0.056190421778039,0.0681443181488302,1.05454285806843,-0.621081112404078,0.682158195421411,1.2124849703896,-0.39376023932817,-0.485371346608498,-0.287479990009839,-0.0817145734592275,-0.236363811399183,0.954316095706113,0.420304555407212,-0.850241404621251
0.7083389915,0.1867352389,-0.07507450174,0.48272349664,0.971834721833048,0.0237537268983636,0.114412014592118,0.204653181785901,0.259986899464646,-0.0891682277241968,0.0561929622506164,0,0,0,0.575802654187364,0.194542176471275,-0.128371490622322,-1.0944054779,0.303839587125569,0.261283769362599,-0.340320807793177,1.0845843616,0.567663503128692,0.296077059841132,0.367252268902586,0.0894815463536098,-1.368521425,-0.194128296234487,-0.0175744233119283,-1.18963967035347,1.4014485158,-0.352283552655648,-0.683525548253125,0.495059391536139,0.316634506233887,-0.16729911881464,-0.358239727286469,0.174055962209051,0.141318730638437,-0.456731838826071,1.41174314753036,0.265745497575994,-0.386086767688901,-0.347152139982775,-0.0746856034114003,0.529035283466117,-0.15897276809339,0.154997407556794,0.0385665711302309,-0.383273012467847
0.750005991,0.1969721789,-0.07753561998,0.48171811947,0.97276763080125,0.0212860981000273,0.118580954200152,0.198011605200254,0.245684597471436,-0.059066365937869,-0.02412885933867,0,0,0,0.556669087242563,0.21119767486677,-0.115401449387919,-1.1096977498,0.274932483207326,0.286772439679926,-0.350095240779282,1.087071223,0.708059480766803,0.300207143806147,0.350225540493214,0.0866277352624846,-1.3708859722,-0.17291941418818,-0.0378822986159475,-1.18976479105232,1.412950819,-0.3731722072427,-0.459201938570143,0.39972876845849,0.311278503132978,-0.367011593911386,-0.693764952243401,0.611723201170906,-0.234584517805398,0.0596841968426352,3.369476547936,0.0991212233800294,-0.408638217622846,-0.0684909190815429,-0.0567486794915485,0.509009103146645,-0.48738511406417,-0.00300287278547779,0.276053071688061,-0.501323705515474
0.7916729905,0.20809575885,-0.0799041943,0.48156302971,0.974644401350603,0.0170720972991347,0.116957092594072,0.189994402290371,0.266963786293275,-0.0568453295995071,-0.00372212450766954,0,0,0,0.542770834780979,0.219463191905632,-0.101695342201567,-1.1133873583,0.224095194193365,0.31978991200508,-0.365315387023498,1.101823015,0.813663994169329,0.314026629928889,0.342048327753055,0.0883548645862514,-1.3753021181,-0.150957259969855,-0.0634281689996435,-1.16763249361705,1.4181813071,-0.393277878439151,-0.333555394637517,0.198370824346529,0.328943944868226,-0.0885498966634254,-1.22008519029456,0.792413006008597,-0.365280591999806,0.354040179927042,2.53448807616987,0.331665017605651,-0.196251538106524,0.0414507726616315,-0.105986654978601,0.527087490864915,-0.61309599179792,0.531170895453532,0.125530711660676,-0.482532254247171
0.83333999,0.21554626352,-0.08074655575,0.48130198326,0.976827202599744,0.0111365165999971,0.124717377599967,0.173580442399955,0.178810683740258,-0.0202165133104919,-0.00626506475466199,0,0,0,0.506565038701973,0.236642865095927,-0.0981003687026601,-1.1007689523,0.144215364972541,0.356971668966322,-0.440582814100665,1.1769364816,0.864836029642082,0.311843892121322,0.324925881518558,0.0910673303943433,-1.3766024486,-0.115056647822245,-0.0898733992406989,-1.17532672345224,1.417013494,-0.397243269550379,-0.868932164866024,0.412308863043886,0.0862786747797075,0.302839324919474,-1.91710058750028,0.892355038937778,-1.8064038202983,1.80270879836212,1.22811904113119,-0.0523852889279268,-0.410935427075752,0.065098659386114,-0.0312076827130279,0.861607809019472,-0.634680455957848,-0.184660040980123,-0.0280272905180013,-0.0951686264625027
0.8750069895,0.22368030307,-0.08131126549,0.48269914924,0.978220066272013,0.0121716316996518,0.124942212396425,0.16530818759527,0.195215389819465,-0.0135529254992308,0.033531715668654,0,0,0,0.492333043736649,0.248222913655514,-0.0827534269305008,-1.0959270703,0.0811834553431508,0.370844506400229,-0.521383141599075,1.2904337355,0.825910367200901,0.330306417531522,0.314800532129009,0.0885615758504654,-1.3772462524,-0.103881642042655,-0.0971511523432503,-1.15458243760478,1.4103250931,-0.409522584025206,-0.34156515074534,0.277918945413543,0.368323660362423,0.116204239760533,-1.51275374722844,0.3329454388456,-1.93919236969319,2.72391233498827,-0.934208436131356,0.443097070385419,-0.243006444213696,-0.0601376286736924,-0.0154511677760734,0.26819799634456,-0.174664679239775,0.49785888344221,-0.160520339363532,-0.294701193322709
0.916673989,0.23200509269,-0.08221274208,0.4848729081,0.979575618323739,0.0141409848988991,0.118165651790801,0.162075659087382,0.199793354930681,-0.0216352653375006,0.0521697959076699,0,0,0,0.483606366565738,0.266996784541803,-0.0636337892557018,-1.0917752018,0.0158258900175615,0.374324713539485,-0.603858623151234,1.4184815222,0.677051380459891,0.358386307637287,0.297828479297143,0.0805780494078772,-1.3873444844,-0.0978613093351192,-0.100882181818789,-1.11686632170765,1.403071562,-0.431677289662258,-0.209438579106515,0.450569302123362,0.458867638760479,0.0996440480433426,-1.56856903808467,0.0835243041500066,-1.97939574583859,3.07312233269881,-3.57258714395815,0.673911979329462,-0.407326014244571,-0.19160310409652,-0.242355632063212,0.144486830820054,-0.0895439921355253,0.905179550956845,-0.174083355822152,-0.531708688000253
0.9583409885,0.23922306611,-0.08293770681,0.48570800852,0.981138562430669,0.0138702800004336,0.115388798003607,0.154467349104828,0.173229978318934,-0.0173990145366719,0.0200422499825088,0,0,0,0.462905458299788,0.282341296131491,-0.0510670918784331,-1.0798699544,-0.0614651868705415,0.378170928798569,-0.710201230391617,1.550100262,0.426179318178352,0.37499840363596,0.289269973533632,0.0782726587445911,-1.3864443712,-0.0757955565864062,-0.107940982937023,-1.09760040920944,1.4028379036,-0.443575500372857,-0.496817829801965,0.368265336449009,0.301598327887004,0.285723655239439,-1.8549710278059,0.0923084288582827,-2.55220218677812,3.15882452250971,-6.02088139995631,0.398687119255429,-0.205402497569109,-0.0553289339513416,0.0216025442388752,0.529573835733314,-0.169409873591544,0.462378206479809,-0.00560775680523871,-0.285554776042814
1.000007988,0.24444390985,-0.08192114133,0.48473850586,0.983389648643496,0.0107457295993826,0.120923043593052,0.134933115892247,0.1252992488696,0.0243973766337553,-0.0232678779761923,0,0,0,0.419429944034808,0.291152534862186,-0.0294095391911544,-1.0840137893,-0.169029497683342,0.370813544877758,-0.846278583626865,1.6654352334,0.252755919329472,0.364135900493638,0.289368134913657,0.0781534040326947,-1.370174127,-0.031581503830863,-0.120189523383554,-1.10707319362569,1.4051926274,-0.440150660398217,-1.0434040076483,0.211468040329961,0.519777112515115,-0.0994512431834649,-2.58152283830277,-0.176575803611963,-3.2658303901928,2.76801720267859,-4.16212832529205,-0.260697992960153,0.00235585430203177,-0.00286209022313828,0.39048274162386,1.06112878983626,-0.293962622543314,-0.227345009958068,0.0565129197747945,0.08219550281367
1.0416749875,0.25300834573,-0.08237543769,0.4872498988,0.983704190689866,0.0162257352998328,0.110096301198866,0.141214713098545,0.205544819227983,-0.0109030255466318,0.0602729490996818,0,0,0,0.39227576232075,0.309783002594402,-0.00150831831023072,-1.0773638604,-0.195054851524423,0.327224811993229,-0.925574748393205,1.7231599722,0.153160098106829,0.384019497651031,0.282065214194483,0.069164885084293,-1.3587702481,-0.0463740762615657,-0.112442300915132,-1.05625055764086,1.402293384,-0.466035438923726,-0.651695155396485,0.447127653917494,0.669623952186038,0.159597018739013,-0.624603502853162,-1.04612123281229,-1.90309275248724,1.38538266476327,-2.39028061578188,0.4772025198837,-0.175268697213836,-0.215722731568461,0.273690907357036,-0.355018902445872,0.185931854018486,1.21973352040467,-0.0695812857846872,-0.621229722229187
1.083341987,0.25909945138,-0.08145247229,0.48657754404,0.984721808606269,0.0151825453000967,0.109002799200694,0.134947544400859,0.146185367871281,0.0221509926578707,-0.0161363853425524,0,0,0,0.363729845876029,0.330975801766567,0.0252804005176832,-1.0801684707,-0.236139417078106,0.286089877006446,-1.02516077122793,1.7599029247,0.103771084900235,0.403755354692149,0.269626847211882,0.055846123952228,-1.3392909676,-0.0394116270185937,-0.118367503233114,-1.0441209520147,1.4044104822,-0.483456524030675,-0.685096522122302,0.508623117250487,0.642924116192093,-0.067310109526848,-0.986021696947076,-0.987230553685112,-2.39004545635026,0.881823815991359,-1.18532684856739,0.473656785416425,-0.298518423017258,-0.31964771382362,0.467498997618005,0.167097447056922,-0.142203719708252,0.291108209655508,0.0508099509301133,-0.418102702762388
1.1250089865,0.26580874481,-0.08039980081,0.48695043705,0.986070454057767,0.0144461007008463,0.106418713906234,0.127009555307441,0.161021756078213,0.0252639137118573,0.00894936075250597,0,0,0,0.332813949735955,0.355008026977863,0.0487162053331707,-1.0643751277,-0.259443166565642,0.239459453809381,-1.09598070010664,1.7499894223,0.0506152284480624,0.420691487038891,0.257083166054483,0.0440526497411098,-1.3140187101,-0.0371293884779162,-0.125160921779371,-1.0229652049361,1.4046913251,-0.497187506884163,-0.741975580460834,0.576768797841953,0.562454822682578,0.379037204250815,-0.559285520128132,-1.11912121718929,-1.69966471616727,-0.237922157077806,-1.27573036431799,0.40646392948796,-0.301045943022587,-0.28304112013437,0.60652933504367,0.0547732874472394,-0.163040742740725,0.507733874108174,0.00674017575947257,-0.329540956110552
1.166675986,0.27259488319,-0.07913130295,0.48628840435,0.987294742943262,0.0118272063005182,0.10428784400457,0.119303199205228,0.16286602014623,0.0304437054556807,-0.0158886578814004,0,0,0,0.300582640569826,0.378354032721506,0.0740417203128245,-1.0550025045,-0.270883893141315,0.189644238927381,-1.16809731455693,1.7079234354,0.0110825931209389,0.440837251810209,0.242339937790864,0.0353679469935125,-1.3058149229,-0.0387111372086918,-0.137529423543051,-1.00274101644177,1.4081509703,-0.511037632273391,-0.77354524090771,0.560299662173741,0.607807504345345,0.224941159970014,-0.274575244509113,-1.1955556070698,-1.7307849212971,-1.00957562110994,-0.948775669030919,0.483494492357629,-0.353834651895642,-0.2084312009939,0.196889320048112,-0.0379616663008252,-0.296841671157044,0.485376646675201,0.0830308215497968,-0.332400354127441
1.2083429855,0.27974510697,-0.07783830572,0.48562199861,0.988420855552227,0.0131010839993668,0.102854113295029,0.110786304594645,0.171603999947249,0.031031685638895,-0.015993610003043,0,0,0,0.277847115458376,0.394832357031243,0.107924752237995,-1.0546099862,-0.267843642278811,0.136926872270349,-1.21889051381174,1.6340840062,-0.0461240897898079,0.465574087687648,0.238678135434769,0.0268798222412491,-1.2942679897,-0.0463359566859878,-0.138531842750723,-0.987253428409944,1.4135788274,-0.525769025809783,-0.545648244036634,0.395476624366405,0.813186270472164,0.00942036395013223,0.0729654378521766,-1.26520669329771,-1.2190270445275,-1.77213214500842,-1.37294942273794,0.593679318748114,-0.0878825545404385,-0.203713366791949,0.277124183132025,-0.182994205697388,-0.0240578688098812,0.371699143631121,0.130267529822975,-0.35355062071106
1.250009985,0.28752282678,-0.07633831765,0.48550280408,0.989556709629294,0.0149910011004438,0.100881836402987,0.101860902203015,0.18666378436969,0.0359994261165845,-0.00286064586916159,0,0,0,0.258920038437355,0.411558698999852,0.139454687027431,-1.0418150228,-0.260798269419534,0.0918740321878327,-1.2495134746521,1.5306347522,-0.0784010312125149,0.498429861682028,0.23279085902335,0.0146278448761253,-1.2858490628,-0.0541690972805636,-0.13577827685407,-0.969169962830553,1.4194953571,-0.537640441810894,-0.454246219985689,0.401429000631763,0.756712390327886,0.30707666867157,0.169087597950927,-1.0812595248793,-0.734945189426261,-2.48276226369504,-0.774640406317402,0.788532277069292,-0.141293505221548,-0.294045107930649,0.202052631603576,-0.187993872574766,0.0660850536322793,0.433999707115716,0.141995578539316,-0.284911708151939
1.2916769845,0.29548292949,-0.07436279368,0.48590626602,0.990220581913345,0.0141603138001908,0.0989576195013337,0.0973143063013116,0.19104093900498,0.0474121965513737,0.0096830092121228,0,0,0,0.206541706262195,0.433338773422953,0.166701015634595,-1.0319482058,-0.24738988049148,0.0609899913052696,-1.26268854685494,1.4009445373,-0.062680841162084,0.499688292080403,0.220590529627066,0.00387678872046611,-1.2726433228,-0.0658798666148431,-0.135464402490178,-0.950571868667543,1.4209912332,-0.543414729064371,-1.25706993072924,0.522717610686148,0.653906663165512,0.23680171642789,0.321798763744779,-0.741211060387563,-0.316199207069072,-3.11254029462812,0.377281547485342,0.0302020883067354,-0.292805566579941,-0.258023286645807,0.316935228321398,-0.28105621894563,0.00753292456040108,0.446350694462913,0.0359007396248949,-0.138581787092134
1.333343984,0.30363521601,-0.07180296711,0.48599082973,0.990772673722819,0.0169734406986778,0.0993460703922609,0.0906188148929408,0.195653313601331,0.0614353469344485,0.00202951282824984,0,0,0,0.173371920558279,0.442223117884966,0.200417501793209,-1.0274088001,-0.233700031648255,0.0228950921857944,-1.26397093656889,1.2498424023,-0.0284794287419164,0.518712524573179,0.214882446444194,-0.0119157618776847,-1.2668192199,-0.0755239214917803,-0.128092092156835,-0.938299408366968,1.4304925792,-0.544071681718608,-0.796068497898813,0.21322256386647,0.809189204003368,0.108944866548409,0.328553747750048,-0.914270275676443,-0.0307771072870859,-3.62642227213889,0.820827341315218,0.456577932682098,-0.136992902089617,-0.379018186758344,0.139777353058507,-0.231455468180214,0.176934034651157,0.29453669445467,0.228030482492505,-0.0157667377569798
1.3750109835,0.31244980382,-0.06846432964,0.48585524911,0.991564994528886,0.0140097553004081,0.0981586507028595,0.0834713584024317,0.21154841759124,0.0801266592282461,-0.00325390888777495,0,0,0,0.142936967628025,0.460034031603908,0.217811006127245,-1.0128929469,-0.236640168320734,-0.000805023414034302,-1.25130437633675,1.0839578757,0.00293522120535943,0.529011546206532,0.205847852924326,-0.0201573210685165,-1.2567174935,-0.074443399192406,-0.129787397271836,-0.924832154680683,1.4388793187,-0.552164950086541,-0.730433035627015,0.427458514716003,0.417440769500012,0.348377693958976,-0.070562716484504,-0.568798230835621,0.303995017258977,-3.98119683659967,0.753945576217358,0.247174544770194,-0.216828512450676,-0.197795840586787,0.242439496993294,0.0259323280375463,-0.040686997752297,0.323211506657319,0.201280140174238,-0.194236889266118
1.416677983,0.32148872707,-0.06401552458,0.48495760642,0.992433430171849,0.0120647828996578,0.097442993497236,0.0737237458979088,0.216932425143788,0.106770468557497,-0.0215432524724974,0,0,0,0.114504264585449,0.472537979410069,0.236529299749049,-0.9997488801,-0.230004715928767,-0.00849140658800855,-1.22596546651727,0.9109571102,0.0434522940972502,0.539029146979631,0.195861268389553,-0.0251929579732553,-1.2516281014,-0.0750401680313612,-0.130159474828903,-0.910680967780058,1.4570494856,-0.553012989573208,-0.682379422174999,0.300092350210162,0.449235458430457,0.315455083344797,0.1592495853215,-0.184471722615262,0.608128977933267,-4.15198520594217,0.972401981858346,0.240420498075434,-0.23967611430177,-0.120854320329422,0.122144434710259,-0.0143223377280902,-0.00892979003842257,0.339625772684349,0.43608052218879,-0.0203527851019634
1.4583449825,0.33158936818,-0.05885386304,0.48444070101,0.993378191471431,0.0149094227010721,0.096346341606928,0.0607853624043709,0.242413450241359,0.123878887415447,-0.0124056307438227,0,0,0,0.0956591208219191,0.478323341339719,0.297683462092852,-1.0167763348,-0.222778557737769,-0.00399044856810228,-1.17822466280812,0.7306281073,0.0967304891032353,0.547410829741116,0.194842774607835,-0.0347431490043564,-1.2359319422,-0.0793193675595709,-0.114457719927492,-0.894644892145355,1.4722671957,-0.560243552621362,-0.452279837513369,0.138847577197143,1.46768817235814,-0.408655648458683,0.173426411253785,0.108022129596979,1.14577013660787,-4.32786149864235,1.27866646615591,0.201158779419326,-0.0244436555053099,-0.229202753874828,0.376704811681964,-0.102699968309686,0.376839107443067,0.384862740949279,0.365222125005664,-0.173532126981056
1.500011982,0.34162242506,-0.05262921209,0.48281121931,0.994535938534505,0.0111652345003874,0.0940889531032643,0.0438277698015206,0.240791441677964,0.149390429469249,-0.0391072484112995,0,0,0,0.0786286319710998,0.483560111106658,0.25788932195556,-0.9897239488,-0.204182527248336,0.0606706198164331,-1.13059217631881,0.570589971,0.0584164424619932,0.552136468029241,0.196890231474027,-0.0343155555664231,-1.2214498747,-0.0686240300247004,-0.113712126614576,-0.878209568825073,1.4857887244,-0.562167853594382,-0.408728467496665,0.125681470462967,-0.955051734341768,0.649252077774404,0.446301166692685,1.55185324502513,1.14317054409713,-3.8408845902139,-0.919529774185974,0.113414412960667,0.0491385722697109,0.0102621605362603,0.347566843636051,0.256686050428722,0.0178940965719423,0.394444608863234,0.324514096581399,-0.0461828544438571
1.5416789815,0.35203899066,-0.04509609335,0.4796700846,0.994610028160327,0.0131713482994746,0.100997489495971,0.0194142880992256,0.249995577435328,0.180793405582276,-0.0753866308515926,0,0,0,0.0363501732094205,0.481715497791275,0.270661029672354,-0.9759862188,-0.17915365177567,0.14032558654227,-1.10039417171261,0.4453119722,0.00760398105048079,0.534433647994452,0.20595170976514,-0.0360184117064687,-1.21678777,-0.0559214640093087,-0.0954165359716377,-0.893437567220304,1.5137746668,-0.566143844454735,-1.01467490505716,-0.0442703659375114,0.306518536732992,0.329702886333344,0.600688213046525,1.91170393072909,0.72474632127508,-3.00664795409614,-1.21948933259551,-0.424864287019013,0.217473741806463,-0.0408682209057465,0.111889619025722,0.304859149154516,0.439090667974257,-0.365469042118826,0.671657252401867,-0.0954230184093809
1.583345981,0.36374673727,-0.03841215651,0.47870040897,0.995217072830482,0.0125054140991265,0.0964157476932651,0.00951820159933512,0.28098367414241,0.160413202779336,-0.0232720292230306,0,0,0,0.0379724411649863,0.491247974094237,0.282374207495499,-0.983433505,-0.145130387636226,0.203863669797063,-1.04086615624277,0.3322531422,0.00233047746590771,0.549871149260835,0.197543001342389,-0.0373353733788662,-1.2096337577,-0.0657888049715523,-0.0774403630580985,-0.875527068715083,1.5287877999,-0.557835530978576,0.0389341199278303,0.228777603795596,0.281114022216667,-0.178733441077273,0.816551816730755,1.52490181719933,1.42866095913236,-2.71339024543872,-0.126563075043911,0.370497070862587,-0.201807390108597,-0.0316068276622004,0.17169492370095,-0.236814291421285,0.431424703704409,0.429848530495242,0.360312316225214,0.199397930637133
1.6250129805,0.37776541866,-0.03190341819,0.47909749797,0.996464867362543,0.0109843622006894,0.0832892923052276,-7.54088000047265e-05,0.336445665832022,0.156208471886727,0.00953005987388214,0,0,0,0.0392102792502468,0.496103794382105,0.292374806902647,-0.9724085091,-0.135076155991615,0.217294894765632,-0.983400551857628,0.2734408158,0.0101399162618885,0.575743961189497,0.188062309072321,-0.0427357369514214,-1.2134209335,-0.0734951381108774,-0.0564175401471214,-0.819803106998208,1.5318458381,-0.552240968006463,0.0297078767397314,0.116538755997236,0.240012468551969,0.264597787992871,0.2412996319692,0.322346824339216,1.37916348848558,-1.41148455866135,0.187425033952368,0.620942526198991,-0.227534796933668,-0.129607690435092,-0.0908914931587497,-0.184950517959066,0.504543719568217,1.33736439833819,0.073392330542065,0.134268438794437
1.66667998,0.39097956758,-0.02441166315,0.47876557533,0.996668771805769,0.0115933009000671,0.0803915509004653,-0.0073588875000426,0.31713704078932,0.17980068471213,-0.00796607972695604,0,0,0,0.00339366879537076,0.501624441456161,0.309690040639927,-0.9535152978,-0.128062357243702,0.202925301511074,-0.967234681017654,0.2544672305,0.0362311233082566,0.57107274934388,0.181288485220168,-0.0407997658796488,-1.1959799889,-0.0911305101637555,-0.0284940368739915,-0.796403764381418,1.5482503604,-0.55484225963519,-0.85959178449785,0.132494471411519,0.415562290183147,0.453433449173608,0.168329825331261,-0.344867483307933,0.387977800992699,-0.455362409765072,0.626183967155304,-0.112108188774594,-0.162570473838742,0.0464629345766206,0.418579326788335,-0.423245548383633,0.67015872532722,0.561579736904011,0.393705390281342,-0.0624305003946273
1.7083469795,0.40449010973,-0.01660585437,0.4762355948,0.996475426027053,0.00725105329946919,0.0808458164940817,-0.0211684081984504,0.324250421487632,0.187337914264741,-0.0607190476962477,0,0,0,-0.0096991358826234,0.506558346668476,0.321247811273188,-0.940606761,-0.127421558198895,0.21984754913383,-0.982166726521638,0.2904472893,0.0546424576461638,0.574321489647256,0.178508090884321,-0.0368431512475741,-1.1677248696,-0.0787907792998538,-0.0167102612377609,-0.788565828128863,1.5630087148,-0.530380564035737,-0.31422480224414,0.118412779214257,0.277384279452619,0.309802408498362,0.0153790542274746,0.406130698774115,-0.358366229466172,0.863514513446068,0.44186849446424,0.0779691444635078,-0.0667289310296231,0.0949579926453461,0.678117446397839,0.296151175078054,0.282808356196386,0.188108967446886,0.354197676268963,0.587076004823743
1.750013979,0.41962351515,-0.00785592388,0.47801486558,0.99613334426758,0.00703324759977109,0.0808481677973687,-0.0336521563989048,0.363198828847754,0.209996654306725,0.0427021576151652,0,0,0,-0.0392604657846771,0.510318757670249,0.338261348988498,-0.9205457861,-0.121486800731985,0.217838102319283,-0.99841274335601,0.3562531242,0.108345619309884,0.569672018302725,0.180122898350525,-0.0352230080912791,-1.1400578547,-0.0764942295960794,0.0125157728416479,-0.761997272852851,1.5553363106,-0.503558606546097,-0.70946625043288,0.0902491431324164,0.408321643494158,0.481459551701099,0.142433041450707,-0.0482263383171298,-0.389901289493435,1.57932742193255,1.288865584471,-0.111586420916429,0.0387550696133903,0.038883125152678,0.664003053543608,0.0551167526179659,0.701419214969123,0.637640233154105,-0.184136229919796,0.643721837701326
1.7916809785,0.43380307103,0.00052155894,0.47568424575,0.995289166610789,0.00245088650002657,0.0851963238009236,-0.0462066488005009,0.340306622750698,0.201057981628843,-0.05593442911578,0,0,0,-0.0296507050171854,0.506337149950421,0.336075137238009,-0.9179822823,-0.140183149592384,0.226346015765539,-1.0661053714736,0.4630620011,0.199439301336856,0.583153269692183,0.182176307129109,-0.0402852793828282,-1.1161363835,-0.0613591104022073,0.0246007355903226,-0.754595775428939,1.5623788227,-0.493721778339208,0.23063241612806,-0.0955578219600042,-0.0524686628920434,0.061523599749486,-0.448708788363775,0.20418829165406,-1.62461009743663,2.56339256922016,2.18623090503485,0.32354744884997,0.049281417026063,-0.121493540506777,0.574110722803546,0.363239959092137,0.290036789154319,0.177634519229371,0.169018940276704,0.23608199114239
1.833347978,0.45005447396,0.0099930362,0.47637901059,0.994562226059986,0.00947992670057178,0.0859336135051831,-0.0580648220035022,0.390030554755927,0.227313638458656,0.0166742229663076,0,0,0,-0.0949332577134499,0.494378860783098,0.340120277049976,-0.9116308802,-0.136601033711346,0.203337111502423,-1.10103209506944,0.5670016289,0.222699895648343,0.533276409517704,0.191883206215552,-0.0493197258829796,-1.0978380961,-0.0698739534748388,0.0738336176851493,-0.736813247114538,1.5656982199,-0.496112168230675,-1.56676874936158,-0.286996647486527,0.0970825799915623,0.152432432769726,0.0859700944158155,-0.552209291266955,-0.838234670481626,2.49453114088525,0.558249804176249,-1.19703508227125,0.232963717160467,-0.216824984005662,0.439155389626746,-0.2043546013586,1.18157973181694,0.426777270448768,0.079664896436809,-0.0573688991324445
1.8750149775,0.46810898302,0.02069194505,0.47831470463,0.994139252868679,0.0112774010007791,0.0846830742058502,-0.0662475892045767,0.433304756201609,0.256771761307171,0.0464562858671883,0,0,0,-0.10814205761745,0.505289167116102,0.359545448565266,-0.903396419,-0.130057547044714,0.189115637685626,-1.11854646040535,0.6554075629,0.247890926977171,0.553708891241889,0.168966180970482,-0.0556938432876614,-1.1008732321,-0.0802819731697281,0.118404702683939,-0.704419076102624,1.5571286822,-0.454722501386696,-0.317008665430791,0.261845260372144,0.466200392358204,0.197625490167586,0.157042425544268,-0.341312645197725,-0.420341410374659,2.12172546765696,0.604579922507452,0.490375644259788,-0.550004212448031,-0.152977595727329,-0.0728426821326563,-0.24979047735101,1.06969749522736,0.777453893984231,-0.205667261929915,0.993344069423078
1.916681977,0.4870003075,0.03032546601,0.47767606264,0.993403746070789,0.0143110968995792,0.0852017949974947,-0.075397903997783,0.45338816585533,0.231202656193182,-0.0153272853256453,0,0,0,-0.0984520600352731,0.496251332236448,0.358898740089109,-0.9128038719,-0.134402954522294,0.159104733547197,-1.15061149960231,0.7518737139,0.261159905099646,0.578296670939483,0.165620914151448,-0.0633826654403091,-1.0989659654,-0.0811047385935423,0.160917700667525,-0.683325305464145,1.5603926712,-0.421183752543643,0.232558084298278,-0.216906304464134,-0.0155208794469683,-0.225777066092796,-0.104288946401815,-0.720255945917811,-0.769554793523491,2.31516913042899,0.31845293113739,0.5901019990075,-0.080285762334161,-0.184530257635846,0.0457740351570117,-0.0197462124387954,1.02030380141931,0.506246451426849,0.0783351102591425,0.804923542504007
1.9583489765,0.49949131323,0.03803582013,0.47159956193,0.991972125711755,0.00407017420004823,0.0932935346011056,-0.0852704632010105,0.299781742863438,0.185047020724398,-0.145834852111201,0,0,0,-0.0649360680025618,0.503720160020154,0.360547171952359,-0.9188582775,-0.166622479657196,0.165318934810688,-1.22241470510602,0.8579723146,0.242345063283688,0.629912861921393,0.152221004528188,-0.0615068623444977,-1.1061337607,-0.0377639461670567,0.147364806393481,-0.710826964058791,1.593372178,-0.360824155311135,0.804377383418532,0.179250434956487,0.0395620486963518,-0.145304573707066,-0.773262426417401,0.14913963899635,-1.72326316666286,2.54634607658754,-0.451552596580846,1.23877868820166,-0.321595262055286,0.045018914688383,-0.172025713058604,1.04017070935203,-0.325266864345361,-0.660034533915656,0.791501840683298,1.44861876201352
2.000015976,0.51455401018,0.04638446519,0.46970814926,0.991552403589861,0.00261244599997329,0.0915218522990642,-0.0918735903990606,0.361501839123311,0.200365880917343,-0.0453935414763916,0,0,0,-0.04178098921509,0.508602814799731,0.364071963901432,-0.9262969271,-0.169586508004407,0.146817260355834,-1.24707108662696,0.9455130323,0.201733767252889,0.672515473291655,0.141935195335018,-0.0563940898560315,-1.1150421343,-0.0150998513699486,0.164830760245589,-0.68091903923058,1.5892670756,-0.358386402677553,0.555717451828318,0.117182778653797,0.0845943310382307,-0.178526164332998,-0.071136112097797,-0.44403663995181,-0.591748429616045,2.10096044232799,-0.974663319128581,1.02245450551969,-0.246857448738763,0.122705559551179,-0.213799258571527,0.543933930186361,0.419179544044391,0.717784462214781,-0.0985216706088966,0.0585055958632744
2.0416829755,0.53061187039,0.0534158121,0.46737820913,0.991081502545705,0.00237329010010945,0.0879974098040581,-0.100041384804614,0.385385566580091,0.168750977857189,-0.0559181164460841,0,0,0,-0.0351517328249846,0.501400371935669,0.36574280184743,-0.913587353,-0.170834931346412,0.132672357228131,-1.26121391318469,1.028754485,0.145770521988572,0.705651651633806,0.146343909104931,-0.0574782210714917,-1.1131031432,0.00937791336397007,0.179611758884508,-0.643339934963312,1.5824640081,-0.336671292047944,0.15910088246468,-0.172857247953794,0.040099790386834,0.305027341841592,-0.0299619208722802,-0.339474963338858,-0.339425126057515,1.9977789065421,-1.34310715760363,0.795261927659359,0.105808285281313,-0.0260189413317416,0.0465354146751091,0.5874616609703,0.354741133661881,0.901891298106742,-0.16327231578074,0.521158492096576
2.083349975,0.54515301078,0.06039238002,0.46541664281,0.990596034448149,0.00420132249978009,0.0881373522953866,-0.104564107394527,0.348984581671164,0.167436292598895,-0.0470772156272028,0,0,0,-0.018903912706841,0.500175618495139,0.367235385989008,-0.924095916,-0.161521784818031,0.113901971324393,-1.27586767701122,1.0956218128,0.0984039093133151,0.735121074395865,0.142526106661889,-0.0467473769310661,-1.1371059979,0.0150821356306407,0.199704757200136,-0.615218211177114,1.5754320963,-0.353667635302847,0.389944567958237,-0.0293938477746499,0.0358217332538506,-0.252203497398461,0.223513731253443,-0.450485663210231,-0.351687522556759,1.60480304803325,-1.13678962353066,0.707260496692568,-0.0916265267202973,0.257538202155056,-0.576063911201476,0.136900240840971,0.482228107536956,0.67491597963991,-0.168764535108898,-0.407908979740746
2.1250169745,0.55789482056,0.06592244204,0.46353447532,0.989910752247025,0.00442933569976296,0.0891465899952293,-0.110045304594111,0.305800991981675,0.132720428309219,-0.0451716589287879,0,0,0,-0.095140486128734,0.497953989076477,0.365076723478314,-0.9307247727,-0.1578627233874,0.105069564222928,-1.2877409270106,1.1504442816,0.056078494550719,0.662379459068745,0.138909181554935,-0.0375789849791005,-1.1417524492,0.0245676116781713,0.214435657627587,-0.596314449837981,1.570113614,-0.329785187259621,-1.82966314677621,-0.0533186801382736,-0.051807486418439,-0.159091289978776,0.087816772854767,-0.211976077170264,-0.284955723758966,1.31572874115882,-1.01580184007721,-1.74578482252171,-0.0868055091644946,0.220039649170456,-0.111513940426643,0.227649606675676,0.353538786190999,0.453686648090246,-0.127642555591263,0.573174174522133
2.166683974,0.56996538158,0.07063984753,0.46182071019,0.989335326576759,-0.000699876599983558,0.0902684858978794,-0.114309764297315,0.289691150427091,0.113216827383983,-0.0411300345732836,0,0,0,-0.0859303160377692,0.499944870952911,0.369448604500618,-0.9455130681,-0.161151600083601,0.107743409640435,-1.29900497122201,1.198304363,0.0193938200616969,0.657733888032337,0.135584564887608,-0.0302435497541574,-1.1420633996,0.0354191120808999,0.216087352625015,-0.575665435062097,1.5594183046,-0.319720002975087,0.221042316497129,0.0477807833615087,0.104924306399943,-0.35491625452896,-0.0789324101967389,0.0641717774160092,-0.270334901638678,1.14863277832137,-0.880425154900392,-0.111492814269198,-0.0797901626520328,0.17604903911891,-0.00746274998755466,0.26043392931926,0.0396403632910543,0.495572395988933,-0.256685375197222,0.241562493227624
2.2083509735,0.57998110156,0.07425036318,0.46153465218,0.98869212607932,-0.0061387288998716,0.09466714359802,-0.116139260197571,0.240375359401628,0.0866516834263529,-0.00686533739968567,0,0,0,-0.0830775837542752,0.503678165851427,0.367794561729019,-0.9590495818,-0.161333939525096,0.112242671493572,-1.31172820901729,1.2321327898,-0.00901185742878972,0.649110034158072,0.129996487095958,-0.0175171441341814,-1.1473390745,0.0419300192568436,0.212108811057444,-0.557449044674442,1.5394450693,-0.317668079330843,0.0684650279052145,0.0895983618526731,-0.0396967094210712,-0.324873733708614,-0.00437611163949049,0.107981421919683,-0.305355267908706,0.811875757936445,-0.681730814105936,-0.206970839699293,-0.13411279570659,0.305431295094238,-0.126615186197893,0.156260524013582,-0.0954842348936488,0.437189877030969,-0.479353818121705,0.049245774086598
2.250017973,0.58980988143,0.07680550626,0.45877492444,0.988361553385966,-0.00897507849987257,0.0992365085985909,-0.114947827798368,0.235888832600007,0.0613229440723225,-0.0662329366913016,0,0,0,-0.0726588663585609,0.503842405721228,0.360896046840902,-0.9698983472,-0.164132573883609,0.104247166159774,-1.33325654783703,1.2710883651,-0.0313039243454023,0.643326808334443,0.13098822073649,-0.00140382618785624,-1.160034836,0.0462619799219216,0.214680256511606,-0.538114896731627,1.5270984584,-0.316425191463092,0.250047220119948,0.0039417253887154,-0.165563034797283,-0.260368289778102,-0.0671666880768014,-0.191890595189068,-0.5166760044658,0.934926339008402,-0.535005332376106,-0.138796311062158,0.0238014172470413,0.38671654162007,-0.30469584208961,0.103966225479663,0.0617141979268954,0.46401584406901,-0.296316294625436,0.0298290705514033
2.2916849725,0.59758433028,0.07950705203,0.45770550161,0.987934159051488,-0.0137982532007191,0.103191622805378,-0.114661216505976,0.186585281956765,0.0648365805653946,-0.0256659429004481,0,0,0,-0.0561056983522307,0.511475119144073,0.358634271309637,-0.9831701344,-0.164815239929652,0.105778187756561,-1.34695650436992,1.2988966045,-0.0483338306254152,0.636389225098838,0.126465030214855,0.0239416787435711,-1.1738666299,0.0497924091011089,0.210175333725185,-0.522865938196897,1.5090167412,-0.325973778411457,0.39727285873633,0.183183658877215,-0.0542821791443116,-0.318520348459456,-0.0163838542308124,0.0367442248100189,-0.328796330364234,0.667392414469396,-0.408714485908998,-0.166500667647184,-0.108555705376255,0.608287259355627,-0.331960401900312,0.084729623480264,-0.108117283233253,0.365972081448527,-0.433957746345524,-0.229164256196675
2.333351972,0.60573822127,0.08147336918,0.45857714231,0.987672585493536,-0.0144503998999054,0.108319442599291,-0.112075635899267,0.195691820573736,0.0471912346364176,0.0209192096973532,0,0,0,-0.0617125251608666,0.511008312330225,0.351218644556313,-0.9941273265,-0.153798109595138,0.100744170330689,-1.35350403422192,1.3165715052,-0.0648489411918614,0.610035724484631,0.128004401174121,0.0303953471239448,-1.1736572505,0.0508506111143771,0.2109554573226,-0.504839269758441,1.4866593936,-0.339236885610551,-0.134562768519868,-0.0112032740405917,-0.177973620426497,-0.262970509791568,0.264409015929126,-0.120815453147088,-0.157139461218056,0.424194228336501,-0.396359487475122,-0.632478962499022,0.036944607908849,0.15488680389318,0.0050250654597768,0.0253966454500309,0.0187228167801036,0.43263658662189,-0.536572056262411,-0.318312030101749
2.3750189715,0.61161334647,0.08320285008,0.45753006901,0.98757167421758,-0.0168434314002998,0.115077427002049,-0.105715055201882,0.141001878476997,0.0415072100404061,-0.0251295584650878,0,0,0,-0.054140033760229,0.520111228111111,0.350129119466932,-1.0072663086,-0.142640652188532,0.0978715462764203,-1.37210408543401,1.3343396196,-0.0765048142660569,0.583121358840703,0.124211521754893,0.0484694862496156,-1.179158381,0.043166044233429,0.206543669486262,-0.501608516764557,1.4774335499,-0.357049191217272,0.181738341889428,0.218468233617021,-0.0261483932717888,-0.315333051519584,0.267776838757155,-0.0689424265903476,-0.446397663265692,0.42643133926646,-0.279738719227804,-0.64593961568862,-0.0910283789267764,0.433775874014419,-0.132026077375691,-0.184428131930837,-0.105882062286194,0.0775374524840557,-0.221418480109184,-0.42749191975586
2.416685971,0.61698833532,0.08548481424,0.4572673532,0.987053339730606,-0.0154408200004788,0.118224943303666,-0.107285359603327,0.128998701958368,0.0547667023635814,-0.00630512907462848,0,0,0,-0.0224023588886371,0.518260576862714,0.328924091876813,-1.0202305013,-0.135135431700231,0.0926319551426805,-1.37690116457019,1.3483804659,-0.0929358036191132,0.558333129478185,0.132927120521964,0.0594895861966698,-1.1752404137,0.0488913839400796,0.211064192110534,-0.493058913872599,1.468355841,-0.370295548962957,0.761698112473683,-0.0444152751723074,-0.508916596937073,-0.311138139428541,0.180123852889873,-0.125749182725282,-0.115128979617908,0.336977619422779,-0.394340594480681,-0.594912752537362,0.209172699538181,0.264480286060775,0.0940304640846487,0.137407055352057,0.108491676351016,0.205188830358612,-0.217863273308174,-0.317910046430984
2.4583529705,0.6230859292,0.08737933722,0.45659367824,0.986590633736317,-0.0163687529989434,0.121833480392136,-0.10736660749307,0.146341084147419,0.0454681883201122,-0.0161680698894573,0,0,0,-0.0118826722802292,0.526721733193619,0.31955942642662,-1.0202739607,-0.13105769796995,0.0894268673717403,-1.38237941011565,1.3624285244,-0.110188844042593,0.537285078078823,0.136748066439866,0.0801055632564895,-1.1911573888,0.0549795533855077,0.210234165623792,-0.485814418052197,1.4587534787,-0.359590809100125,0.252470461867742,0.203066129849465,-0.22475017550024,-0.00104301726837942,0.0978648277825024,-0.0769214920536862,-0.131476842854053,0.337150710840122,-0.414069662575043,-0.505149198452903,0.0917019695143201,0.494779497137049,-0.382004350949242,0.146114899524459,-0.0199204765570431,0.17386651084394,-0.230454854326621,0.256911704497262
2.50001997,0.62923240394,0.08959412735,0.45652442647,0.986019066851328,-0.0174000024991411,0.126255987993768,-0.107345541194701,0.147514215416446,0.0531545385215457,-0.00166202920371207,0,0,0,0.00327628987383499,0.528977925627962,0.303723087021586,-1.0284965424,-0.123325339579851,0.0879300780268162,-1.38690380750175,1.3740819561,-0.126439126547457,0.503854909226441,0.14150601697379,0.0973945752686844,-1.2080155352,0.0616290377196688,0.208391977364858,-0.471480672630969,1.4423767549,-0.383194839035778,0.363812185565802,0.054148185888535,-0.380069109728763,-0.197340384445012,0.185575118988335,-0.0359226573279927,-0.108584669892094,0.279680126715145,-0.390003664767471,-0.802317643543819,0.114189900665253,0.414932973808085,-0.404592281716852,0.159586349244109,-0.0442121650476571,0.344007142180439,-0.393038231610608,-0.566492193316022
2.5416869695,0.63384619263,0.09107256004,0.45559565996,0.985802346163963,-0.0183856424011929,0.132270361908582,-0.101785332006604,0.11073004404841,0.0354821011289766,-0.0222902181857361,0,0,0,0.031090372874976,0.528844663434202,0.283158313225234,-1.0453473556,-0.114427367266038,0.083431806119851,-1.40093206800033,1.3861628598,-0.134012047372382,0.472733533127688,0.151319516777314,0.121785657481063,-1.2284049779,0.0621889043492063,0.204161575276727,-0.46483382296125,1.4308906057,-0.395826036609413,0.667532659776498,-0.00319826710249778,-0.49355062863003,-0.4044162863227,0.213549629697075,-0.107957663401349,-0.336675562601658,0.289939372764291,-0.18174864798999,-0.74690706007649,0.235522113933927,0.585381297071275,-0.489342715930385,0.013436691776604,-0.101528839102779,0.159523117802582,-0.275665378784955,-0.303146320234438
2.583353969,0.64066581376,0.09263622914,0.45586606618,0.98566607653169,-0.0198063494986274,0.134287498390694,-0.100184638893057,0.163669599727238,0.037527758628264,0.00648969744029597,0,0,0,0.051273865141992,0.525204904174289,0.256881046021589,-1.0504596357,-0.108457398266347,0.0814683483485014,-1.39932734018133,1.3988692847,-0.151303438598791,0.435494657756901,0.166519860748286,0.141869182578065,-1.2467484318,0.0722979529805309,0.198416399229239,-0.4419345718308,1.4080899294,-0.407288422241132,0.484399945021622,-0.0873535244579613,-0.630649375260273,-0.122693742322388,0.143278111487019,-0.0471226100969819,0.0385131600130032,0.304951761645327,-0.414990074493098,-0.893725869816642,0.364805341238252,0.48200075210605,-0.440239376967857,0.242615229141342,-0.137883123729318,0.549577637104645,-0.54721186007166,-0.275095057701932
2.6250209685,0.64650851755,0.09403522695,0.45520235229,0.984602839726942,-0.0259079456007089,0.141714625803878,-0.0990100560027092,0.140223770852517,0.0335756792374742,-0.0159290061190985,0,0,0,0.0699804154816775,0.522661122672233,0.232401830873155,-1.0589926121,-0.113364017935407,0.089785845844991,-1.41623740242718,1.4118423015,-0.159306550518559,0.395275222283742,0.177245756780823,0.163180096165661,-1.2616618541,0.0836489834128541,0.180875127227235,-0.440748521146328,1.3915493157,-0.401483325442728,0.448953621910921,-0.0610502683798036,-0.587496470640594,-0.204789797739094,-0.117757931407085,0.199618345364407,-0.405838252064528,0.311349916136869,-0.192073151794102,-0.965258740868983,0.257419448514329,0.511457840577073,-0.357919276140823,0.272422554264392,-0.420987165202605,0.0284649890489922,-0.396971557791195,0.139321210263876
2.666687968,0.65383168641,0.095130595,0.45686534124,0.984457047127938,-0.0247585905981877,0.145546712689346,-0.0951182893930374,0.175754648711865,0.0262886232064776,0.0399114159876104,0,0,0,0.110364231104314,0.507275593572077,0.210643081269441,-1.0742293898,-0.0993974462723729,0.082586766620738,-1.40904432054874,1.4143516655,-0.176305172086633,0.375361963075062,0.201468486274423,0.18540141044291,-1.2759507422,0.0813221945696661,0.181233994208935,-0.415785728120184,1.3634546798,-0.419793338494422,0.969203832943051,-0.36924974883675,-0.522205819109061,-0.365679743750206,0.33519504237482,-0.172776521243219,0.172632586093426,0.060224254928652,-0.407963658820083,-0.477914403428057,0.581340864095594,0.533307282595394,-0.342930575070568,-0.0558424861667332,0.00861273876222707,0.599102246998705,-0.674265875564187,-0.439436803019485
2.7083549675,0.66225787173,0.09586654525,0.45735444321,0.983592762442312,-0.0297229130982567,0.152181008391074,-0.0922104483945918,0.202226832292065,0.0176626649106332,0.0117383535140312,0,0,0,0.126102181077566,0.495349960381531,0.17948403003633,-1.0790779713,-0.101363911381549,0.0888620143280868,-1.41358793142089,1.4247335737,-0.195510917040793,0.341787947319331,0.216943764507615,0.201489321609424,-1.2896029719,0.0878334561552054,0.166689749099672,-0.401734507815218,1.3380497856,-0.410837484221857,0.377707782228294,-0.286212910304375,-0.747811256078354,-0.116365026476171,-0.0471947856282891,0.150604741945692,-0.109045789873765,0.249163806479515,-0.460934196957473,-0.805769941647252,0.371403710823766,0.386106783775365,-0.327650895524644,0.156269029775935,-0.349059094338266,0.337226593553162,-0.609712590415828,0.214938785610555
2.750021967,0.67157657126,0.09627638566,0.45862721212,0.982994209794457,-0.0329763711998141,0.157556454399112,-0.0883793308995016,0.223647002227746,0.00983609126930263,0.0305462098368771,0,0,0,0.153377346936873,0.480862094243479,0.149519428132382,-1.1024721459,-0.102930173566357,0.0902196466231791,-1.41179392638791,1.4309624667,-0.211318685619858,0.319212600368998,0.224468915033472,0.205579119165581,-1.3019736501,0.0874315711503288,0.157083499722352,-0.384084936890617,1.31100256,-0.395922572065269,0.654598751688539,-0.34770600983763,-0.719144701166881,-0.561455705491823,-0.0375899921665166,0.0325829148098929,0.043055776861977,0.149492237856006,-0.37938341538284,-0.541803998877667,0.180602169970438,0.0981543572907503,-0.296893905211489,-0.00964516307147554,-0.230548143437108,0.423586318582902,-0.649128229163707,0.357955032413315
2.7916889665,0.68142558932,0.09600982958,0.46051092038,0.983052180119536,-0.0362666946007207,0.160831287303196,-0.0801650488015931,0.236374545280133,-0.00639729481840884,0.0452086371134055,0,0,0,0.175753137760085,0.446870163310787,0.120467394451635,-1.11006288,-0.099629881066853,0.0907023785238695,-1.40297262877569,1.4341982092,-0.224385308792784,0.307439262541052,0.245477572023786,0.204856077584025,-1.3145630405,0.0788947167312903,0.145177794777532,-0.363228631532692,1.2849449611,-0.358291867536652,0.537014690083744,-0.815799825775603,-0.697243238758919,-0.182176163176811,0.0792063872874674,0.0115854730718103,0.211709451558313,0.0776571996742896,-0.313596451141764,-0.282557850798586,0.504203740188056,-0.0173528593427044,-0.302142956082063,-0.204882869452563,-0.285734636227408,0.500547330218135,-0.625377378085505,0.90312969448679
2.833355966,0.69266060493,0.09582684237,0.46353031977,0.982747132067804,-0.0413711316986447,0.166197770694555,-0.0698198029977126,0.269638220769891,-0.00439165795943653,0.0724650065095283,0,0,0,0.183707273006298,0.433096189399618,0.0901201543472648,-1.1028629447,-0.0950735126359626,0.0933529942401641,-1.39465663194425,1.434021917,-0.238367253938414,0.286343746435579,0.253206376415639,0.206123946239128,-1.3137213569,0.0729502178323832,0.131457221883,-0.355538201469968,1.2638839013,-0.267738832266256,0.19089772101811,-0.330572733253067,-0.728327944621273,0.172797066897031,0.109351968837843,0.0636142690402897,0.199582329690871,-0.00423097900294332,-0.335564003009855,-0.506288342300074,0.185489823711756,0.0304286046587708,0.0202002450404434,-0.1426668339511,-0.329291119091294,0.184568847169413,-0.505461397574352,2.17325548652468
2.8750229655,0.70483899255,0.0948935736,0.46750462899,0.983756111399945,-0.0474422438999973,0.164737154099991,-0.053242997999997,0.292278968155603,-0.0223982715626066,0.0953826593633163,0,0,0,0.223820009145759,0.418186612509102,0.0676367287261479,-1.1103608282,-0.0802346813771236,0.100087133703377,-1.36513917550604,1.4287109236,-0.251437549416547,0.279070721582998,0.256864444760098,0.202727565710449,-1.3042061037,0.0663833192831915,0.113767708026968,-0.341774972897817,1.2480537854,-0.0916072369150888,0.962697977315632,-0.357826987050412,-0.539597904598743,-0.179947766577238,0.356129105452842,0.161618056112082,0.708413295711546,-0.127462823426966,-0.313684585762732,-0.174551202146947,0.0877929389770122,-0.0815124815665764,0.22836425262635,-0.157604306237403,-0.424544941279789,0.330314847176629,-0.379919746801064,4.22712452215734
2.916689965,0.71689861782,0.09454341288,0.47182844842,0.984039611167895,-0.0504643555983535,0.166584151994565,-0.0370015238987928,0.289428694523589,-0.00840379015052409,0.103770837398552,0,0,0,0.234449845210135,0.408272028341385,0.0585857067126015,-1.106734425,-0.0606703394748157,0.0985118189861144,-1.3399781450903,1.4186614143,-0.265401896830948,0.262209823878946,0.258023472454342,0.195731827325992,-1.3007559651,0.0419691583702909,0.111665838969906,-0.354869056515073,1.2530295658,0.119205048814378,0.255114027694158,-0.237948119295622,-0.217222793149442,0.0870329815805422,0.469540454966236,-0.0378072512099852,0.60385990634489,-0.241186296603861,-0.335141660834041,-0.40465831248664,0.027816442464121,-0.16789638007068,0.0828026649723092,-0.585935181459386,-0.0504444544191798,-0.314255496541234,0.119417775690806,5.05945444258511
2.9583569645,0.72792431208,0.09410964724,0.47696405624,0.98391303553133,-0.0537558124017117,0.16831790800536,-0.0263539938008392,0.264614548498986,-0.0104102922025859,0.123253603130218,0,0,0,0.258418054109621,0.381396908341628,0.0319248934315599,-1.0921589371,-0.0525170978294851,0.100874120885298,-1.31222958063029,1.4019341242,-0.276898022841393,0.258580833381391,0.273813292780653,0.191420759377433,-1.3008112086,0.0152316582466959,0.109977689988894,-0.402517507706992,1.3033558885,0.281899724844852,0.575232418631107,-0.644997727752317,-0.639854407587991,0.349808915326383,0.195676236426156,0.0566947927024063,0.66596022734982,-0.401451755603375,-0.275904820322975,-0.087095076225855,0.37895266075762,-0.103464804288574,-0.00132583340924463,-0.641694877107602,-0.0405152519084463,-1.14355369389916,1.20782209671709,3.90464103445881
3.000023964,0.73861333189,0.09372944203,0.48260592625,0.984476911453597,-0.0542694592029545,0.166274544309052,-0.0145880954007942,0.256534426243004,-0.00912485215068131,0.135403798634455,0,0,0,0.281969910987179,0.364502411503526,0.0187496182587937,-1.0910403589,-0.0348091984399161,0.0982422075146698,-1.27126687243787,1.3806376162,-0.289749460893654,0.252357557939947,0.280979567396121,0.187712874637798,-1.2978584811,-0.0360571329997725,0.112219312496535,-0.478954162060091,1.3947536455,0.405673228887764,0.565240049923873,-0.405464685262542,-0.316204078308211,0.0268456623568504,0.424986190559967,-0.0631654163297337,0.983097143638112,-0.511112109236473,-0.308432049499054,-0.149357417527601,0.171989216921351,-0.0889885229109227,0.0708648939312293,-1.23092115731704,0.0537985104408782,-1.83446505076754,2.19352864609317,2.97054036835341
3.0416909635,0.74815268157,0.09310793345,0.4873756748,0.984992402144468,-0.0555006716025056,0.163404910907377,-0.00291174530013144,0.228942563526801,-0.0149160867702989,0.11447305078927,0,0,0,0.287013975845546,0.351974167148529,0.00882044781494994,-1.0559694547,-0.0141404572214433,0.100275004713027,-1.23332344625659,1.3603006867,-0.302620819801541,0.248077800100612,0.285298398460293,0.18245615855257,-1.2943151623,-0.106119853335603,0.101598178369683,-0.563709910312652,1.4980791658,0.389451485895197,0.121056589600766,-0.300675462724322,-0.238298187126332,0.841694977340519,0.496045826829283,0.0487867430520642,0.91063495419889,-0.488082409197715,-0.308910146215036,-0.102713367669645,0.103651117574997,-0.126160178277964,0.0850389719086931,-1.68149185630298,-0.254905182861845,-2.03412170949726,2.47979267861608,-0.389318721943655
3.083357963,0.7576483642,0.0925535037,0.49275715391,0.98659189347344,-0.0495990156036921,0.15502759971154,0.0119505946008896,0.227894562698233,-0.0133062077100129,0.129154466954119,0,0,0,0.348293579669519,0.325961083492277,0.0149734534627711,-1.0623799191,0.028356605223704,0.0857487120044819,-1.17748085426659,1.335065242,-0.316111123107458,0.266855476490664,0.303915605831755,0.182535558212172,-1.2901891854,-0.190809923663171,0.0983572414321881,-0.647835795351724,1.5956461276,0.177103459250592,1.47069874383379,-0.624309020769598,0.147670955952113,-0.153849916646867,1.01992135155178,-0.348628240162697,1.34021150215043,-0.605645834901072,-0.323764693109634,0.450660633484103,0.446809407801556,0.00190557660871851,0.0990226546070335,-2.03254545188855,-0.0777818651783446,-2.01900511312487,2.34158837859203,-5.09631193013082
3.1250249625,0.76470182068,0.09258769135,0.49529627763,0.985860473185738,-0.0518111412992505,0.159340677597695,0.00229815359996676,0.169281603298553,0.000820497045869675,0.0609384825034013,0,0,0,0.358271323056288,0.291231457934018,0.0044709676311695,-1.0584061191,0.0218065874555378,0.0950858337678405,-1.16618137980054,1.3256108111,-0.330060506197132,0.237022864691972,0.324279981737762,0.198967872502975,-1.2875798507,-0.200498949732695,0.0551435532016979,-0.797260932582745,1.6789753403,0.030925136472308,0.23946392844461,-0.833504355365419,-0.252057646521959,0.0953704381809405,-0.157199170729015,0.224089132296619,0.271185220957606,-0.226904529086621,-0.3347825199094,-0.715976963944617,0.488741117680106,0.394372392732589,0.0626235325632224,-0.232534768180857,-1.03712023301534,-3.58617464718143,1.99988512971758,-3.50825172276405
3.166691962,0.77485071209,0.09284547545,0.49713475539,0.988047236283828,-0.0452948288992586,0.146051975697609,0.019489939499681,0.243571448191271,0.00618676898008951,0.0441231137845674,0,0,0,0.404985638301124,0.271113409776027,-0.00250982490088757,-1.0520250208,0.0744272336535803,0.0744178406672821,-1.11016062910498,1.3224833338,-0.35948904906447,0.247610442676065,0.325665305784901,0.200851563435256,-1.2794239276,-0.255951042651867,0.0316964744099863,-0.878043529026092,1.714098118,-0.0879491247667234,1.12113461025278,-0.482829298951359,-0.167537682478362,0.153145135876657,1.26288542082428,-0.496027872142759,1.34448727692917,-0.0750588556298629,-0.706279387056388,0.254099841868693,0.0332475115502306,0.0452082212514639,0.195740590824164,-1.33083959931341,-0.562725395950617,-1.9387668277709,0.842939931395824,-2.85295948029642
3.2083589615,0.78460788504,0.09292555279,0.49931727783,0.989361525083072,-0.0435086462992556,0.135771957997677,0.0289265587995051,0.234170280247801,0.00192184080833591,0.0523801201476003,0,0,0,0.456062020591529,0.248006512008788,-0.0135285516562125,-1.0616891119,0.105946703750684,0.0661128935962177,-1.06161266944919,1.3161966998,-0.380166400479309,0.251498124722007,0.327499675907311,0.208525454874526,-1.2756611147,-0.269151825397816,-0.0114349171435465,-0.966591688829815,1.7029146236,-0.182107739793519,1.22582338309255,-0.554561116579532,-0.264447329722528,-0.231936333692569,0.756461239718104,-0.199317137560251,1.16514172458674,-0.150878010786446,-0.496252469891391,0.0933036237932592,0.0440245312698656,0.184171923377158,0.0903067882293708,-0.316816255174529,-1.0351451285455,-2.12513885968015,-0.268401721607048,-2.25978870945089
3.250025961,0.79292639979,0.09285048493,0.4980836581,0.989170271485988,-0.0395780930994393,0.136891537298061,0.0351632701995019,0.199642759253639,-0.00180161424870571,-0.0296066370221827,0,0,0,0.47740781282007,0.218948313434971,-0.0343201275570559,-1.0544264213,0.128366342598677,0.0531942629327807,-1.0526320581533,1.3240750317,-0.399316787776705,0.227428599388289,0.343037984583849,0.222367448864378,-1.2582777964,-0.26191657494804,-0.0505104205632417,-1.09021280564194,1.6625534631,-0.2409874744343,0.512294921273146,-0.697391195010744,-0.498993835657483,0.174303182066181,0.538067034272371,-0.310044659285749,0.215532949424136,0.189078455241299,-0.459605623807795,-0.577663993629264,0.372916429380479,0.332205202101288,0.417196306635904,0.173644623721358,-0.937804590889614,-2.96688310402876,-0.968660114343002,-1.41310234351722
3.2916929605,0.80346636433,0.09231786333,0.49788832324,0.98993348522522,-0.0362263577009229,0.131752815303357,0.0368855188009397,0.252957128338458,-0.0127828162908633,-0.00468799919226262,0,0,0,0.51510072474627,0.187944689821977,-0.0493300833415535,-1.0653841182,0.13685430872149,0.0393653244239659,-1.02154543564575,1.3274349653,-0.425142151114507,0.223787123627765,0.345845367148885,0.222823130566472,-1.2651981187,-0.239087400070038,-0.0815857317013147,-1.17221197337684,1.5766289276,-0.282265018026304,0.904622660102982,-0.744081022992649,-0.360236061262286,-0.262982624894788,0.203709559715551,-0.331891873059273,0.746072980550256,0.0806377622655518,-0.619803769114727,-0.0873947201435411,0.0673766433562472,0.0109362734913089,-0.16608640850177,0.547895820480256,-0.74580150985129,-1.96796430553881,-2.06217237936703,-0.990653132870887
3.33335996,0.81429467406,0.09127541738,0.49833671356,0.99049938592908,-0.0329743169009681,0.127075724403731,0.0409319089012017,0.259877357619668,-0.0250185029521987,0.0107612817188814,0,0,0,0.542260745838559,0.158756969368892,-0.0655490325512327,-1.0643732198,0.140521056149739,0.0277591896215796,-0.992166628880916,1.3267224408,-0.433623265199192,0.21819650375307,0.357989532300851,0.226128628804891,-1.260001866,-0.219234069517446,-0.101397691744249,-1.23114096186988,1.4475653516,-0.273070050525645,0.65183529935457,-0.700499695282464,-0.389251671689946,0.0242613678001917,0.088001235324108,-0.27854501023973,0.705085730131267,-0.0171004514015923,-0.203545112114094,-0.134173805212332,0.291457635483581,0.0793313240234523,0.12470906862396,0.476476127170896,-0.475483242870269,-1.41428442652888,-3.09750108116137,0.220677457244289
3.3750269595,0.82675551896,0.08952107892,0.50261134973,0.990953915591157,-0.0324547593997104,0.118505359898943,0.0539768972995184,0.299057888725585,-0.0421037867149515,0.102590448587497,0,0,0,0.565256835643331,0.14018096407933,-0.0798231082508928,-1.0699827296,0.160071242901585,0.0242530527692479,-0.935849505792099,1.3032845294,-0.440946325945882,0.218160242474492,0.358617265870871,0.222764752363357,-1.2620633245,-0.217891617163687,-0.107233537780529,-1.23949870680021,1.2746384789,-0.231464572105609,0.551901746723374,-0.445820565734818,-0.342575080302101,-0.134627159798247,0.469200734068836,-0.0841466122928224,1.35160015754954,-0.562505380307024,-0.175752054013143,-0.000870263734188726,0.0150654853373803,-0.0807323897064955,-0.049474608796821,0.0322185991280479,-0.140059186077953,-0.200584276060766,-4.1502117929082,0.998523505875099
3.416693959,0.8396836224,0.08664828767,0.50401994426,0.99099940096046,-0.0294334231017957,0.113534579606927,0.0645272046039367,0.310272004107233,-0.0689464392558434,0.0338059986776819,0,0,0,0.592087843392543,0.113871591550026,-0.0881953435944302,-1.0920888518,0.165201963204677,0.0155989438132689,-0.891725850332421,1.2897757128,-0.462105698843784,0.218562425408934,0.363970768145764,0.21196383611135,-1.2597978738,-0.210762499669704,-0.0932836609543987,-1.24275033214591,1.0979988744,-0.106302894779211,0.643939042196019,-0.631419896921156,-0.200932043199736,-0.530542694824956,0.123136303661417,-0.207696955860212,1.05895927206561,-0.324209008618437,-0.507820893076364,0.00965231332391844,0.128483028275012,-0.259219919399463,0.0543703824893835,0.171097453129122,0.334794369489703,-0.07803838492616,-4.23931664433865,3.00385626102974
3.4583609585,0.85287000694,0.08372628789,0.50600785445,0.990593822704265,-0.0327965135001412,0.108569249800468,0.0765570710003297,0.31647070099204,-0.0701274345420526,0.0477094634568058,0,0,0,0.614107946393098,0.113373642653559,-0.0968374037797257,-1.0985158529,0.160060960342058,0.022998390445491,-0.853260789001988,1.2832864689,-0.468028298003254,0.22109119506506,0.351141849455681,0.2001174143953,-1.26576877,-0.205388524543599,-0.0743786978814497,-1.22059655164945,0.9120009824,0.0298728713235787,0.528478250529052,-0.0119506780531913,-0.207407787673685,-0.154246794276609,-0.123383083118782,0.177585300621949,0.923154097775468,-0.15574060954401,-0.142141244403006,0.0606899869554169,-0.307891589123976,-0.284311850102141,-0.143300364116692,0.128974372779245,0.453715489471447,0.53168648480341,-4.46391375025696,3.26819228014703
3.500027958,0.86706448059,0.07963978239,0.50592526593,0.989542410079669,-0.0274188584994367,0.106370300297815,0.0934846728980793,0.340664646370806,-0.0980753485741157,-0.0019821086469157,0,0,0,0.604232937253056,0.100509363523431,-0.11573951015431,-1.0671240791,0.166923513343191,0.0109589149109296,-0.82751077229378,1.2851192777,-0.462999444655593,0.224929193484624,0.354539108665003,0.181929732569235,-1.2681283943,-0.213290830870396,-0.0187950410683537,-1.19823916411224,0.7434580593,0.111134410048956,-0.236998326218376,-0.308740232906077,-0.453646929258356,0.753396553068335,0.16469995640394,-0.288945104735977,0.617995464449235,0.0439870598313641,0.12069151626002,0.0921112262850639,0.0815335697335714,-0.436500877056537,-0.0566305308353177,-0.189653836888286,1.33399710754541,0.536573014747837,-4.04499784295723,1.95026135072138
3.5416949575,0.88337798129,0.07465206168,0.50723224706,0.988124133548357,-0.0261915392012818,0.100007149404894,0.113680561405563,0.391520889331134,-0.119704340841725,0.0313672965580363,0,0,0,0.596601521352513,0.0866745723894421,-0.128263453350886,-1.0645392056,0.179844059176719,0.016287588771933,-0.779212861025274,1.2763071569,-0.469426290677098,0.224856586735313,0.360410628617896,0.165508306446755,-1.2679780568,-0.215548307301945,0.0516004641259215,-1.14597332281778,0.5902791753,0.120607727473139,-0.183152518590715,-0.332032334941454,-0.300572235746808,0.0620364684526907,0.310090623000758,0.12788715110152,1.15914061122893,-0.211489209824193,-0.154243072422456,-0.00174254806399551,0.140915353237592,-0.394111078780231,0.0036080711787231,-0.0541790015753114,1.68947862910732,1.25437017115806,-3.67626385000437,0.22735780204627
3.583361957,0.90053037242,0.06909481978,0.50762769582,0.98666947690015,-0.026275682400004,0.0932033949000142,0.13079013360002,0.411654098827059,-0.133372740218551,0.00949069442833224,0,0,0,0.598117644240402,0.0851229535335474,-0.139424634595761,-1.0563325448,0.188148484265103,0.0296861505300557,-0.744480152595654,1.2827680444,-0.461980202413926,0.247942155617242,0.353741411282325,0.144868928261894,-1.2770662577,-0.19828448222224,0.128003432937302,-1.08613078481119,0.4700661165,0.0659704170853525,0.0363866586527185,-0.0372385550798947,-0.267866210161708,0.196958285897212,0.199304610075985,0.321562913550391,0.833578343687067,0.155060061380231,0.178704690823071,0.554049227421053,-0.160059937494936,-0.49534111965179,-0.218115079296745,0.414328492256933,1.83365660422417,1.43620943971724,-2.88509036509816,-1.31128497476249
3.6250289565,0.91916309072,0.06274988951,0.50790070233,0.985240344525949,-0.0262130763980298,0.0875265454934215,0.14475303788912,0.447181667112843,-0.152277110090444,0.00655210390179286,0,0,0,0.596615229078258,0.0754911617325663,-0.147093539617917,-1.0506602497,0.196989319573033,0.04743983882923,-0.707952036501881,1.2865870439,-0.440912864327685,0.253462284073118,0.351104665826224,0.130590660078045,-1.2790454161,-0.178476169551646,0.18257717795678,-1.03884310308685,0.4071591338,-0.00735190025461882,-0.0360576758627439,-0.231161156708226,-0.184052250322374,0.136133994961651,0.212178352509658,0.426085115612279,0.876667783428296,0.0916552558578156,0.505612075240512,0.132482024674621,-0.0632813854547166,-0.342675699118909,-0.0474994221746147,0.475395706633341,1.30975941810924,1.13489529584055,-1.50975552487287,-1.75972155950349
3.666695956,0.93880682868,0.05686032842,0.5079458524,0.983557436580261,-0.0321171681993554,0.0791195576984121,0.159133126796806,0.471445945129789,-0.141348337069484,0.00108359302426024,0,0,0,0.598921617719518,0.0947145327199881,-0.16818531661132,-1.0416543536,0.20690980270808,0.0783938169401543,-0.662723939652476,1.2894791168,-0.430883912858854,0.27311062093427,0.312959899009234,0.117124588637094,-1.2839115382,-0.165923478686552,0.193709896425778,-0.998562637570591,0.3966138712,-0.0389357097271545,0.0553528852313977,0.461357218376662,-0.506198604327215,0.216139779875436,0.238089693380652,0.742889540460533,1.08546565368609,0.0694091951593474,0.240692912596958,0.471556317875784,-0.915467090856631,-0.323183132995943,-0.11678599751345,0.301262174280021,0.267183108997293,0.966723450203215,-0.253084280762765,-0.758005372393942
3.7083629555,0.96056665558,0.04706934344,0.50797862857,0.982464793984461,-0.0515884543991841,0.0685507157989158,0.165536579997382,0.522231674013388,-0.234981762485681,0.000786621796464386,0,0,0,0.58340166326085,0.0727042631517886,-0.19074970222167,-1.031346562,0.175806595877059,0.159273762591647,-0.605757081640227,1.2880861264,-0.436383393673757,0.270822618611492,0.312439015952728,0.127782601205287,-1.2947552903,-0.0925039610026721,0.177077639362638,-0.962893735494545,0.4233749983,-0.0381639292486552,-0.372475931670304,-0.528242250037694,-0.541540928819453,0.247385022288443,-0.746471001134145,1.94110319010354,1.36719367115093,-0.033431502549154,-0.131986485249625,-0.0549116171126861,-0.0125010934974103,0.255790258384041,-0.260247971539203,1.76205434912297,-0.39917098093756,0.856046811723164,0.642261920011783,0.0185225835255856
3.750029955,0.98132752809,0.04257037169,0.5088427596,0.978007141082938,-0.0382683065993324,0.0748454385986942,0.19088145279667,0.498256960163403,-0.107974459500017,0.0207389790570364,0,0,0,0.583933761280111,0.077886565711992,-0.165769165636847,-1.042849602,0.234736073411855,0.132346537070229,-0.579707605000474,1.2746766428,-0.419934236126499,0.284581751558353,0.299251575090104,0.114523337797594,-1.3060909882,-0.156509675993586,0.206267604979954,-0.994475831087861,0.503758035,-0.014921525725912,0.0127702504535118,0.124374267943228,0.599528089005371,-0.276070754746812,1.41429616343734,-0.646248250282998,0.625182445396687,-0.321825035661616,0.394776627658489,0.330216552954853,-0.316496052532498,-0.318219779845034,-0.272054576428046,-1.53612488921632,0.700553578793593,-0.757964239621225,1.92917747053037,0.557813228733766
3.7916969545,1.00423078616,0.03408972742,0.50861590493,0.97371456306012,-0.0366399556984994,0.0784092797967886,0.210688035191371,0.549673802885664,-0.203533836651713,-0.0054444685895862,0,0,0,0.589452075892455,0.0819476064786596,-0.159643529615793,-1.0375424777,0.25551841176602,0.154258300398453,-0.554025542779395,1.2665712564,-0.387026509271075,0.310914321951414,0.280974504200967,0.0990121964870222,-1.3237221981,-0.174538854861115,0.199402075406556,-1.00770476580648,0.568380372,-0.0279090906874151,0.13243849277757,0.0974641998559954,0.147014090156739,0.127369965768714,0.498772136308139,0.525878119162944,0.616364569785711,-0.194527719712576,0.789779135774435,0.631976641204048,-0.438646197433471,-0.372264417805549,-0.423145657512488,-0.432696836438368,-0.164771393567676,-0.317491897121485,1.55092369922149,-0.311699069223909
3.833363954,1.02749292618,0.02627216942,0.50905950963,0.970895995805446,-0.0252332931828998,0.0810894886399952,0.223939145921837,0.558286900884239,-0.187619893292292,0.0106464277563335,0,0,0,0.58071965351105,0.0814291544970227,-0.22255683723544,-1.0336080058,0.268237110800774,0.177125966049192,-0.527715953885865,1.2577889116,-0.340548798930139,0.347651516098862,0.261581883228465,0.0996449977984637,-1.3388192432,-0.172521266656536,0.204337556866171,-1.02004975934146,0.6211557545,0.0646357561198744,-0.209576463056937,-0.0124427481666146,-1.50990732173183,0.0944265713205499,0.305246338526343,0.548819591646845,0.631425089621111,-0.210774591532562,1.11545613791883,0.881685616634034,-0.465419185571594,0.0151871101599594,-0.362326188138406,0.0484217301171173,0.118450608847302,-0.296277478175232,1.26659906240669,2.221058581559
3.8750309535,1.04965807968,0.01870683066,0.50797062232,0.973539604523388,-0.0193978795764411,0.0881832673867744,0.209923967296199,0.531959434708031,-0.181566679885361,-0.0261330866889037,0,0,0,0.583884884900814,0.0596090139421951,-0.24234068846305,-1.0452378341,0.278527636723774,0.189316831575912,-0.513491220394996,1.2548063462,-0.253050544852789,0.336774861561748,0.258453534378432,0.105587657880592,-1.3518708043,-0.178452849900544,0.199554428132141,-1.06707264855316,0.712193755,0.104665355612291,0.0759649465463614,-0.523679190166491,-0.474808636691246,-0.279113649640167,0.246970649350469,0.292578435524738,0.341390876750547,-0.0715809978109888,2.09994132352513,-0.261037623722182,-0.0750797726635718,0.142622702700936,-0.313234964279109,-0.142356860709595,-0.114794172640862,-1.12854032630059,2.18489455906226,0.960702713724716
3.916697953,1.0709579979,0.01124703909,0.50627233223,0.978241858344582,-0.0104549920188146,0.0893064971384129,0.186970343352341,0.511193953862696,-0.179033567559862,-0.0407586365800083,0,0,0,0.585200048720181,0.0698281900862762,-0.251162216133269,-1.0605565575,0.28258319853985,0.191815707217692,-0.489130137467051,1.2516874972,-0.170628614740515,0.328629895670612,0.301695782249458,0.119352891904762,-1.356876657,-0.185427901869712,0.167154975706842,-1.10089547583706,0.8121750382,0.0936131934140348,0.0315636795341205,0.2452582683349,-0.211714972906049,-0.36764642484036,0.097332706092167,0.0599725363420884,0.584661319996047,-0.0748517780839975,1.97811052154772,-0.19547761991205,1.03780565891301,0.330362977640615,-0.12013950512563,-0.167399910069535,-0.777580646892966,-0.811741370623485,2.39953162934134,-0.26524977394295
3.95836495249999,1.08789821812,0.00655211179,0.50047259843,0.982909945097166,-0.00211836812733349,0.0791597250660468,0.166184506717777,0.406562037662448,-0.112677355133287,-0.139192499330315,0,0,0,0.635182370782687,0.0713966445585394,-0.256090149264544,-1.091445341,0.268608258087535,0.156704201353804,-0.527315081051379,1.2593550356,-0.0197118674299342,0.324245750768326,0.330393801893858,0.129569713126279,-1.3547995662,-0.164752470284251,0.140031724051145,-1.07352663254655,0.8247681979,0.100994707879734,1.19956614736576,0.0376426066451742,-0.118269450414242,-0.741324882296841,-0.33539589171318,-0.84266940949005,-0.91643132557045,0.18401945165262,3.62197300313359,-0.105218637168384,0.688746969754812,0.245201750644822,0.0498497809999457,0.496206394354381,-0.650952839925444,0.656846992078364,0.302233418559452,0.177154932063189
4.000031952,1.11014202628,0,0.50192564968,0.987857860492503,0.00113158270010596,0.0590856533055328,0.143681775313454,0.53384713146911,-0.157249426851578,0.0348729514348627,0,0,0,0.678957895074981,0.0714069594567916,-0.23818524516287,-1.1316663838,0.25049850488709,0.104427245682631,-0.548386121587041,1.2499591835,0.0613032025341705,0.329656543760657,0.375952783411628,0.145335509517833,-1.3359870678,-0.175598455674428,0.152523615654346,-1.047180767929,0.8316771744,0.118231401450001,1.05060419078879,0.000247555580578636,0.429714265882628,-0.965297316405038,-0.434630604981422,-1.25463691406848,-0.505700933316833,-0.225498649116795,1.94434614770149,0.12985799451029,1.09340682229279,0.37837609092907,0.451496355047116,-0.260301570075317,0.29980300365042,0.632295700043139,0.165814111476877,0.413677341231794
