mit-biomimetics/pkGym/resources/robots/mit_humanoid/trajectories/humanoid3d_getup_facedown.csv
t,x,y,z,qw,qx,qy,qz,x_v,y_v,z_v,wx,wy,wz,left_arm_pitch,left_shoulder_abad,left_shoulder_yaw,left_elbow,left_hip_yaw_joint,left_hip_abad_joint,left_hip_pitch,left_knee,left_ankle,right_arm_pitch,right_shoulder_abad,right_shoulder_yaw,right_elbow,right_hip_yaw_joint,right_hip_abad_joint,right_hip_pitch,right_knee,right_ankle,left_arm_pitch_v,left_shoulder_abad_v,left_shoulder_yaw_v,left_elbow_v,left_hip_yaw_joint_v,left_hip_abad_joint_v,left_hip_pitch_v,left_knee_v,left_ankle_v,right_arm_pitch_v,right_shoulder_abad_v,right_shoulder_yaw_v,right_elbow_v,right_hip_yaw_joint_v,right_hip_abad_joint_v,right_hip_pitch_v,right_knee_v,right_ankle_v
0,0,0,0.067852078,0.814622151021893,-0.0362872856009752,0.578282309815541,0.0257595443006922,0,0,0,0,0,0,-1.30867082049253,0.0122881765891405,0.405408776210661,-1.8327177174,-0.287695571590446,0.235863440619938,0.286711157841565,0.0642647684,0.674015648933483,-1.11885063253565,0.277988803165494,0.356624103326809,-1.8995687937,-0.375482643438106,0.332754060055818,0.196122953249244,0.1472237584,0.703669740546294,0,0,0,0,0,0,0,0,0,0,0,0,0,0,0,0,0,0
0.0166660007,0.00012808985,-0.00052584938,0.067677834,0.814105331459653,-0.0330350118983628,0.579143155771297,0.027099859798657,0.00768569810512488,-0.0315522235637492,-0.0104550577631983,0,0,0,-1.30717576390382,0.0213764421443166,0.395771193488525,-1.8252999353,-0.28551051305883,0.233519982424079,0.285830770557046,0.0630360566,0.672316643359521,-1.11727227767732,0.278374567365026,0.358373192716156,-1.8928349382,-0.380392513634698,0.335265807848054,0.197349398495416,0.145567441,0.694323091392961,0.0897069798341114,0.545317723116144,-0.578278070163291,0.445084710694876,0.131108750740462,-0.140613110370228,-0.0528253478663802,-0.07372565392968,-0.101944407932323,0.0947050757249174,0.023146776870841,0.104949556935265,0.404047474929006,-0.294603983581513,0.150710889639879,0.0735896552657746,-0.099383015146519,-0.560821358499859
0.0333320014,0.00025548418,-0.00105333501,0.067448472,0.813409068017304,-0.0296099739006299,0.580233864012344,0.0285937155006084,0.00764396523756296,-0.0316504024867826,-0.013762269912781,0,0,0,-1.30288993124903,0.0320904716571324,0.383110864156689,-1.814333837,-0.283251008397763,0.230979272085249,0.284753944308345,0.0614600243,0.670899390443505,-1.11623186670816,0.283565058621912,0.363619128640316,-1.8832511502,-0.385910771241509,0.337790780229549,0.198398353906988,0.1438413103,0.685238184098087,0.257160234895819,0.642867458466857,-0.759650114009407,0.657992190051927,0.135575696997711,-0.152448711875399,-0.0646121566946626,-0.0945657166569063,-0.0850385729322518,0.0624271526141085,0.311441920009435,0.314768732978619,0.575050257858206,-0.331108686849554,0.151504396702394,0.0629398396444085,-0.103571980529198,-0.545116219446323
0.0499980021,0.00043107211,-0.00153561989,0.067229778,0.812425937808247,-0.0259756748002637,0.581708556505904,0.0300751589003053,0.0105356967853722,-0.0289382491145581,-0.0131221643354428,0,0,0,-1.29440084504235,0.0483010757222542,0.367636497224916,-1.8074306108,-0.280472735167376,0.227462755633449,0.28315846056865,0.059719931,0.669619725361883,-1.11049828216732,0.293541848592747,0.363962462960836,-1.8903419829,-0.391142399806246,0.340118249430005,0.198948998995734,0.1420802732,0.675969944587825,0.509365525628566,0.972675110059355,-0.928499116874073,0.414210123008092,0.166703054943862,-0.210999418222782,-0.0957328496748629,-0.10440977000559,-0.0767829729914031,0.344028819153979,0.598631318360323,0.0206008824012473,-0.425466962808906,-0.313910257110298,0.139653732311196,0.0330400255380887,-0.105666448219938,-0.556116591922501
0.0666640028,0.00065759582,-0.00195261794,0.067028864,0.81108380039422,-0.0221944088998418,0.58366216959584,0.0314475552997758,0.0135919657077657,-0.0250208827844343,-0.0120553217065445,0,0,0,-1.28225673869088,0.0749668752102123,0.349628717463074,-1.8056295604,-0.276744028337398,0.222518319771439,0.281006512350348,0.0577843608,0.66746120422548,-1.09275614556477,0.312075869129046,0.356586697491231,-1.9218755652,-0.395756199898916,0.342179194101013,0.198725265808713,0.14052693,0.665821752258859,0.728675497504116,1.60001190255309,-1.08050996072753,0.108067342154851,0.223731349655986,-0.296678006380378,-0.129122052557096,-0.116138852676275,-0.129516443402207,1.06457073427003,1.11208566889705,-0.442563612133137,-1.89209054215387,-0.276839067495661,0.123661621531509,-0.0134245276385445,-0.0932043162580691,-0.608915870798347
0.0833300035,0.00092056853,-0.00237931393,0.066781722,0.809483447071459,-0.0183466285993531,0.585930990579341,0.0329366727988387,0.0157789930970062,-0.0256027824359806,-0.0148291125416793,0,0,0,-1.26238550853855,0.114680790528736,0.336992496128131,-1.8373800829,-0.272410106255109,0.217050590177774,0.278611607469059,0.0555293955,0.66471615975609,-1.06073663105368,0.342186190071627,0.341695623979879,-1.9750819833,-0.400921909571412,0.344137783809335,0.198013212359952,0.1394256273,0.65434641548084,1.19232145192033,2.38293013623377,-0.758203576395123,-1.90510747428445,0.260045715844,-0.328076884916055,-0.143700034843347,-0.135303324450238,-0.164709249615606,1.92124763987895,1.80669144833176,-0.893500113158625,-3.19251265242057,-0.309954965530251,0.117520078366616,-0.0427249141277565,-0.0660808024567046,-0.688547719670925
0.0999960042,0.00121647246,-0.00281034845,0.066497242,0.807695666241685,-0.0145887317007529,0.588403052630367,0.0345937465017853,0.0177549452521024,-0.0258631046379351,-0.0170694820623645,0,0,0,-1.22981454101644,0.169655016691477,0.330003548380526,-1.9060867089,-0.267985149431422,0.211674030410465,0.276213354999002,0.0528188992,0.661680513969058,-1.01150454743967,0.389021405030422,0.32108299372639,-2.0476715002,-0.406375570700463,0.345719212581238,0.197081993613485,0.1390992507,0.641019041706278,1.95433614269017,3.29858537463888,-0.419353621388317,-4.12256228934396,0.265508018590663,-0.322606476748169,-0.143900898195486,-0.162636276620341,-0.182146025412795,2.95404305449304,2.81022518850581,-1.23680723555286,-4.35554505286922,-0.327232743309023,0.0948895179095322,-0.0558753574555505,-0.0195833785126376,-0.799674379862567
0.1166620049,0.0015618358,-0.00322956375,0.066228764,0.805684113214244,-0.0108946377001926,0.591127032010451,0.0363764843006431,0.020722628434787,-0.0251539231004592,-0.0161093236963556,0,0,0,-1.18097418529789,0.239920812249716,0.317980992991873,-1.9975478732,-0.262973951225008,0.205969983437438,0.273292775388827,0.0506878521,0.657782171953876,-0.938592806421741,0.455104818999479,0.290120218376359,-2.130177287,-0.411145836106738,0.346557618748413,0.195996946227672,0.1397677118,0.623891778722292,2.93053844156757,4.2161162010655,-0.721382148307035,-5.48788914307438,0.300683907112363,-0.342256494266609,-0.175241778921515,-0.127867935346961,-0.233909867481399,4.37487927250144,3.96516327813769,-1.8578407566028,-4.95054502187799,-0.286227361449389,0.0503063801728728,-0.0651054446321615,0.0401092686861575,-1.02767684295044
0.1333280056,0.00195137929,-0.00366755921,0.066056298,0.803233986834635,-0.00719899880031042,0.59439175972563,0.0382331372016486,0.0233735433600456,-0.0262807777273164,-0.0103483735003081,0,0,0,-1.11166382473152,0.320779963933417,0.291009689961179,-2.0994661632,-0.256900166190109,0.199396467449829,0.268581245973087,0.0503318049,0.651833969455056,-0.839728263319189,0.531088553747284,0.240884504074216,-2.2109614352,-0.415434428245993,0.346599342531352,0.193723234292433,0.1423944323,0.601557771473248,4.15878781082611,4.85174296696752,-1.61834284758516,-6.1153417568259,0.364441664453993,-0.394426719759368,-0.282703061193309,-0.0213636856501513,-0.356906411195578,5.93210962138933,4.55920626163212,-2.95426090448579,-4.84724257811895,-0.257325810580071,0.00250352701229144,-0.136428167511043,0.157609527761511,-1.340093982418
0.1499940063,0.00234370507,-0.00409900946,0.065926504,0.800597974456064,-0.00358429829980329,0.597864904067189,0.0398446054978133,0.0235404874307968,-0.0258880494346793,-0.00778795119095384,0,0,0,-1.01883789667836,0.409845421838562,0.245325490839035,-2.197485968,-0.251694485388708,0.192657363730938,0.263201989635729,0.0509025277,0.643720040182351,-0.713121824618687,0.60416126943082,0.152545887982443,-2.2805653766,-0.42038686943616,0.346883173117434,0.190121486799545,0.1475466444,0.572285533507376,5.56977824038811,5.34414101549542,-2.74116147865902,-5.88142329791216,0.312353329098357,-0.404362380645511,-0.322768277416341,0.0342447363511751,-0.486855210122795,7.59668987056398,4.38453813838709,-5.30052876403477,-4.17640336472562,-0.297158345263141,0.0170305156702652,-0.216113485035925,0.309145078819059,-1.75640446036175
0.166660007,0.00275763313,-0.00449327522,0.065883832,0.797743865639625,0.000106891300005311,0.601592871329882,0.0411184943020423,0.0248366760239006,-0.0236568908820459,-0.00256042230935509,0,0,0,-0.89776848842779,0.500159487174429,0.175646922313882,-2.2818169725,-0.247513574407721,0.185346231288068,0.256946780056783,0.0524942679,0.633551865410918,-0.556687004718183,0.665002203824769,0.029257406037119,-2.338744541,-0.426028625057127,0.347819449168626,0.184906903556458,0.15483863,0.531101497327627,7.26445476811798,5.41906045496967,-4.18088117115897,-5.06006245997578,0.25086468291024,-0.438685475566437,-0.375327572075894,0.0955082283177874,-0.610114865255783,9.38646425836909,3.65060193438899,-7.39760451020044,-3.49088935295678,-0.338518863794808,0.0561788078642952,-0.312887496943782,0.437536619088225,-2.47114091263353
0.1833260077,0.00322265692,-0.00487641728,0.0659834,0.794635804876025,0.00373441049988733,0.605613663181728,0.0420961132987299,0.0279025423297864,-0.0229894422121319,0.00597431872182798,0,0,0,-0.747104267859748,0.582646875502513,0.0773759311874241,-2.3477025298,-0.243802959482884,0.177473118252074,0.249454209543302,0.0555817553,0.620630021808439,-0.373980954816927,0.708822652109417,-0.114337491944285,-2.3846033098,-0.432271986946294,0.348876492990077,0.17780113343805,0.1644676115,0.486856124623534,9.04021446297201,4.94944106945131,-5.8964950797379,-3.95329140361789,0.222645791970803,-0.472405658544943,-0.449572194814614,0.18525664648508,-0.775341597248253,10.9628010456795,2.62933195992532,-8.616038158537,-2.7516360778744,-0.374616682283375,0.0634251636297549,-0.426363243727001,0.577761976213045,-2.65482844388052
0.1999920084,0.00366812516,-0.00527829421,0.06629455,0.791332988796078,0.0071232824999647,0.609828957096978,0.0430116585997868,0.0267291624438729,-0.0241135793304029,0.0186697460057107,0,0,0,-0.5606991681124,0.650796398861013,-0.0493961750659548,-2.3912360213,-0.24013727259004,0.169703230756206,0.240402272596627,0.0611284118,0.601640206388098,-0.166543025881661,0.729629043781162,-0.271406258386962,-2.4086880843,-0.438889459014416,0.349326270458161,0.168955257704767,0.1765627431,0.443101586425273,11.1847529051975,4.08913479515813,-7.6066303209371,-2.61211386484583,0.21995000233281,-0.466211878646285,-0.543137919505476,0.332812688529408,-1.1394344547424,12.4467730842748,1.24843338520592,-9.42450257083432,-1.44514421507254,-0.397064189978221,0.026987726460604,-0.530773752654615,0.72573689499485,-2.62537719671772
0.2166580091,0.00399941206,-0.00575334893,0.066731938,0.788034560833023,0.00993608490041637,0.613975436125729,0.0440110098018442,0.0198780082854551,-0.0285044221797015,0.0262443286708848,0,0,0,-0.347244810964721,0.696847844685914,-0.192691641218169,-2.4173335749,-0.238275153821532,0.163969369529022,0.230443289465744,0.0691220198,0.573153597141748,0.0433903413041722,0.720184200103842,-0.413327030227316,-2.4154366767,-0.444863328959152,0.348435633871171,0.159461192212865,0.191350918,0.397048184418636,12.8077732018623,2.76319716132626,-8.5980715308751,-1.56591578686299,0.111731590681359,-0.344045420998021,-0.597562865269926,0.479635645281115,-1.70926485358602,12.5965053623113,-0.566713265367818,-8.51558657622968,-0.404931724261847,-0.358446519490184,-0.0534403305881404,-0.569666692255793,0.887325949770301,-2.76331453692048
0.2333240098,0.00427116592,-0.00638663452,0.067048422,0.785414541494102,0.0116569633999125,0.617227901795365,0.0449202677996628,0.016305883150479,-0.0379986537502065,0.0189897987943806,0,0,0,-0.121453542629691,0.717596303546465,-0.328952135197932,-2.422251774,-0.239602355378316,0.162012960464725,0.22235166398745,0.078272781,0.536217669607786,0.232872561997519,0.685609307298415,-0.523055351936423,-2.4108001683,-0.448748108980294,0.345979779657534,0.15236684854243,0.2068075538,0.351569699793631,13.5480174517831,1.24495727763593,-8.17595633364897,-0.295103737755154,-0.0796352754733645,-0.117389234496814,-0.485516928983135,0.549067611643626,-2.21624420872383,11.3693875395881,-2.07457646425203,-6.58396238451536,0.278201620380345,-0.23309611532315,-0.147357140914852,-0.425677629452802,0.927435206455978,-2.72881811561458
0.2499900105,0.00448544411,-0.00700514801,0.067436026,0.782912859126648,0.0130037454004426,0.620313733621114,0.0457080901015557,0.0128572051482033,-0.037112292332977,0.0232571693099713,0,0,0,0.0831336855112692,0.708143855713928,-0.431145527581999,-2.4087311614,-0.239841280803052,0.159526288764626,0.214031641889477,0.0886871606,0.495151172396551,0.38710704819272,0.637570678839379,-0.599992996594071,-2.3936553019,-0.452555772755285,0.343376258900616,0.144504551971596,0.2235592239,0.308380695232613,12.2757242018453,-0.56716953291242,-6.13184855944874,0.811269172693591,-0.0143360983259917,-0.149206263989867,-0.499221273761987,0.624887745264525,-2.46408829271408,9.25443896058407,-2.88243288379531,-4.61644314329398,1.02873309011683,-0.228468955661956,-0.156217487553421,-0.47175664470205,1.00514036939888,-2.59144382257331
0.2666560112,0.00473012701,-0.0074839604,0.0678503,0.780367299199528,0.0143545510999913,0.623448707399623,0.0461793724999721,0.0146815606458003,-0.0287298913890001,0.0248574332533183,0,0,0,0.252683324530753,0.678795647072519,-0.491148321119931,-2.3788715646,-0.240855624531981,0.156087810683151,0.205380602620766,0.0978501392,0.458052946724765,0.509894022138987,0.586992761706429,-0.639964587806423,-2.3654160193,-0.45865191192547,0.342098698239274,0.134134291692993,0.2416949401,0.268929628904917,10.1733848492809,-1.76096288303938,-3.60031147352179,1.79164739864677,-0.0608630557016699,-0.206316928900341,-0.519083097645086,0.549800684935769,-2.22598248611533,7.36751282785359,-3.03479629236724,-2.39839130766103,1.69442466182064,-0.365782966166841,-0.0766567027290638,-0.622240480201301,1.08818645375432,-2.3671585665838
0.2833220119,0.00501028885,-0.00780204488,0.068253906,0.777896669101357,0.0158675805000277,0.626482582001093,0.0463094649000809,0.0168103821092483,-0.0190858314316524,0.0242173276759785,0,0,0,0.386431098963755,0.638130900010185,-0.51552710882555,-2.336423261,-0.242101537342629,0.151588710449342,0.196838560687821,0.1053166577,0.42841714433997,0.604032370531621,0.534252869219391,-0.649126258296459,-2.3272217421,-0.46629455178228,0.342309980384781,0.122316468011481,0.2595095158,0.234323482711692,8.02518713640768,-2.43998232055363,-1.46278571232859,2.54699998902554,-0.0747577558093171,-0.269956800962403,-0.512542996169746,0.448009011544083,-1.7782191971704,5.64852660738417,-3.16451999711234,-0.549722195201604,2.29174820567481,-0.458576715217001,0.0126774352953714,-0.709097755018828,1.06891725379563,-2.07645174245223
0.2999880126,0.00532494361,-0.00802080545,0.068598838,0.775565805090962,0.0174927925997962,0.629320555492667,0.04633921249946,0.0188800400086386,-0.0131261586950491,0.020696747000617,0,0,0,0.486356715796021,0.593581505274096,-0.520119518957476,-2.2908361858,-0.242082457045228,0.146397973181942,0.1884936888795,0.1115858805,0.407804577224099,0.673345285589172,0.488604545754664,-0.635215987268801,-2.2855305969,-0.471427186470731,0.342204152887068,0.111932784827091,0.2741179217,0.203861876524216,5.99577658917691,-2.67307049471615,-0.275555618567001,2.73533381046842,0.00114486359052086,-0.311456681230051,-0.500712315962014,0.376168398936885,-1.23680344714441,4.15894108642099,-2.73900885319936,0.834649612588664,2.50156866968089,-0.307970387187807,-0.00634990359220018,-0.623045886730894,0.876539378760497,-1.82776940525844
0.3166540133,0.00566906235,-0.00809753294,0.068849536,0.77329509353171,0.0192863266007909,0.632068475025919,0.0461755217018935,0.0206479494507642,-0.00460383335997336,0.0150424810674581,0,0,0,0.55724386293529,0.549473056877574,-0.508779007757027,-2.2497437761,-0.240030939141177,0.139924990758673,0.180232845923183,0.1154832006,0.401259907393434,0.722381301334376,0.459837101086127,-0.604661222904793,-2.2482798057,-0.475922982581185,0.342755894710858,0.101854619612826,0.2855986975,0.176886393594612,4.25339878566485,-2.64661265713989,0.680457861762213,2.46564310416716,0.12309599291273,-0.388394464862166,-0.495670383376182,0.233848550120366,-0.392695881181913,2.94227851227707,-1.72611565224144,1.83335911920421,2.2351367835956,-0.269758545639215,0.0331058322702244,-0.604714076020973,0.688874074030251,-1.61859365154139
0.333320014,0.0060803148,-0.00813904273,0.069084232,0.770747909420671,0.0211324185005668,0.635107517817033,0.0462549654012405,0.0246761330089227,-0.00249068692286815,0.0140823227014509,0,0,0,0.603126357840098,0.514449677010318,-0.487981057312921,-2.2147546276,-0.237210648173913,0.133465598634566,0.170105150079555,0.1174100442,0.406066820555073,0.746835608917022,0.440436329031915,-0.571056902875558,-2.2168367855,-0.481866642506545,0.343404977180194,0.0917618583081768,0.2916584808,0.154651783698148,2.75305970104803,-2.10148676324345,1.24792689130905,2.09943279913578,0.169224219897257,-0.387579014328692,-0.607686032536179,0.11561523575359,0.28842631463704,1.46731708601486,-1.16409283807436,2.01633977065862,1.8866565990244,-0.356633845896784,0.0389465043845978,-0.605589876439238,0.363601526789808,-1.33412990295045
0.3499860147,0.00653419627,-0.00814844205,0.06933493,0.767791441388584,0.0228932491996596,0.638602776590505,0.0464617627993092,0.0272339764152296,-0.000563981735582126,0.0150424810674581,0,0,0,0.626881948044709,0.494077176366532,-0.461349804408892,-2.188037183,-0.234716438381389,0.12724626544356,0.157771520646316,0.1174013175,0.418250882016786,0.757339096134801,0.427912012065431,-0.536404236808902,-2.1927382774,-0.488043568402087,0.343427184541649,0.0808418202139574,0.2929884217,0.137101617894613,1.42539236810487,-1.22239888324171,1.5979390246893,1.60311073309867,0.149658567608444,-0.373174902783076,-0.740047336805783,-0.0005236229229241,0.731072899913673,0.630234415973523,-0.751489045988369,2.07924304639305,1.44596826399988,-0.370630363380612,0.00133249493109755,-0.655228467272256,0.07979964263412,-1.053052026065
0.3666520154,0.00704666473,-0.0080745553,0.06959274,0.764748436976137,0.0242742791992425,0.642177587479961,0.0466747645985435,0.0307493362819791,0.00443338214908392,0.0154692181190183,0,0,0,0.635781950426328,0.487367161303649,-0.431464152921295,-2.1655384024,-0.233087161980179,0.121679796058832,0.144439750582266,0.1159212783,0.433470946163159,0.759973181758762,0.42474873430243,-0.504891126739688,-2.1705298594,-0.494206494609305,0.342636256912626,0.0695598095328439,0.2892726156,0.127467263394146,0.534021481327506,-0.402616991542734,1.79321074237066,1.34998077853194,0.0977604903862929,-0.334001509115997,-0.799938167772347,-0.0888059005061727,0.913240340039914,0.158051452857637,-0.189804249978265,1.89086215922296,1.3325583263656,-0.369790348515815,-0.0474575540503046,-0.676947690342626,-0.222957274926791,-0.578084369123236
0.3833180161,0.0076047951,-0.00788870453,0.06990389,0.761386478360386,0.0252783295986848,0.646125079966383,0.0466263622975741,0.0334891603598697,0.011151491791309,0.0186697460057107,0,0,0,0.626856719305093,0.490650182171107,-0.398978880398543,-2.1429495391,-0.232581964898573,0.116091526863295,0.129678592050375,0.1131427141,0.453203917362585,0.748284747536002,0.43752374389112,-0.472339424250217,-2.1506133195,-0.499781585649108,0.341126829868692,0.057183562421951,0.2825984765,0.124880326053551,-0.535535266192307,0.196989123338855,1.94919423726848,1.35538595651206,0.0303130361446873,-0.335309550031213,-0.885704902909975,-0.166720513818291,1.1840255832598,-0.701334077272627,0.766531204375244,1.95318019454247,1.19504014541414,-0.334518829091531,-0.0905692416017944,-0.74260449964417,-0.400464347754409,-0.15522244281405
0.3999840168,0.00816501742,-0.00762066837,0.07030394,0.758281248589593,0.0258871340996447,0.649772804591082,0.0462028866993659,0.0336146823754784,0.0160828122370113,0.0240039591501997,0,0,0,0.602844237157364,0.501526333108429,-0.360196928020367,-2.1166513656,-0.232220376442435,0.110577865969079,0.115447618187851,0.1105317016,0.474340529666481,0.728873112038432,0.463512054246035,-0.439148404081926,-2.1353429801,-0.503963597866253,0.339477415351121,0.0454509786856387,0.2759103748,0.125309176851645,-1.44080650060986,0.652595132635622,2.32701012536114,1.57795346186442,0.0216961743039619,-0.330832873072947,-0.853892551590007,-0.156667010100389,1.26824741486397,-1.1647446707218,1.55936093023896,1.99154078808427,0.916256975796252,-0.250930759720002,-0.0989688256506055,-0.703983153937604,-0.401302137230796,0.0257320760879048
0.4166500175,0.00868068915,-0.00736653806,0.070764442,0.755760571678125,0.0258290575992524,0.652744603981107,0.0456431818986789,0.0309415401620617,0.0152484278966819,0.0276312240884522,0,0,0,0.562551364230038,0.519133460102583,-0.303744936750864,-2.0871896918,-0.231727868027051,0.106436530678471,0.10279140855035,0.1090010479,0.494643882740897,0.720781136792376,0.483622443967541,-0.421514304958648,-2.1312240777,-0.505959490419443,0.336801980269371,0.0358272780737873,0.2701246085,0.126899397597731,-2.4176689808567,1.05646983407089,3.38725482409843,1.76777106459621,0.0295516857493046,-0.248490046601762,-0.759402922472048,-0.0918428918582734,1.21824986329298,-0.485537915887362,1.20667159947414,1.05808822648608,0.247144019380707,-0.119758338495122,-0.160532519463383,-0.577445110262799,-0.347159849813282,0.0954170574399779
0.4333160182,0.00910836584,-0.00711943799,0.071232056,0.753944475173264,0.0248124459991201,0.654919717676776,0.0450803091984014,0.0256616267872832,0.0148265966411486,0.0280579611400115,0,0,0,0.512094633180204,0.539508061388731,-0.240095874147354,-2.0581321054,-0.230797835723719,0.104461732236364,0.0923450370702432,0.1093937469,0.5112038241982,0.714881439567319,0.502971990228456,-0.409592663328557,-2.1252888015,-0.5044321318601,0.332492557317083,0.0295315529979837,0.2654052381,0.129139216198629,-3.02752483682748,1.22252492681989,3.81909635966295,1.74352485176603,0.0558041680229039,-0.118492641255368,-0.626807334773876,0.0235628815256206,0.993636191153096,-0.353995978474755,1.16101916765882,0.715327080844921,0.356130802274611,0.0916451755184997,-0.258575709305471,-0.377758599026312,-0.283173539048272,0.134394486188764
0.4499820189,0.0094402763,-0.00685674507,0.071706782,0.75308620472645,0.0229027474008044,0.656018168523041,0.0444611626015616,0.0199154233804875,0.0157622050261885,0.02848469819157,0,0,0,0.478764420686444,0.561357699779607,-0.193247401867209,-2.0426625805,-0.230673885688212,0.10493851801191,0.0849882924088422,0.1110936976,0.52478665979746,0.715000937184583,0.522494541211439,-0.399389609641933,-2.1168714491,-0.500103152059828,0.327524275174223,0.0271031458551819,0.2621467085,0.131214050731973,-1.99989266133657,1.31103068961685,2.81102065957219,0.928208583358566,0.00743729931000072,0.0286082896628264,-0.441422318037043,0.102001117760663,0.815002701833599,0.00717014354045807,1.17139986577483,0.612207683792089,0.505061325240432,0.259749167073566,-0.298108840404681,-0.145710250858315,-0.19551958857172,0.124495046573693
0.4666480196,0.00967675093,-0.00653223256,0.072145948,0.752935063571498,0.0202918187992319,0.656311804475156,0.0439527864983361,0.0141890447658508,0.0194715286433415,0.0263510129337751,0,0,0,0.466972978821607,0.583047679766008,-0.163604212650825,-2.0367718898,-0.230462583282609,0.107339879991229,0.0803831453100014,0.1138425911,0.534484815492706,0.709868886449636,0.545346322447422,-0.384144272555931,-2.0996829473,-0.493990919342264,0.322043000788127,0.0276964063113382,0.2602565168,0.133742999841793,-0.707514782765909,1.3014508025552,1.77866242477624,0.353455565377497,0.0126786509497075,0.144087476206527,-0.276319867119698,0.164940200680539,0.58191259377815,-0.307935348577521,1.37116166303672,0.914756777011403,1.03135131873601,0.366748617595082,-0.328889604936579,0.0355970497562933,-0.113416033877881,0.151743009936374
0.4833140203,0.00976869551,-0.00620231017,0.072522884,0.753550987702031,0.0172017525000464,0.655724937301768,0.0434720053001172,0.00551689524410013,0.0197961344139389,0.0226170637326323,0,0,0,0.462163008722403,0.605904944527799,-0.14153679260475,-2.0301984539,-0.232239774848474,0.11207542061091,0.078848636941073,0.118321106,0.537451623576497,0.69505140265303,0.572258798187348,-0.359921593364111,-2.0743445354,-0.487135419846286,0.316843240887524,0.0311616590783335,0.2597207007,0.136607504370131,-0.288609738220168,1.3714906877324,1.3240981110768,0.394421914310828,-0.106635754903403,0.284143790998443,-0.0920741812358365,0.268721631578954,0.178015598174753,-0.889084553836967,1.61481306909618,1.45341882721868,1.52036546476324,0.411346406338369,-0.311998060854689,0.2079234742259,-0.0321502506597177,0.171877139567045
0.499980021,0.00970072775,-0.00587589485,0.072794918,0.755134480805888,0.0138187523001078,0.6540177123051,0.0429160806003347,-0.00407822855785676,0.0195857018054728,0.0163226922221361,0,0,0,0.452130711031613,0.631696222285469,-0.118724759790499,-2.0135285969,-0.237251224088348,0.119174803198138,0.0815817789736777,0.1237857318,0.535258335116986,0.679612674462693,0.599225900138118,-0.331175390332406,-2.0499166652,-0.480863503465067,0.313109694656239,0.0375911602109488,0.2606719052,0.138838093511484,-0.601961914641572,1.54753850200364,1.36877666243296,1.00023138724578,-0.300698969721846,0.425979976541601,0.163995074871483,0.327890649854588,-0.131602566145995,-0.92636070694132,1.61809077271728,1.72484110310313,1.46573077967048,0.376330020268146,-0.224021725337182,0.385785483173255,0.0570745505848938,0.133840696487706
0.5166460217,0.00950251148,-0.00547865766,0.072930046,0.758011911722829,0.010493674700316,0.6508030809196,0.0419901696012646,-0.0118934514385325,0.0238351838062745,0.00810800397962291,0,0,0,0.434302083242471,0.659363635202423,-0.0905040728425101,-1.992705067,-0.242192396669613,0.126655172054839,0.0907052276410027,0.1279780128,0.530937261944129,0.664287850046775,0.629216968043555,-0.298719877533037,-2.0251735565,-0.474819913531689,0.312281722805233,0.0476742389743416,0.263750666,0.137807676487808,-1.06976041283508,1.66011110973695,1.69330887811548,1.24946171999142,-0.296482201711718,0.448840066153401,0.547428794199261,0.251546911311483,-0.259274750471927,-0.919526207383287,1.79953598018488,1.94740858251429,1.4846458454787,0.362629885967617,-0.0496802961856466,0.605008900749222,0.184733029562397,-0.061827491923498
0.5333120224,0.00918238818,-0.00506823947,0.072851814,0.762108929799252,0.0073279553999928,0.646118060299365,0.0408378787999599,-0.0192081655198779,0.0246260754087212,-0.00469410756715002,0,0,0,0.413581119063548,0.686906821182537,-0.0571732998912618,-1.9731668103,-0.242894394221998,0.133093343300155,0.105898656224869,0.1318892957,0.520025947610796,0.647690526149495,0.662554121059376,-0.262788909821479,-1.9991378557,-0.468412985110897,0.313770057948091,0.0616830239713824,0.2681174797,0.132315768071924,-1.24330753081768,1.65265719568306,1.9999262901296,1.17234224645148,-0.0421215362354454,0.386305710722568,0.911642142428722,0.234686351597236,-0.654705020703193,-0.995879227178964,2.00030910930067,2.15594420991221,1.56220447056624,0.384431066344068,0.0893036769677983,0.840560686946378,0.262019291766859,-0.329527672219742
0.5499780231,0.00874702829,-0.00461076826,0.072572668,0.767092622309764,0.00459345470005846,0.64030417750815,0.0394761857005024,-0.0261226372083375,0.0274493694219034,-0.0167494292736954,0,0,0,0.385231944162019,0.713988924178895,-0.0158743906000908,-1.9501552795,-0.242350233654379,0.13868143503118,0.124490487592681,0.1376122302,0.501085678114961,0.627532816776374,0.698565829816541,-0.224952037060792,-1.9721876288,-0.46228886242201,0.317643025850994,0.0783024401069974,0.2736082856,0.123362007094257,-1.70101846338755,1.62499111117632,2.47803357473584,1.38074701988942,0.0326509387233242,0.335298901734999,1.11555445739371,0.343389791169275,-1.13646158048195,-1.20951089202349,2.16078886623144,2.27030308241175,1.61707822921188,0.367462044381617,0.232387359908293,0.997204814446877,0.329461518623362,-0.537247125980659
0.5666440238,0.00816624284,-0.00408181963,0.072172618,0.772821556672311,0.00190820829993163,0.633493170677303,0.0378100910986452,-0.0348485194771413,0.0317381859944359,-0.0240039591501997,0,0,0,0.348887565158837,0.742063190934155,0.032436271761556,-1.9230938538,-0.243699713537153,0.144595299816076,0.145435577982324,0.1448693093,0.475755819149917,0.602055844764212,0.736159771861199,-0.185069041186124,-1.9455740235,-0.455565435894513,0.323061331403857,0.096906756733819,0.2810276802,0.111952101508098,-2.18074987859457,1.68452331549825,2.89875557017388,1.62375042381943,-0.0809720284467098,0.354846066032845,1.25675564082046,0.435442145397246,-1.51985226815954,-1.52867940370129,2.25572665700521,2.39307537498594,1.59688012613607,0.403421711574546,0.325111323970079,1.11630360286866,0.445181464560962,-0.684621691283113
0.5833100245,0.0074388006,-0.00353882914,0.07173523,0.779050892202722,-0.00102467990000358,0.625939433902187,0.035755873300125,-0.0436482784979122,0.0325807312608597,-0.0262443286708848,0,0,0,0.30564762913442,0.771993867994988,0.0876887924768787,-1.8913151537,-0.249066267310492,0.151686787993101,0.167548639938871,0.1536884579,0.444257523843336,0.56863579992438,0.774458544324139,-0.140424517332958,-1.9160685021,-0.447521618833011,0.329012519948085,0.116577132992738,0.2910476154,0.0994375091860155,-2.5944998324893,1.79591238471705,3.31528371502605,1.90679819784239,-0.322006093119806,0.425506293001988,1.32683673513507,0.52917006057728,-1.88997323794552,-2.00528281748077,2.29801817198651,2.67877846982005,1.77040202572415,0.482648309351277,0.357085581079308,1.1802697367533,0.601220135554176,-0.750905544008659
0.5999760252,0.00661955504,-0.00305727723,0.071310288,0.785389688304673,-0.00383392220002282,0.618058135303678,0.033948194800202,-0.0491566978033308,0.028894269157207,-0.0254975388306565,0,0,0,0.255610993145332,0.800342377156721,0.149271657045731,-1.8550641349,-0.257646251462595,0.160228239533218,0.188954056880085,0.1653769279,0.404165226848227,0.52236159003155,0.812525782357473,-0.0869849476222759,-1.8801596768,-0.439586564477278,0.334741495332331,0.136088179565703,0.3035930421,0.0870634902994209,-3.00231812597298,1.70097851740355,3.69511952371707,2.17514804256547,-0.51481962028856,0.51250757118453,1.28437633758259,0.701336223992839,-2.40563394402768,-2.77656353949571,2.28412555108882,3.20650230806016,2.15461561213063,0.476122286238313,0.343752258707546,1.17070957359105,0.752755680611484,-0.742470800843937
0.6166420259,0.00576021215,-0.00267459892,0.071045366,0.79169555459351,-0.00664739549994552,0.610006489095,0.0326503327997324,-0.051562633739719,0.0229616161002561,-0.0158959551705776,0,0,0,0.198536652679364,0.824419541073957,0.213822343066574,-1.8145568045,-0.269376546725482,0.171044878658599,0.208309931298952,0.1797549504,0.359969455869554,0.463715530839715,0.849194867162368,-0.0234164752879676,-1.8393559418,-0.432241063411383,0.339716657870747,0.155295766917394,0.3170146241,0.0771024353813176,-3.42459726801567,1.44468756185978,3.87319592641339,2.43053694339519,-0.703845840045313,0.649024281235113,1.16139887230815,0.862715822398832,-2.65185222143145,-3.51890415988253,2.20023300520414,3.81426075028956,2.44832193004767,0.440747675349318,0.298521680634272,1.15250129274809,0.805327099260231,-0.597687177470438
0.6333080266,0.00487517877,-0.00228872791,0.07109515,0.797959634008901,-0.00900155050010042,0.601813921906713,0.0316132564003527,-0.0531041247346162,0.0231531857549964,0.00298715936091441,0,0,0,0.136053188097466,0.840892623734803,0.278479436229749,-1.7695436439,-0.278031595259247,0.180852339663678,0.22598850801401,0.1967073334,0.315300271843537,0.396367785745636,0.883826375837626,0.04829385694573,-1.7955780021,-0.425384635652729,0.345021952572962,0.173099712626845,0.331438025,0.0692341394259487,-3.74915768375665,0.988424455115152,3.87958061007253,2.70089755846464,-0.519323663160871,0.588471174435932,1.06075698863121,1.01718362462327,-2.68025813931574,-4.04102617696867,2.07797355218266,4.3027918649792,2.6267813429289,0.411402104324526,0.318330401979107,1.06827942887648,0.865438635196988,-0.472116622158122
0.6499740273,0.00400744918,-0.00191214443,0.071505868,0.804310369409854,-0.0108363146001328,0.593313797707269,0.0307594115003769,-0.0520658558474679,0.0225959116874392,0.0246440647275386,0,0,0,0.0697654411984142,0.851737033980495,0.34484678186209,-1.7209921492,-0.283748341085848,0.189451330023778,0.242619701747898,0.2146842246,0.274243841218723,0.322209701403577,0.914203910338119,0.127196347958363,-1.7483675507,-0.419169265162385,0.350913940250598,0.189400113839385,0.346858009,0.0625753380901108,-3.97742374384104,0.650690615037092,3.98219985868243,2.91320608788887,-0.343018455927507,0.515960038337171,0.99791149858092,1.07865657295934,-2.46348427339345,-4.44966286015216,1.82272490247124,4.73433863546115,2.8327402746359,0.372937131242526,0.353533387145226,0.978063154199886,0.925236010580511,-0.399544045131228
0.666640028,0.00315653296,-0.00153691209,0.072177952,0.811011143580962,-0.0124044540997088,0.584143137086287,0.0297296131993021,-0.0510570133361389,0.0225148400479787,0.0403266513723349,0,0,0,0.00293508831414634,0.857574596218848,0.411768892700438,-1.6689245308,-0.286449218015741,0.196816962780708,0.260053627802071,0.2318931711,0.240792309768186,0.238707288148418,0.940435172081048,0.217141620508831,-1.6949536439,-0.413496128929613,0.358064977456673,0.205392130683955,0.3624350725,0.0540720781728721,-4.00998140389301,0.350267730299139,4.01548710113447,3.12418194006196,-0.16205909135073,0.441955625078679,1.04607736240962,1.03257804975371,-2.00717208961455,-5.01034499867498,1.57393859601418,5.39693200363709,3.20496247189046,0.340401775740488,0.429079377518235,0.959559352746833,0.934661157190518,-0.510215982244541
0.6833060287,0.00229862115,-0.00116450194,0.07316652,0.818103701436646,-0.0138537200006206,0.574202031025721,0.028397811601272,-0.0514767655085962,0.0223455018815642,0.0593164501667155,0,0,0,-0.0632513378165034,0.858228301733137,0.478592477152333,-1.6132432605,-0.287655390167234,0.203573956834325,0.278327154820632,0.2486448414,0.21304076496294,0.146091027773044,0.962840007904812,0.319700587184589,-1.6375160046,-0.407138710210008,0.365973443025386,0.221511646857042,0.3776857595,0.0426575614180499,-3.97134425481272,0.0392238981658632,4.0095752817228,3.34100971806632,-0.0723732209787599,0.40543584362244,1.09645543327992,1.00514038139936,-1.66515922474705,-5.55719767702721,1.34434386671806,6.15378389344231,3.44639606909413,0.381460365569577,0.474526895268461,0.967209618147155,0.915077784678119,-0.6848983724585
0.6999720294,0.0014061418,-0.00078705767,0.07440223,0.825445235911989,-0.0147794789002147,0.563642272708186,0.0270021838003922,-0.0535509007868937,0.0226475611512485,0.0741455627083956,0,0,0,-0.129263117219678,0.853458926428039,0.545944899354161,-1.554741363,-0.287482637878165,0.209622298471339,0.296930501691109,0.2655134485,0.187781300307628,0.0475173018501799,0.980919366476806,0.432218301097584,-1.5776173844,-0.401019903238682,0.37524629397654,0.237700389073278,0.392477425,0.0291722361176283,-3.96086503243547,-0.286173953244698,4.04130681464737,3.51025411273384,0.0103655515308841,0.362914999578419,1.11624541516291,1.0121568697642,-1.51562844079996,-5.91465989335187,1.08480486095228,6.75133260452793,3.59406082348237,0.367143088583063,0.556393289432308,0.971363346710757,0.887535394139279,-0.809151850114924
0.7166380301,0.00045176817,-0.00040069099,0.075737508,0.83303259706569,-0.0149684360993835,0.552410437677248,0.0259874294989296,-0.0572647059831217,0.0231829271434028,0.0801198814302219,0,0,0,-0.193574906432751,0.843877360035101,0.614010658637184,-1.4939343325,-0.282616668803465,0.213519823964388,0.317428218575751,0.2810940026,0.164983061862926,-0.052222357319259,0.994274699322497,0.551046974705373,-1.5171092895,-0.394579862809196,0.385303321286402,0.255397300402258,0.4054556932,0.0127878909508498,-3.85886154517397,-0.574916956108009,4.08410874979879,3.64856761946493,0.291969811011665,0.233860874195763,1.22991215790849,0.934870601559496,-1.36794896718698,-5.98461868355969,0.801351991164304,7.13000531721976,3.63063076674418,0.386417866254259,0.603445751077053,1.06185710942517,0.778727208381794,-0.983099992716217
0.7333040308,-0.00051439528,-0.00013295877,0.077163464,0.840740837632461,-0.0144702286005587,0.540627811020874,0.0258268537009972,-0.0579721234501088,0.0160645751082922,0.0855607788376012,0,0,0,-0.256615791452167,0.829712316015281,0.683025979120304,-1.4293861831,-0.272852525808234,0.215736661380912,0.339552554878206,0.294655211,0.143951972109508,-0.147335071756806,1.00246237243734,0.670444693777722,-1.4594006628,-0.386254083467807,0.393807921103928,0.275786961506703,0.4155960562,-0.00841648475304152,-3.78260424646542,-0.849936602955974,4.14108469844962,3.87304372308109,0.585871989986868,0.133015560027178,1.3275132229207,0.813705018025108,-1.26191580883694,-5.70699090619544,0.491280017457439,7.16414940942307,3.46265596280696,0.499566722170438,0.510296379474284,1.22342855202482,0.608446092288955,-1.27231338133157
0.7499700315,-0.00147635068,5.377386e-05,0.078850786,0.848129009924529,-0.0134880338003901,0.528953169315298,0.0265292318007672,-0.05771963036099,0.0112044055056352,0.101243365482397,0,0,0,-0.318080030222385,0.811772266253447,0.751282039570724,-1.3618717356,-0.258929298299663,0.215895438645973,0.360982588150036,0.3074240398,0.1230835463747,-0.233225427922036,1.00287210150291,0.780605872506024,-1.4048721579,-0.376360668616535,0.399803456095388,0.296906158021623,0.4230503575,-0.0319201824889927,-3.68800169138467,-1.07644599833921,4.09552727610404,4.05102872100564,0.835427032507625,0.00952701658419865,1.28585337643897,0.766160342234956,-1.25215557772108,-5.15362729855343,0.0245847262909074,6.60993484347458,3.27184103022388,0.593628611288359,0.359746474237207,1.26720242576971,0.447275950252418,-1.41027821605403
0.7666360322,-0.00248608934,0.00021445095,0.080842146,0.855039037122289,-0.0122080256003182,0.517673269713495,0.0278135746007251,-0.0605867405249779,0.00964101063550298,0.11948637443655,0,0,0,-0.376269104876981,0.789892250979298,0.816852568468508,-1.2916996649,-0.242572943745712,0.214202280322694,0.380738254673662,0.3202487193,0.100807575068169,-0.312308362414459,0.997466158397297,0.88409253613027,-1.352497447,-0.365183545153815,0.403494831650225,0.317674260257967,0.4270803227,-0.0559743901278433,-3.49148399199312,-1.31285337544413,3.93438894418047,4.21049248485871,0.981420488836917,-0.101593558872175,1.18538735712557,0.769511518141241,-1.3366116867216,-4.74516567687547,-0.324369547495295,6.20944793457534,3.14260822633952,0.67065420576399,0.221491383642971,1.24613592728003,0.24180757414705,-1.44331013011722
0.7833020329,-0.0036337329,0.00035067417,0.083267338,0.861139382049142,-0.0104920308993804,0.507406991270033,0.029445325298261,-0.0688613651624291,0.00817371980549599,0.145517334581656,0,0,0,-0.430608229383762,0.76378453342048,0.878438447577385,-1.2192465562,-0.225114493277047,0.210327079289642,0.396802505565062,0.3340787081,0.0762761290751531,-0.385716719745744,0.987426182508695,0.98068923464334,-1.3012783795,-0.350835394282889,0.404052437562229,0.336985340641591,0.427511419,-0.0727236349896521,-3.2604777525769,-1.56652564876097,3.69530040334617,4.34736023382022,1.04754888607832,-0.232521353071339,0.963893568743234,0.829832486446495,-1.47194557558229,-4.40467744197834,-0.60242262491935,5.79603350869112,3.07326685159685,0.860923453034853,0.0334576916226412,1.15871112279649,0.0258668115860567,-1.00499484929271
0.7999680336,-0.00490499975,0.00052785551,0.086099692,0.866442664915456,-0.00884141840015771,0.498212066608887,0.0313635843005595,-0.0762790589586379,0.0106313052056934,0.169948030783414,0,0,0,-0.480617602125474,0.734155735469972,0.933818852244671,-1.1446244632,-0.208428282893019,0.205728046511442,0.408913292182884,0.3487237659,0.0495612828797605,-0.451402324937169,0.972042977044031,1.06760434488396,-1.250748822,-0.336711072811379,0.402397223561201,0.352794115857846,0.4255339611,-0.0828293491909139,-3.0006822657647,-1.77779891431949,3.32295705875527,4.4775044921245,1.00121262949592,-0.275952993221725,0.726676233598292,0.878738580636203,-1.60295482259236,-3.94129379770305,-0.923029210281017,5.21511500000228,3.03189459844436,0.847493152421974,-0.0993168085627148,0.94856441571221,-0.11865221510521,-0.606367081291545
0.8166340343,-0.00627247789,0.00079230172,0.089340986,0.871053280691824,-0.00743853439993018,0.489994521495401,0.0334098683996864,-0.0820519670324987,0.0158674066298341,0.194485411248063,0,0,0,-0.525681704442166,0.700827358213997,0.980902972256727,-1.0665455444,-0.193385708986941,0.200970444849937,0.417342238388274,0.3642310163,0.0208650336190323,-0.506556274854896,0.951173403035847,1.1412490971188,-1.1995847367,-0.326145295478658,0.400528373508815,0.363621260865806,0.4226960556,-0.0900700543630311,-2.70395418360276,-1.99978254266934,2.82516008847021,4.68492232812638,0.902590500075893,-0.285467506400905,0.505756981360873,0.93047220380832,-1.72184375707653,-3.30936923083936,-1.25222447687673,4.41886170296659,3.06996778777286,0.633971972215377,-0.112135483852782,0.649654659378466,-0.170281134093557,-0.434459670466544
0.833300035,-0.00779908759,0.00110507208,0.093058784,0.874922630364803,-0.00605269839975651,0.482914726480573,0.035596666498568,-0.0916002421624763,0.0187669714906468,0.223076793702522,0,0,0,-0.564836648071165,0.664745192629506,1.01747282703302,-0.9896342464,-0.180353632286087,0.196145736093536,0.421273839199168,0.3814347268,-0.0100328913687668,-0.550106533752035,0.925708583548319,1.19927046069047,-1.1460284129,-0.316867109656125,0.397467579437518,0.369949305594024,0.4253367388,-0.0999512372242618,-2.34939049468536,-2.16501644479654,2.19427896557654,4.61486228066702,0.781955847442997,-0.289494092989013,0.235905474964582,1.03226387720001,-1.85394957938524,-2.61311994887524,-1.52795022308665,3.48142092491714,3.21350783334601,0.556713394505763,-0.183654982763621,0.379697855660024,0.158447323238142,-0.592894662558769
0.849966035700001,-0.00954901493,0.0014606074,0.097295758,0.878020003196275,-0.00448586099998097,0.477129578997976,0.0375248701998408,-0.104999835983446,0.0213329716228801,0.254228598466338,0,0,0,-0.597432915319869,0.627271972511582,1.04209924863465,-0.9168160172,-0.169923675853649,0.190830670661525,0.420295415405016,0.400762503,-0.0428706900434462,-0.582306437444972,0.896318185159503,1.23828897033905,-1.0886450473,-0.307772486627737,0.39375502105621,0.371627415289954,0.4349360497,-0.11548070933593,-1.95585418694384,-2.24848305196129,1.47764433981028,4.36926833922429,0.625822392557455,-0.318916669192935,-0.0587077734943316,1.15971291180853,-1.97034665159227,-1.93207142328619,-1.763494369037,2.34120412874984,3.44313951696882,0.54569918675142,-0.222762404018638,0.100690605150962,0.575981669075532,-0.931805559786638
0.866632036400001,-0.01152361651,0.00176481781,0.102071466,0.880373769581306,-0.00309261329993433,0.472653681889964,0.0391274656991691,-0.118480829056967,0.0182533539675178,0.286553930121939,0,0,0,-0.624477568054323,0.589787032667303,1.05530938105889,-0.8476417154,-0.163590151736455,0.186513582596685,0.414132571112861,0.4224342563,-0.0774058535996084,-0.605146869939538,0.862962483839918,1.25854476415134,-1.0265644677,-0.29674811386452,0.388346611586979,0.369539402068642,0.4516877199,-0.137893356210138,-1.6227440056722,-2.24918626364143,0.792639617748084,4.15062395863214,0.380026632135764,-0.259035634436264,-0.369785433415653,1.30035715767131,-2.0721926140422,-1.37048071134223,-2.00142205199742,1.21539619353796,3.72498361889544,0.661488797562376,-0.324517535225522,-0.125285799448646,1.00514037539912,-1.34481254847229
0.883298037100001,-0.01369127214,0.00198301047,0.107396576,0.882060266691895,-0.00197984499998181,0.469377348595687,0.0406284476996267,-0.130064534918686,0.0130920827334419,0.319519367354881,0,0,0,-0.647982526208726,0.552203025345822,1.05906472120206,-0.7810235657,-0.160713244155175,0.183286671609045,0.403011620445563,0.4463627202,-0.111766112038315,-0.624543977005435,0.827705088202862,1.27010418759338,-0.963110448,-0.285322056730827,0.381626202548162,0.363897920051569,0.4734449944,-0.162713160373385,-1.41035384418307,-2.25513054979539,0.225329412303085,3.99724870406372,0.172621352480823,-0.193622396022147,-0.667283703360086,1.43576520430604,-2.06169788764656,-1.16387292998834,-2.11552827050198,0.693593121116359,3.8073933178222,0.685590822859679,-0.403240655019136,-0.338502446905203,1.30548863471486,-1.48924775715671
0.899964037800001,-0.01598333198,0.00219032996,0.113303092,0.883120660985297,-0.00100475919998327,0.467259770392221,0.0420142305993005,-0.13752908578721,0.0124396664641926,0.354405121319837,0,0,0,-0.668405955279725,0.514245998403071,1.05337125621745,-0.718157205,-0.159799637609871,0.180257825594092,0.387295341268075,0.4726753041,-0.142106391744058,-0.643493674823577,0.792151112877253,1.27847758323892,-0.9006899149,-0.277064112557151,0.375511730598244,0.352952645017831,0.4965199924,-0.18240994911812,-1.2254547109793,-2.27751262141436,-0.341621549590498,3.77213236886519,0.0548185831591647,-0.181738022785047,-0.94301443161997,1.57881812041446,-1.82048952546505,-1.13702730242547,-2.1333237628875,0.502423814583174,3.74538164395973,0.4954964494677,-0.366882976905044,-0.656742744150813,1.38455520405684,-1.18185454922818
0.916630038500001,-0.01840314847,0.00241524899,0.119762566,0.88359375028563,9.93487999983826e-05,0.466220879092418,0.0435908990992911,-0.145194791093463,0.0134956810604238,0.387583927078559,0,0,0,-0.686640233014433,0.475652783218969,1.03931118240097,-0.66072534,-0.157850206623964,0.175924070698999,0.367024663098777,0.5017856507,-0.17130966563338,-0.660894198346288,0.757797116144638,1.28174281594543,-0.840702421,-0.273476223330041,0.370904458816795,0.336198744173642,0.5193314456,-0.199783422392586,-1.09410038214558,-2.31568544120497,-0.843638139081695,3.44604959724981,0.116970533062987,-0.260035684211454,-1.21628929064535,1.74669059026261,-1.75226645042219,-1.04407313043678,-2.0613221702682,0.195921791033707,3.59939345856382,0.21528195586295,-0.276447353170317,-1.00527421939861,1.36874188418821,-1.04245005068711
0.933296039200001,-0.02097216408,0.00256641994,0.126823004,0.883391667047585,0.000932539399944667,0.466424159672325,0.0454620306973025,-0.154147096009662,0.00907061944381177,0.423643207935302,0,0,0,-0.70313441709409,0.438347946873154,1.01776369799587,-0.6130855752,-0.15380381420225,0.170437294528517,0.341292873738185,0.5347514296,-0.203933689656189,-0.676803352989293,0.724605753242957,1.27865135560998,-0.7839476906,-0.27353317621828,0.366325914726979,0.313381192929327,0.5440034201,-0.215786031661323,-0.989690590836027,-2.23837962192183,-1.29290072603303,2.85850010794732,0.242793246835379,-0.329219725190743,-1.54396905555102,1.97802577195379,-1.95751965993906,-0.954587421984549,-1.99156135290937,-0.185495032137703,3.40541989776828,-0.00341730984321226,-0.274723622795437,-1.36910778146762,1.48037762292906,-0.960194923592942
0.949962039900001,-0.02369173002,0.0026270293,0.134384838,0.882712069725471,0.00118440550003418,0.46750747771349,0.0474842861013702,-0.163180476765491,0.00363670691553493,0.453728170070219,0,0,0,-0.717671209022421,0.403839514097359,0.990162737414826,-0.5778778375,-0.149141672010792,0.165370067545704,0.311281334159392,0.5698412742,-0.236656392454303,-0.69145327610977,0.692464834201343,1.27137121525242,-0.730774606,-0.276345455020293,0.361227201655273,0.285495145108001,0.5711939044,-0.231342626619483,-0.872242368760432,-2.0705887031311,-1.65612381025795,2.11254867521996,0.27973970932682,-0.304045768029541,-1.80076432966869,2.10547480656232,-1.96344062304729,-0.879030511529758,-1.92853220278658,-0.436825876141384,3.19051256250097,-0.168743470772383,-0.305935008853441,-1.67322972819304,1.63149424924721,-0.933432995605237
0.966628040600001,-0.02656213672,0.0025373096,0.142346722,0.881844880011848,0.000252644100003393,0.468933975606301,0.0495022251006652,-0.172231284017647,-0.00538339710978174,0.477732129220421,0,0,0,-0.731307892190503,0.373657445725469,0.960867897051639,-0.5532846298,-0.145763853771792,0.162828200370567,0.278226171484954,0.6059503911,-0.267464809635466,-0.703148312894844,0.660292197109889,1.25908629474303,-0.680354352,-0.279290985655835,0.353795622560567,0.254442593392839,0.6010844131,-0.246892118489588,-0.81823368506654,-1.81099646611023,-1.75776065839164,1.47565142607968,0.202677192915291,-0.152518124827445,-1.98338901272445,2.16663358834493,-1.84857889638534,-0.701730246841663,-1.93043536182342,-0.737124684591854,3.02533612638093,-0.176738900265496,-0.44591256345659,-1.86322755375631,1.79350218676038,-0.933006793291776
0.983294041300001,-0.0296336138,0.00238816333,0.150818892,0.880617702238201,-0.00113623410004929,0.471033330220433,0.0513689916022283,-0.184295988899124,-0.00894913378948793,0.508350512669784,0,0,0,-0.745792094364483,0.346722872539817,0.933466039365008,-0.5382314132,-0.141814209794635,0.160134461307344,0.24143636019811,0.643352797,-0.29536641142597,-0.713599711251586,0.629601773558507,1.24297589861813,-0.6320773531,-0.28268473606203,0.345377468642211,0.219174692624783,0.6336574931,-0.262213620534448,-0.869086857411405,-1.61613896881998,-1.64417715922877,0.903229087227869,0.236988108200194,-0.161630802237021,-2.20747688357196,2.24423402910333,-1.67416300363552,-0.627108959424322,-1.84149899569983,-0.966662393389612,2.89673568176437,-0.203633161145506,-0.505109418263524,-2.11615860354884,1.95446289642841,-0.919326857154164
0.999960042000001,-0.03297348943,0.00228935329,0.159819128,0.878979194981735,-0.00244856569994912,0.473889535190153,0.0530875479988969,-0.200400545404993,-0.00592883930456095,0.540035738748049,0,0,0,-0.761293569083563,0.321462660056636,0.906941858510447,-0.5319990636,-0.135838794378252,0.155623566525669,0.200940422232454,0.6821497211,-0.319888934175434,-0.724059359485943,0.601999753185882,1.22543687870136,-0.5863789789,-0.288424985000973,0.337600852826473,0.178375468580961,0.6702099237,-0.276828423592083,-0.930125649105509,-1.51567331226509,-1.59151444500785,0.373955918530591,0.358539251494424,-0.270664502112642,-2.42985337002029,2.32790846456643,-1.47141015957499,-0.627603971860919,-1.65618740029363,-1.05238324613627,2.74201201731619,-0.344428699018541,-0.466615593970168,-2.44805126186165,2.19323347322312,-0.876923223556241
1.0166260427,-0.03655411179,0.0022059415,0.169164296,0.877082263681152,-0.00394566909991521,0.477194410189746,0.0547414770988236,-0.214845926413528,-0.00500490738608934,0.560732485748666,0,0,0,-0.775412885977894,0.298814068230339,0.87817837990174,-0.5360969348,-0.128949862290135,0.150807120787332,0.157902020744749,0.7216482673,-0.340725302965524,-0.73427131380033,0.578121687582384,1.20690053805009,-0.5431821888,-0.295391477671337,0.329435554041009,0.134128558832034,0.7093297335,-0.290549731563869,-0.847192865792404,-1.35896981129353,-1.72587767914275,-0.245882096956826,0.413352442023897,-0.288998292093979,-2.5824072770923,2.37000747275859,-1.25023208417905,-0.612741742797781,-1.43274118568218,-1.11222488135811,2.59191097357868,-0.418006262916086,-0.489937504050611,-2.65492067025579,2.34728238070937,-0.82331137618315
1.0332920434,-0.04035760148,0.00217089915,0.178596586,0.875072174323884,-0.00551317140015048,0.480666990713119,0.0563696612015386,-0.228218500554845,-0.0021026250166904,0.565960014630264,0,0,0,-0.791084900052539,0.278051006337821,0.852668001215376,-0.5423425171,-0.120625330709707,0.145564768750135,0.113738182247244,0.761705319,-0.360192905069153,-0.744192591800015,0.558037341759946,1.18693965732077,-0.5040405923,-0.303163195353782,0.321190544529563,0.088269784262594,0.7496660378,-0.303916892279333,-0.940358419320427,-1.24583349456587,-1.53068388424846,-0.374749912256997,0.499491853521156,-0.314553691168232,-2.64993619600081,2.40351914181787,-1.16810280126947,-0.595300466997174,-1.2051089030878,-1.19770070148361,2.34858963494464,-0.466321694228958,-0.494720338722043,-2.7516364240546,2.42027496734715,-0.802061691708868
1.0499580441,-0.04433993823,0.00221960921,0.187934642,0.873074642953429,-0.00710514700043481,0.484074412829624,0.0579840285035484,-0.238949752954228,0.0029227203860612,0.560305748697109,0,0,0,-0.807768475356866,0.258212551801125,0.829586481210214,-0.5509421494,-0.110889840729345,0.140160174975497,0.0694986224518832,0.8020014808,-0.37919269655715,-0.754240866196424,0.542632100629497,1.16814487992901,-0.4729300249,-0.311505809944163,0.313043339155246,0.0420603836008231,0.7905346675,-0.31734284251185,-1.00105451839607,-1.19035483640029,-1.3849465400036,-0.515998556270308,0.584152740396908,-0.324288584401529,-2.65447965541972,2.41786632110246,-1.1400330427201,-0.6029205552841,-0.924351403060294,-1.12773170540926,1.86670863394359,-0.500576877473773,-0.488851856001476,-2.77267483024712,2.45221576763765,-0.805589203684442
1.0666240448,-0.0484901984,0.00236867988,0.196988218,0.871160653013429,-0.00879145660013551,0.487298159907511,0.0595174788009174,-0.249025560763357,0.00894459760823122,0.543236266634741,0,0,0,-0.822080728457051,0.241058586857909,0.800963845941147,-0.5715906913,-0.101077481742331,0.135177400005802,0.0261995161349793,0.8414494125,-0.39742787375367,-0.7637144847897,0.53146330803561,1.14665555493655,-0.448009721,-0.3196499675209,0.304869285376446,-0.00353091211982159,0.8313614094,-0.330231406680236,-0.858769500722771,-1.02927902452424,-1.71742674108172,-1.23896202044441,0.588765065095337,-0.298978444762382,-2.5980501919038,2.3669704814065,-1.09415435201082,-0.568439829315247,-0.670154333660106,-1.28941102183322,1.49527798231762,-0.488668980839365,-0.490462824641569,-2.7355870518261,2.44970239920847,-0.773344751412751
1.0832900455,-0.05283783526,0.00263063129,0.205739534,0.869318404008246,-0.0105064438000997,0.490360530104651,0.0610055539005787,-0.260868635388933,0.015717712648362,0.525099941943479,0,0,0,-0.836088339483215,0.225082940410299,0.769491405813181,-0.5983292189,-0.0915807701180626,0.130606569918186,-0.0164333566084042,0.8807001221,-0.41584025509333,-0.77324083464374,0.523278211585884,1.11997489917473,-0.427372141,-0.327398499474566,0.296752981737755,-0.0484632029847457,0.8721078662,-0.341560309513356,-0.840490245879118,-0.958577089679949,-1.88842186523883,-1.60437576364677,0.569825466542084,-0.274260764168609,-2.55807458014709,2.35513668255156,-1.10478702545958,-0.571603831388268,-0.491125411372753,-1.60090331460358,1.23830428016243,-0.464930494912675,-0.486997677774674,-2.69604518046877,2.44488510071885,-0.679761331890483
1.0999560462,-0.05739278664,0.00305025917,0.214133472,0.867676263493333,-0.0117532595999097,0.493022007596212,0.0626822357995184,-0.27330800364121,0.0251786788896511,0.503656405102636,0,0,0,-0.850500596233838,0.208280991604135,0.736235161099083,-0.6279233137,-0.0813704327488828,0.125635550298087,-0.0580749455303284,0.9206419821,-0.434705276387222,-0.783862722820787,0.518829617509878,1.09414306641554,-0.4090129041,-0.334871745887236,0.289522652389458,-0.0917697346685471,0.912383084,-0.350665151812384,-0.864769959515387,-1.00815721231576,-1.99545441721349,-1.77571664208558,0.6126447222086,-0.298273095602275,-2.49859517418142,2.39660736363704,-1.13194650795207,-0.637338757404889,-0.266926310401895,-1.5499718993289,1.10159823166214,-0.448412702434957,-0.433837096160537,-2.59849573172053,2.41660963088763,-0.546312367491282
1.1166220469,-0.06217395786,0.00354672913,0.22211847,0.866255112190697,-0.0127405872998632,0.495229751294682,0.0647089751993051,-0.286881736420424,0.0297893879243627,0.479119024637986,0,0,0,-0.866397779062243,0.190838426756912,0.702935427106044,-0.6583446016,-0.0698083885035808,0.121123420723925,-0.0985163785107039,0.9612697564,-0.45450152783061,-0.796090485360187,0.517597675102397,1.0738201982734,-0.390073751,-0.341141278335169,0.282181745162263,-0.132608011510926,0.9516652094,-0.357439662353727,-0.953869084405209,-1.04659571070474,-1.9980638782188,-1.82535021134374,0.693750375595629,-0.270738592622391,-2.42658294022366,2.43776386616856,-1.1878225496167,-0.733695069351605,-0.0739194981241148,-1.21942081414502,1.13639459405519,-0.376186978555262,-0.440472034013201,-2.45039452340713,2.35702170587332,-0.406486874883122
1.1332880476,-0.06722217649,0.00411034876,0.229635854,0.865050666286608,-0.0136779087997882,0.497011511392305,0.0669314358989639,-0.302905221286832,0.0338185291207866,0.451061063497975,0,0,0,-0.883731377730228,0.173867995718852,0.672345683659527,-0.6864861742,-0.0588622534835301,0.117502454297511,-0.137825316531468,1.002227398,-0.472018410425003,-0.809838909081309,0.518351042834026,1.06095985601007,-0.3728479909,-0.345501289586031,0.274487485556431,-0.17106471084745,0.9906768089,-0.364627626004743,-1.04005747869584,-1.01826655017845,-1.83545794801967,-1.68856182755351,0.656794345391496,-0.217266667126314,-2.35863052740444,2.45755669505042,-1.05105495371742,-0.824938386155378,0.045203870153986,-0.771651369445273,1.0335869060656,-0.261611128509203,-0.461674023920563,-2.30749416304316,2.34078950326697,-0.431295052748693
1.1499540483,-0.07254828644,0.00469742812,0.23660917,0.864022425527501,-0.0145065254004617,0.498468565615866,0.0691657285022014,-0.319579366752337,0.0352261691672676,0.418415679053704,0,0,0,-0.900901314715522,0.158820114558086,0.646872444954346,-0.7088976147,-0.0491308609138947,0.114572483160053,-0.175860950643653,1.043061121,-0.487770933254613,-0.824713049237536,0.520015909195932,1.04806012261406,-0.3529006402,-0.347215036286671,0.266537098535548,-0.206821771519066,1.0287965451,-0.372114916132354,-1.03023738534308,-0.902908948081691,-1.52845539633162,-1.34474016312744,0.583906885929471,-0.175805293075387,-2.28222924004712,2.45012128194618,-0.945189137644161,-0.89248407125212,0.0998959733576363,-0.774014931849308,1.19688886728536,-0.102828910875995,-0.477042282908512,-2.1455093705604,2.28727556695711,-0.449255359002243
1.166620049,-0.07815724714,0.00516904171,0.243056198,0.862943327524783,-0.0155184834004457,0.499979334614359,0.0714748565020527,-0.336551089908451,0.0282979461293315,0.386837137238329,0,0,0,-0.917898893405355,0.146364893941908,0.626170659463889,-0.7260028986,-0.0418537452360961,0.113303314113837,-0.213552972301169,1.083442804,-0.501645390474649,-0.841252572582645,0.521987894369166,1.03185937943346,-0.3309253816,-0.347694821352469,0.257724069462052,-0.241119630722404,1.065621247,-0.375299803698193,-1.01989547437332,-0.747343099306225,-1.24215676352738,-1.02635804521477,0.436644388104376,-0.0761531857019437,-2.26161166892998,2.42299779814601,-0.832500698265061,-0.992411055467461,0.118323838377997,-0.972083433345999,1.31856820334827,-0.0287882542689467,-0.528802874315033,-2.05795378391755,2.2095704040142,-0.191100889959725
1.1832860497,-0.08405187546,0.00560946162,0.248896928,0.861814262977767,-0.0165218653995738,0.501530017387062,0.0739651657980919,-0.353691832018224,0.026426250540119,0.350457803592917,0,0,0,-0.934407724689695,0.135014930011263,0.604763135579905,-0.7441596779,-0.0365573181133618,0.112831387892657,-0.250529363717538,1.1230373434,-0.515923921673132,-0.858386538230501,0.525148373728673,1.01171761291318,-0.3094621258,-0.348383412115642,0.249454879542278,-0.273736989856095,1.1008489726,-0.376096578913174,-0.990569458234825,-0.681025048237607,-1.28450275920026,-1.0894502902547,0.317798325949568,-0.0283167047496835,-2.21867213868351,2.37576729490958,-0.856746105769907,-1.02807901885283,0.189636339059245,-1.20855428262875,1.28784680778275,-0.0413170967389623,-0.496171221196081,-1.95711975061248,2.11374799714247,-0.047808423227849
1.1999520504,-0.09022640179,0.00604135084,0.254115358,0.860640032990908,-0.0172517695998177,0.503065588994685,0.0769813173991867,-0.37048638369492,0.0259143886871432,0.313118311581492,0,0,0,-0.948575770542667,0.12503401705022,0.583529762117586,-0.765219929,-0.0323853196643932,0.112346994896451,-0.286685449016622,1.1616597346,-0.529209364983708,-0.874151589442613,0.529953097176715,0.98488825313099,-0.2887513534,-0.350301681500892,0.242739079519759,-0.303845525333957,1.133790317,-0.375594161412233,-0.85011672014218,-0.598878707657992,-1.27405331636158,-1.26366555954843,0.250329909620642,-0.0290647411412969,-2.16945180490024,2.31743607211056,-0.797158451491959,-0.945940870632017,0.288294926571179,-1.60982591235507,1.24269599964675,-0.115100762311249,-0.402964102990776,-1.8065843161678,1.97655964337024,0.0301462546405322
1.2166180511,-0.09666478822,0.00648880358,0.258855506,0.859215847909194,-0.0174083129001863,0.504977690805404,0.0802658653008589,-0.386318622319511,0.0268482372018621,0.284420244864148,0,0,0,-0.959570579298186,0.11658692653297,0.557829469274633,-0.7942954716,-0.0286535037666777,0.110738469569788,-0.322636777058671,1.1979556015,-0.534159848054422,-0.888186056937563,0.536963536815491,0.949279783756131,-0.2750174017,-0.354643221583755,0.238268924568165,-0.332923026354904,1.1638658307,-0.374138342893573,-0.659714886218594,-0.506845683574799,-1.54207918897744,-1.74460226681738,0.223917901174423,-0.0965153761611849,-2.15716587855712,2.1778390360922,-0.297040853401247,-0.842101698396676,0.420643186387022,-2.1365935364961,0.824070030190268,-0.260502814143226,-0.268220014631005,-1.74471977676969,1.80460293032389,0.087352601554843
1.2332840518,-0.10343114096,0.00691917898,0.263266724,0.857272117715794,-0.0168708658003108,0.507722331809354,0.0837730497015434,-0.405997387243599,0.025823555857645,0.264683656229535,0,0,0,-0.974435309003131,0.106577752599983,0.539171067668015,-0.8165207778,-0.025225871894492,0.107723031626957,-0.359826268458781,1.2320314099,-0.531032942263939,-0.899281811890994,0.547345960461427,0.9007550522606,-0.2679050613,-0.36246644625096,0.235686085816071,-0.362858265268639,1.191543262,-0.371331492928642,-0.89191942161293,-0.600574433732477,-1.11954883132927,-1.33357165885634,0.205666130338382,-0.180933506310917,-2.23145864863125,2.04463020333367,0.187621844422668,-0.665771900119463,0.622970311403843,-2.91160023145389,0.426757476375239,-0.46941223680644,-0.15497651767729,-1.79618610682857,1.66071223673955,0.168417727531388
1.2499500525,-0.11038736576,0.00713467412,0.267267224,0.854888502516255,-0.016514129900314,0.511144662409719,0.0873158970016602,-0.417390166076257,0.0129302250659332,0.240039591501995,0,0,0,-0.991642070150765,0.0981354763552832,0.527203503116337,-0.8319086285,-0.0239839981521148,0.105378930996569,-0.397498053503969,1.2633007287,-0.525113562724044,-0.906751530591881,0.556987923069529,0.845758480937931,-0.2693082947,-0.371549194146418,0.232234877757422,-0.392364251330614,1.2158975863,-0.366311561406492,-1.03244692337223,-0.506556815679206,-0.71808256624387,-0.923307935538491,0.0745154020290629,-0.140651657982233,-2.26039742367157,1.87623409856211,0.355176964554814,-0.448201031269973,0.578540873822364,-3.29992613780874,-0.0841973683584438,-0.544986650304032,-0.207080758051898,-1.77042990655671,1.46131784933863,0.301207926995385
1.2666160532,-0.11739351638,0.00710091585,0.270775218,0.852378372354243,-0.0163246237991237,0.514832397972363,0.090178816795159,-0.420385834977193,-0.00202557713801127,0.21048805068153,0,0,0,-1.01127738427324,0.0920768052188267,0.521484237640269,-0.8389739364,-0.0254889685346963,0.102708353150599,-0.433540411771157,1.2907442861,-0.521302101947363,-0.908251772629197,0.564026483547551,0.791717041164594,-0.2845279847,-0.380614921310165,0.228685645029668,-0.420486611979249,1.2354871619,-0.358857288702419,-1.17816592450234,-0.3635347943107,-0.343169640936589,-0.423935413611253,-0.0903018312354579,-0.160241073671038,-2.1626279103173,1.64667924200915,0.228696784866986,-0.0900181191830144,0.422330504163624,-3.24261595484852,-0.913217890360464,-0.543965365592914,-0.212962473219757,-1.68740906440947,1.17542150349243,0.447274234428213
1.2832820539,-0.12430179013,0.00681110325,0.273790706,0.850290208190784,-0.0159397779998273,0.517878655394387,0.0924888296989977,-0.41451298810998,-0.017389450847677,0.180936509861058,0,0,0,-1.02986901077134,0.0887925488052596,0.521163638041323,-0.8395807855,-0.0298323731195819,0.0990650857211564,-0.465258195570339,1.3132503066,-0.516919882194367,-0.903876252681174,0.56686294244615,0.761764281983194,-0.3301783223,-0.389889273867307,0.225248925240188,-0.445614478996391,1.2505127014,-0.34977259521797,-1.11554216472002,-0.197063259067734,-0.0192367445985895,-0.0364124009667229,-0.260614688734869,-0.218604780776367,-1.90314307374189,1.35041518989016,0.262943691883808,0.262541687522129,0.170194334541111,-1.79723736489466,-2.7391297061448,-0.556483389391806,-0.206211427165013,-1.50773226699442,0.901568394869913,0.545103390308241
1.2999480546,-0.13096164193,0.00627852127,0.276313688,0.848866001054835,-0.0158530938991565,0.519882581572339,0.0943254633949813,-0.399607075499522,-0.031956195705668,0.151384969040597,0,0,0,-1.04670247801703,0.0882514379734318,0.526777021293984,-0.8339827825,-0.0377172058160871,0.0951481974182493,-0.490758149411394,1.3296127683,-0.515721751248031,-0.902863554259409,0.557179999258536,0.774872633880639,-0.4121664869,-0.395588574290022,0.221215202223087,-0.465576391197274,1.2615239836,-0.345000519044273,-1.01004839425506,-0.0324679472639047,0.336816453671538,0.335893601636535,-0.473108866274391,-0.235022689211041,-1.53005836853558,0.981786932242238,0.0718907293899334,0.0607643333271372,-0.580999806847114,0.786532542114036,-4.91948644883952,-0.3419716898677,-0.242033052182716,-1.19776259225068,0.660703332383764,0.286336011836135
1.3166140553,-0.13750576686,0.00569095002,0.278497072,0.847581467182298,-0.0163787386996579,0.521911105089099,0.0945843104980245,-0.39266318583558,-0.0352556837466112,0.131008274828643,0,0,0,-1.06407670135328,0.0918432481689423,0.537439486014763,-0.8215647493,-0.050587878062562,0.0902750398421269,-0.512638544630185,1.34064674,-0.521580903145587,-0.906196903140475,0.535220555178497,0.779511310962854,-0.4592950859,-0.396896127297538,0.216894182199379,-0.48480239743055,1.2708510232,-0.345043832883579,-1.04249505619223,0.215517223367839,0.639773447314156,0.745111765175914,-0.772271193200833,-0.29240113833203,-1.31287617303355,0.662064756783544,-0.351563161614174,-0.200008924820542,-1.31761929423405,0.278331746512793,-2.82782893438856,-0.0784563154083981,-0.259271561395571,-1.15360646980387,0.559644738284454,-0.0025989342065299
1.333280056,-0.14400088794,0.00503231694,0.280509768,0.846123965194394,-0.0176371121998831,0.524432979096525,0.0934516892993809,-0.389722837345135,-0.0395195639227352,0.120766585591229,0,0,0,-1.0823315212047,0.0993165370532972,0.551005970228183,-0.8052111943,-0.0666884350105594,0.0847392618899383,-0.53286781455163,1.3479177816,-0.532258879938043,-0.911502279325573,0.509666724942655,0.739529060441558,-0.4171057395,-0.394280963211621,0.211536327796432,-0.504940587844566,1.2786858061,-0.345423487305246,-1.09533295840004,0.44841525083789,0.814021579479439,0.981252508887751,-0.966072019185588,-0.332159949578578,-1.21380469649479,0.436279928873406,-0.64070420880614,-0.318335291147468,-1.53329108139558,-2.39903089175413,2.53146193615604,0.156916115209175,-0.321484110038894,-1.20833970767902,0.470105758485888,-0.0227801755502705
1.3499460567,-0.15036676263,0.00400962835,0.282533132,0.844231570728314,-0.0198974696006673,0.5277370183177,0.0914919952030685,-0.381967744067117,-0.0613637673734167,0.121406691168567,0,0,0,-1.10254446818712,0.110145829595266,0.566879462849723,-0.7865733631,-0.0846988918863247,0.0805697968819743,-0.553424980052321,1.3529321126,-0.54536646855204,-0.931422606523592,0.484321458008273,0.708115289389767,-0.3639183171,-0.387378571419919,0.203135730509531,-0.526103274671096,1.284600727,-0.346202130283832,-1.2128252810174,0.649783516567889,0.95244761519423,1.11831455761309,-1.08067059398151,-0.250177897086252,-1.23347921740403,0.300871882238666,-0.786486743277119,-1.19526739237557,-1.52077678326163,-1.88490158000477,3.19137286487694,0.414160056509661,-0.504055978282824,-1.26981194873761,0.354909435471223,-0.0467204455707566
1.3666120574,-0.15648658725,0.00275677045,0.284657842,0.841898472802319,-0.0227752826000627,0.531754287701465,0.0890259822002452,-0.367204149943425,-0.0751744778217848,0.127487694153281,0,0,0,-1.12327821216604,0.12324792265358,0.581638798490048,-0.7693878483,-0.100745163071744,0.0769224042176713,-0.574598116746359,1.3570249097,-0.559768652886131,-0.966415162215135,0.465765550940071,0.686422385968618,-0.3446403832,-0.377576891102438,0.193420757066097,-0.548038977555435,1.2881297828,-0.345667058251328,-1.24407434945826,0.786156996760131,0.88559552504548,1.03117209157444,-0.962814743276652,-0.218852304758574,-1.27043896584248,0.24557763879129,-0.864165590374121,-2.09963723879742,-1.11339891328586,-1.30162621564929,1.15672225430784,0.588124319320383,-0.58292169899131,-1.31619476557081,0.211751809178795,0.0321056048260324
1.3832780581,-0.16223376981,0.00157154991,0.2868999,0.839495345182909,-0.0252736744994855,0.535856880789091,0.0864072340982409,-0.344844732905836,-0.0711160740560871,0.134528855504008,0,0,0,-1.14343901172532,0.135746355130624,0.592781037140174,-0.7552797174,-0.111756885226482,0.0723832715564557,-0.594447526375038,1.3602398063,-0.573956187131477,-1.005327067234,0.453275649437579,0.67731813680682,-0.3384537515,-0.367379670937957,0.185778653366217,-0.569359317039161,1.2896429832,-0.346292210940348,-1.20969631060181,0.749935914561901,0.66856103336931,0.84652167931326,-0.660729730722877,-0.272358842587571,-1.1910121681849,0.1929015039583,-0.851286070409523,-2.33480759537362,-0.74942403563519,-0.546276777835327,0.371212734918462,0.61185765847716,-0.458544544515653,-1.27927148615361,0.0907956520126647,-0.0375106601921681
1.3999440588,-0.16760143995,0.00042013475,0.289392656,0.836853605894901,-0.0274788784998326,0.540349329896708,0.0833279977994924,-0.322073077796043,-0.0690876702051261,0.149571336571466,0,0,0,-1.16368381875902,0.148057271074673,0.599793361220031,-0.7439062567,-0.120523742953532,0.0675687735368013,-0.614529923477996,1.3629311038,-0.58646143829175,-1.04182671071862,0.441541497835352,0.692783495452342,-0.3296584204,-0.355465916504931,0.180373797766168,-0.591119994270426,1.2907949004,-0.35123691453317,-1.21473696048184,0.738684472997133,0.420756257370003,0.682434910734163,-0.526032482828939,-0.288881424303217,-1.20499197524683,0.161484302589761,-0.750345051903991,-2.19006611973948,-0.704077229651543,0.92795859810095,0.52774095347302,0.714853830110917,-0.324304294553982,-1.30569280674909,0.0691177938087962,-0.296694070871051
1.4166100595,-0.17257806895,-0.00080670212,0.292264126,0.833731510042125,-0.0298379124015076,0.545490994427561,0.080256109704055,-0.298609671845268,-0.0736131536343929,0.172295084566992,0,0,0,-1.18365150073266,0.160584772397837,0.603018816764541,-0.7365435977,-0.128335040398571,0.0639775817916649,-0.636570603669241,1.3656887242,-0.599348002117574,-1.07465225763871,0.431306398016779,0.716045785808754,-0.3352325959,-0.343534530810617,0.173822926964481,-0.615016511767406,1.2953153034,-0.350872309434843,-1.19810879244924,0.751680115023844,0.193535065944754,0.441777192533059,-0.468696574880063,-0.21548011486261,-1.32249365567624,0.165463835603939,-0.773224726063016,-1.96961151694202,-0.614130528542014,1.39579319448921,-0.334463894508297,0.71591174806047,-0.393067954310539,-1.43384834353088,0.271235018008857,0.0218771800679963
1.4332760602,-0.17695722702,-0.00204601635,0.295530312,0.830410740960935,-0.03209920259849,0.550651474374096,0.0785531428963046,-0.262759983563423,-0.0743618251498093,0.195978990928516,0,0,0,-1.2024464192508,0.171445115622433,0.608949419417507,-0.7290812053,-0.130849117527929,0.0623196893435655,-0.658683739094512,1.3676592008,-0.611988883506416,-1.10129386429165,0.423679579762306,0.733314035405854,-0.3475824849,-0.334866690141306,0.165075315537235,-0.637610229374794,1.3001132133,-0.350975292775875,-1.12774017333035,0.651646631971899,0.355850378247345,0.447761435651447,-0.150850655451996,-0.0994775218087812,-1.32684114343463,0.118233320367011,-0.758483190801852,-1.59856027444815,-0.457627381143271,1.03613637776341,-0.741022949795028,0.520091221963723,-0.52487765869626,-1.35567722659392,0.287886097352675,-0.00617924737230204
1.4499420609,-0.1806510391,-0.00325015537,0.299322786,0.826981941588454,-0.0340315227995249,0.55583358829224,0.0774063683989193,-0.221637580994461,-0.072251228214577,0.227557532743893,0,0,0,-1.22040427848134,0.181045804960467,0.616760212657209,-0.720131433,-0.129312990244296,0.0614214096349812,-0.680489678097001,1.3676277849,-0.619457864521489,-1.12339683305565,0.417262778607734,0.737081204316758,-0.3520685067,-0.329099548060977,0.154297458605344,-0.659782119866301,1.3028184738,-0.351869557185619,-1.07751460916102,0.576064378662457,0.468666321350996,0.537007795757499,0.0921713199996148,-0.053898936208755,-1.30840862154106,-0.00188502932199487,-0.448156768352542,-1.326231119383,-0.38502345404154,0.226039166727238,-0.269172063577317,0.346042351980069,-0.646697256642427,-1.33036658827854,0.162322116067112,-0.0536580086512994
1.4666080616,-0.18346649104,-0.00431956063,0.303734004,0.823948691469843,-0.0354873944987011,0.560404197679489,0.0761336579972134,-0.168933866659445,-0.0641668795801742,0.264683656229539,0,0,0,-1.23580871106822,0.189908771276586,0.625955737145431,-0.7093637938,-0.126023506887388,0.0600037635373245,-0.698342936269337,1.3619537195,-0.622260962664594,-1.14016658440785,0.411401269393267,0.732467328035277,-0.3467773754,-0.325669236508667,0.14297547400637,-0.679631962053243,1.3016508485,-0.353965572940157,-0.92430288850765,0.531799228600738,0.551753516260345,0.646084168231195,0.197376888200146,-0.0850621647733797,-1.07123829487996,-0.340457528001906,-0.168192609226565,-1.00622528788202,-0.351704606280674,-0.276843639007009,0.317480563888374,0.205826917570529,-0.67934622125472,-1.19103812271785,-0.0700603174701606,-0.125765970628981
1.4832740623,-0.18531801015,-0.00537561423,0.308941766,0.82099039614496,-0.0367167406020108,0.564859057930934,0.0745714092040838,-0.111095585757414,-0.0633657479685574,0.312478206004156,0,0,0,-1.24887822873426,0.198586545093933,0.634437402034765,-0.6988242414,-0.122572917540681,0.0580820663927501,-0.712635980210157,1.3483628406,-0.621878190217374,-1.15405478082691,0.40493871192805,0.726003059977364,-0.3385515346,-0.323759978319445,0.130216795820984,-0.697720915968645,1.2951529877,-0.355460529039465,-0.784202395121919,0.520687234661326,0.508920228794549,0.632398413375804,0.207043633851925,-0.115306436089038,-0.857616905105467,-0.815485319162389,0.0229672645591215,-0.833325083147367,-0.387768942384424,-0.387871582047409,0.493570170076856,0.114560068944561,-0.765551281021243,-1.08538060456232,-0.389887227113816,-0.0897009502290525
1.499940063,-0.18631629982,-0.00648331243,0.314917624,0.817552868200552,-0.038495795400026,0.569931186500385,0.0728273581000492,-0.0598997736751556,-0.0664645477904006,0.358565807572539,0,0,0,-1.25976650336551,0.209259134873198,0.64211131010199,-0.6899345053,-0.1221862293319,0.0561552503079745,-0.726177426648714,1.3279547057,-0.617478375608829,-1.16693271523004,0.397194784884255,0.719270585909189,-0.3302963696,-0.319856370826076,0.113934073622461,-0.714348935829599,1.2819548078,-0.355756174437626,-0.653322583338704,0.640380975098909,0.460452882809739,0.533405479816162,0.0232022196411817,-0.115613584774157,-0.812519252957719,-1.2245370240504,0.26399942540176,-0.772706940011683,-0.464654189279786,-0.403964585707416,0.495329692383849,0.234225808797011,-0.977002370972115,-0.997721058595291,-0.791922437636766,-0.0177394327218836
1.5166060637,-0.18644637753,-0.00749833035,0.321514004,0.813920359492096,-0.0406200168996055,0.575203891194414,0.0708812117993117,-0.00780497447117049,-0.0609035087824039,0.395798615321068,0,0,0,-1.26883303401567,0.22114868632191,0.65098341473221,-0.6789237056,-0.124197247320164,0.0536481367502721,-0.737585081994756,1.3007083707,-0.606738108654016,-1.17777067447079,0.388645965567075,0.712736851100193,-0.3218486596,-0.31304563424392,0.0956859118102153,-0.727191832967763,1.2606862256,-0.354901405087547,-0.544013576704008,0.713401593023546,0.532347549356579,0.660674381226923,-0.120665900863913,-0.150432824456939,-0.684486671480928,-1.6348454251535,0.644441767892942,-0.650303539274071,-0.512949655473133,-0.39203975366427,0.506882854025081,0.408660524186581,-1.09493346008597,-0.770604620109224,-1.27616592503804,0.0512882103790303
1.5332720644,-0.18564878493,-0.00815807916,0.328915818,0.809521566787945,-0.0427909227993628,0.581600760091339,0.0677076486989918,0.0478574682887183,-0.0395865103977825,0.44412658641014,0,0,0,-1.27902301544312,0.23389393364745,0.659426378195877,-0.6652650354,-0.128746148159438,0.0480595766257356,-0.747645621497654,1.2645172233,-0.590593508348704,-1.18807159417897,0.379283689419929,0.708006933428847,-0.3150678737,-0.301983637145771,0.0777009159499476,-0.738789407840085,1.2301516903,-0.348765114830718,-0.611423316899882,0.764745397229007,0.506598050464942,0.819552959697164,-0.272944956690996,-0.335327006468715,-0.603656491079996,-2.17155561501927,0.968714726221741,-0.618079879726609,-0.561759015595496,-0.283806400616883,0.406863411448193,0.663746347865497,-1.07914287200694,-0.695882298404229,-1.83214532686297,0.368192127630809
1.5499380651,-0.18390442203,-0.0085267049,0.337224412,0.804196958615872,-0.0446416456008811,0.589225463111629,0.0639353490012619,0.104665956242279,-0.0221184282081543,0.498535560483926,0,0,0,-1.28994603332911,0.246158467208016,0.665633817297417,-0.652446833,-0.134334664926827,0.0399520012896464,-0.755208380657971,1.2166271339,-0.572887490957324,-1.19982145840719,0.370436415453739,0.717100178240983,-0.3202796544,-0.287076596371392,0.0605520632437826,-0.749269608985998,1.1902220477,-0.334221325636609,-0.655407261922641,0.735901418782882,0.372461228898196,0.769122876611909,-0.335324404935934,-0.486473958691797,-0.453783681907336,-2.87352018411951,1.06240349500167,-0.705020024883054,-0.530857649981375,0.545616490471868,-0.312719337639293,0.894458187222981,-1.02897227804419,-0.628837195831469,-2.39587429034489,0.872662221483598
1.5666040658,-0.18121666269,-0.00888484114,0.346562468,0.797504604106332,-0.0456395711003624,0.598435449504752,0.0614690878004881,0.161272004506755,-0.021489033058783,0.560305748697105,0,0,0,-1.30358140588348,0.254010995123876,0.672638557333521,-0.6400085771,-0.136246825522025,0.0307946021031709,-0.761492827794433,1.1556174045,-0.551015551047449,-1.21248231971266,0.365562348222235,0.729298256097942,-0.3320154208,-0.270527876493061,0.0447208861208414,-0.760325846013576,1.1418101048,-0.303289356574065,-0.818155045101737,0.471170501982473,0.420301196561457,0.746325175661364,-0.114734220261885,-0.549465906747232,-0.377081895626107,-3.66073003945092,1.31236883422639,-0.759682033702793,-0.292455719835914,0.73191391723384,-0.704174121389543,0.992962869510227,-0.949908583823663,-0.663400729820987,-2.90483264530284,1.85599230549315
1.5832700665,-0.177473303,-0.00935939445,0.356803748,0.789565424916094,-0.0463217565009442,0.608948360512413,0.0601882786012269,0.224610556388612,-0.0284743363775329,0.614501354245114,0,0,0,-1.31931062075179,0.258602623501623,0.68050696416102,-0.6286900187,-0.135469542251378,0.021547799913855,-0.766222572291902,1.0820919192,-0.521460530567974,-1.22395656029091,0.363668941117177,0.73435826381482,-0.3429016916,-0.253888807464487,0.0280172618436639,-0.773919143321508,1.0887102076,-0.259160300185963,-0.943790604083207,0.275508711441946,0.472123274751726,0.679140641101741,0.0466388598344026,-0.554830301268132,-0.283796009769098,-4.41170540092441,1.77337208917043,-0.688481945056466,-0.113608965890494,0.303612594764707,-0.653202348659447,0.998384035143729,-1.00225750483603,-0.815630429436647,-3.18612114302864,2.64784918604392
1.5999360672,-0.17263247344,-0.00966097944,0.367955364,0.780869483897109,-0.0461442836998292,0.620176682597704,0.0591137594997811,0.290461379855817,-0.0180958224728744,0.66912369684468,0,0,0,-1.33330088188608,0.263011567428165,0.689530530592697,-0.6166729212,-0.128559649342891,0.0111814477785208,-0.767551348430442,0.9979356333,-0.478657970204181,-1.23520343742928,0.363442417130112,0.742291523601017,-0.356787341,-0.237785068859213,0.0130141459935585,-0.790354022068853,1.0338824345,-0.202868986543503,-0.839449210769039,0.264547206369796,0.541435620585188,0.721054661902181,0.41461014150126,-0.622005982235088,-0.0797297541539491,-5.04957892507469,2.56825624421059,-0.674839593543093,-0.0135919823323712,0.476014607763535,-0.833172255897,0.966262926250454,-0.90022292211385,-0.986132128708269,-3.28979783974208,3.37761378123907
1.6166020679,-0.16692710965,-0.00981036175,0.380139998,0.7711644680791,-0.0455987212987642,0.632295300582864,0.058555722598413,0.342335506442166,-0.00896329675541173,0.73110725358364,0,0,0,-1.3456190478346,0.268412895006328,0.698707409221174,-0.606042241,-0.118311994783751,0.00181363812212305,-0.770192648111071,0.9084944905,-0.417197292584761,-1.24823414131423,0.364222317295581,0.751915574739037,-0.3711027531,-0.221003804422015,-0.000233540023504211,-0.810482380018439,0.9769672477,-0.125137767149212,-0.739119490648119,0.324092604782047,0.550634719970737,0.637866299861604,0.614883843076991,-0.562091039417619,-0.15848431355392,-5.36668300991971,3.68778801379862,-0.781873475197081,0.0467958797979133,0.577466142673336,-0.858959048285654,1.00691610058542,-0.794892923355193,-1.20774973623914,-3.41504766647465,4.66405953014817
1.6332680686,-0.16048012071,-0.01008759388,0.393914164,0.759294527006812,-0.0460807825004134,0.6465045916058,0.0581394511005216,0.386834793544681,-0.0166345924850466,0.826482984607098,0,0,0,-1.36336578045379,0.274689681675077,0.70521804735906,-0.5974533373,-0.110025086423842,-0.00593617441205673,-0.780068404615322,0.8165226201,-0.335135269116491,-1.2672793649184,0.362546801802554,0.757810112425743,-0.3812431246,-0.198495667426623,-0.0145093680410408,-0.838355386711843,0.9191113283,-0.0307296914733795,-1.06484650628766,0.376622249196792,0.390653898021637,0.515354814547679,0.497234370085504,-0.465007332813792,-0.59256906812989,-5.51853273353097,4.92391815801796,-1.14275907861752,-0.100534946757037,0.353686393803284,-0.608446602309333,1.35054218468811,-0.856583908432008,-1.67244722925065,-3.47149387795238,5.66471089106771
1.6499340693,-0.15372235732,-0.0099018836,0.408860032,0.746106169211004,-0.0469751050006929,0.66174292850976,0.0567029130008363,0.405482005649982,0.0111430620544736,0.89678791385146,0,0,0,-1.38511385444256,0.28383518798587,0.714314850777625,-0.5869652886,-0.103471870406333,-0.0160360799447655,-0.795949593179218,0.7270186454,-0.241453860058494,-1.29116094098952,0.358247771117331,0.762258765150476,-0.3872656067,-0.1724891262097,-0.0256533992668666,-0.875604331269612,0.8678859147,0.0632916056268962,-1.30493658198214,0.548752305692213,0.545830015389655,0.629308067891782,0.393208672882702,-0.606018547251637,-0.952909390187152,-5.37045307456395,5.62110915175934,-1.43295182215593,-0.257952148365326,0.266929829466122,-0.361363365357353,1.5604548256693,-0.668668592209157,-2.23502598063424,-3.07364763281211,5.64150324920338
1.66660007,-0.14696014872,-0.00932394092,0.423990812,0.733679987630686,-0.0468579487019598,0.67569453542826,0.0543590212022735,0.405748728907709,0.0346779464613847,0.907883077191996,0,0,0,-1.40533364981158,0.294339392188329,0.724151986108124,-0.5768414765,-0.0975251737223421,-0.0292657346856479,-0.814137271285842,0.6489483226,-0.145703663093232,-1.31298046350845,0.354593633865124,0.764159381324374,-0.3890874018,-0.146124991760747,-0.0290786932994426,-0.918842137637962,0.8313230123,0.121856379848353,-1.21323620063346,0.630277436773339,0.59025170510756,0.607452998606919,0.356816058695522,-0.793811003553026,-1.0913042927344,-4.68440654751683,5.74524138627102,-1.30922366509499,-0.219256996203436,0.114041527305236,-0.10931207389185,1.58191127694801,-0.205525854356647,-2.59437204801934,-2.19386180633005,3.51402686677292
1.6832660707,-0.14044559186,-0.00860595064,0.43872332,0.722339531447404,-0.0444677565029183,0.688157527545161,0.0518404979034022,0.39088903074389,0.0430811382361217,0.883985802304687,0,0,0,-1.42602657620414,0.299801255526772,0.73172647200526,-0.5637634905,-0.0924685408065732,-0.0490247830256281,-0.838520393770767,0.5925619706,-0.0662385155479161,-1.33482851338435,0.353924963756311,0.766426185622215,-0.3880493939,-0.126522909689993,-0.0247969916631807,-0.971430773028731,0.8222734801,0.103605590536595,-1.24162519641331,0.327724895537993,0.454487314232265,0.784710515462776,0.303410098606853,-1.18559027421499,-1.46304580947995,-3.38331631055314,4.76809937643383,-1.31093537490967,-0.0401218097160857,0.136013692705592,0.0622829627026253,1.17617192172289,0.25691236387995,-3.15544420868583,-0.542993628939428,-1.09509111635626
1.6999320714,-0.13470834692,-0.00856216424,0.453148234,0.710419512411634,-0.0424057916006945,0.700644468311474,0.0510215077008357,0.34424845187964,0.00262728898121305,0.865529424824761,0,0,0,-1.44975804222016,0.303742049169059,0.73493910110776,-0.560338859,-0.0912256335611656,-0.0697609012069878,-0.883376134754414,0.5740998776,-0.0207260104381617,-1.36184020511077,0.355565740233447,0.767367576734556,-0.3880796251,-0.111119501404399,-0.0245879923918849,-1.03747612103855,0.8357788377,0.0627379377868437,-1.42394485894978,0.236457066888662,0.19276544867177,0.205486100813613,0.0745774146887962,-1.24421680729677,-2.69145200405797,-1.10776984426744,2.73085942626622,-1.62076626616368,0.0984505225141824,0.0564857237969739,-0.00181394448159409,0.924241427974622,0.0125404573693469,-3.96287922931763,0.810353836118586,-2.45215714828043
1.7165980721,-0.12992627494,-0.00904742531,0.467324228,0.697853076568588,-0.0408407825981616,0.713165164767898,0.0522356368976487,0.286935784180064,-0.0291168276501992,0.850593628020187,0,0,0,-1.47982855649336,0.30594054270627,0.742481563955425,-0.5567182788,-0.087183504284593,-0.0880178789208718,-0.94889716070823,0.5929424523,-0.0061501769287954,-1.39131537959188,0.360768949998426,0.764395128759479,-0.3898286878,-0.0986491287038247,-0.0290894075511097,-1.11591751099991,0.8688214112,0.0180397305993571,-1.80430295272947,0.131914883287578,0.452565854486348,0.217243492615478,0.242537447905698,-1.09546243532103,-3.93141864885538,1.13059965850115,0.874584957227697,-1.76858113783215,0.312205060988544,-0.178354005173939,-0.104947955510408,0.748252260698273,-0.27009570203755,-4.70667146685966,1.98263363207467,-2.68199959858915
1.7332640728,-0.12606294029,-0.00967150814,0.480792578,0.685613866881631,-0.0399945446989285,0.724884145480579,0.0536380234985628,0.231809341637674,-0.0374464660858919,0.808133291390059,0,0,0,-1.51361659664575,0.309713847471715,0.756109792259687,-0.548309522,-0.0779007972014882,-0.102823961582741,-1.0295918468255,0.6422567303,-0.0362560672818457,-1.42152598394391,0.365852597148638,0.759387206776937,-0.3910766305,-0.0862231808100519,-0.0350922184814582,-1.20171893142592,0.9161407778,-0.0375214749401967,-2.02736341853068,0.226407332710875,0.817726372966086,0.50454556863183,0.556984680980169,-0.888400458417653,-4.84187463866327,2.95897491471964,-1.80642560233723,-1.81270869333574,0.305031017442107,-0.300487325825056,-0.0748795540372205,0.74558666577836,-0.360183048015146,-5.14829094097011,2.83927544776834,-3.33380554457518
1.7499300735,-0.12322547804,-0.01036375613,0.493016328,0.674692223596287,-0.0405435946997769,0.734964310795955,0.0545351464996997,0.17025453803083,-0.0415365391170301,0.733454307367216,0,0,0,-1.54877716838492,0.316984829854549,0.77696848041213,-0.5339040325,-0.0659854646749162,-0.109778608057728,-1.11981735719779,0.7116527667,-0.0939774715912693,-1.44902516768144,0.369379591483203,0.755288575294814,-0.3943733159,-0.0720231740730861,-0.041851116496917,-1.29164661334746,0.9724695342,-0.0981693086260583,-2.1097186044863,0.436276375701488,1.25157129943257,0.864363908253051,0.714948519507261,-0.417295462791369,-5.41374694483742,4.16392856625765,-3.46342265000767,-1.65001695562903,0.211628116310201,-0.245927715707056,-0.197809028053143,0.852034449810492,-0.405550085897857,-5.39587652372671,3.37986043646332,-3.63901542893021
1.7665960742,-0.12156475296,-0.0110291279,0.503821234,0.665573431618337,-0.0412979365011378,0.743157501620475,0.054985592201515,0.0996474865142658,-0.0399239014792553,0.648320265581166,0,0,0,-1.58302520275919,0.32591186870755,0.802178879670505,-0.514194905,-0.053790051061358,-0.113561450862806,-1.21614432905246,0.7964775137,-0.162437694538987,-1.47550146036667,0.372252418610769,0.761828408459335,-0.403617121,-0.058629140800748,-0.0479724991722489,-1.38451609003783,1.0351861956,-0.157280751268248,-2.05496417471469,0.535643734432414,1.51268439934572,1.18259490412718,0.731754056242076,-0.226979637957008,-5.77984926249686,5.08968819376085,-4.10777751543702,-1.58864104003249,0.172376515474754,0.392405669617007,-0.554650468723429,0.803674109550355,-0.367297636998896,-5.57239126303191,3.76315005194977,-3.54682828269589
1.7832620749,-0.12090415393,-0.01154756855,0.51317707,0.658413229995961,-0.0407963629997497,0.749493912795402,0.0555567278996592,0.0396375256362494,-0.0311076820007574,0.561372591326011,0,0,0,-1.61409947870399,0.333226436232346,0.827715457715644,-0.4919036982,-0.0400212323067641,-0.121494157546176,-1.31543133649882,0.8886343888,-0.234484569511285,-1.49937288522408,0.377091451616013,0.769118312253105,-0.411884558,-0.050763220993627,-0.0501302377996449,-1.47854957581319,1.1000164506,-0.223482212359656,-1.86453105962014,0.438891588717857,1.53225590858996,1.33752585285803,0.826162137062306,-0.475981420267808,-5.95745849490835,5.52963345909376,-4.32298523618197,-1.43234272499553,0.290353582263081,0.4374117057231,-0.496066041806898,0.471974047566254,-0.129469490985678,-5.64223459893205,3.88997073545066,-3.97224638850569
1.7999280756,-0.12100382154,-0.0123456088,0.521064278,0.653082819184732,-0.0412894573990347,0.754045859282371,0.0565053456986791,-0.00598029556064957,-0.0478843283619927,0.473251390179048,0,0,0,-1.64303418903485,0.340447936538301,0.851075309228641,-0.4721546031,-0.0307457134646725,-0.135266502577429,-1.41889449065107,0.9860481958,-0.303963655960446,-1.51879514212679,0.381465925231374,0.775792562983494,-0.421925847,-0.0422397562516353,-0.0526377411036816,-1.57238968343265,1.1617382743,-0.288953027533079,-1.73615199301327,0.433307332451695,1.40164709779454,1.18499305595253,0.556553369285022,-0.826373722116362,-6.20803730988965,5.84506197698648,-4.16891176832605,-1.16538198049541,0.26247890505373,0.400471045845401,-0.602501414751531,0.511428320172319,-0.15045621017145,-5.63063144593893,3.70345740475097,-3.92840588164757
1.8165940763,-0.12186032341,-0.01347880289,0.527148594,0.650074881006996,-0.0424138490004565,0.756459671108141,0.0580730616006249,-0.0513921657281589,-0.0679943623187295,0.365073547608811,0,0,0,-1.66603989822575,0.346847610144227,0.871274506960241,-0.4569288601,-0.0224937780991357,-0.151265949657989,-1.52342145569836,1.0828930253,-0.368633618989641,-1.53387348542305,0.386665516710566,0.785796595041801,-0.4354706405,-0.0344432343707066,-0.061661164093563,-1.66580947742301,1.2213063616,-0.338605278488261,-1.3803977093854,0.383995760058155,1.2120002930037,0.91358108487299,0.495135906572765,-0.96000518472079,-6.27186851415947,5.81092196281979,-3.88035283289024,-0.904736749246467,0.311987955166257,0.600265908923617,-0.812720084669142,0.467810005607929,-0.541427013733498,-5.60541162045887,3.5742280570047,-2.97925410234636
1.833260077,-0.12357408938,-0.01493343957,0.531253996,0.648932643281604,-0.0438671550987564,0.757103114278537,0.0612941394982625,-0.102830067083821,-0.0872816884017052,0.246333963012493,0,0,0,-1.68548398956175,0.348724876506619,0.88966685372936,-0.4448808328,-0.0112773863908996,-0.162043584149683,-1.62794854026236,1.1710757857,-0.426475619170855,-1.5446170421595,0.393898114506755,0.796651744195895,-0.4512713197,-0.0275085260565965,-0.0756696378391215,-1.75768060739118,1.2766053737,-0.383080975176167,-1.16669209884279,0.112640482631895,1.10358490319274,0.72291052405872,0.673010394643515,-0.64668390969729,-6.27187568544895,5.29117704885252,-3.47065869145284,-0.644639162679222,0.433973208472768,0.651334975288571,-0.94807863532611,0.416099125335452,-0.840542011111194,-5.51248806608835,3.31807330957331,-2.66864843512851
1.8499260777,-0.12603657738,-0.01654507316,0.532955542,0.650461694190773,-0.0453910919993561,0.755432723389285,0.0645029734990851,-0.147755184001641,-0.0967018794136976,0.102096839585519,0,0,0,-1.69712608935282,0.349049076802882,0.903519550500598,-0.436482673,0.00032511711864413,-0.171034310659831,-1.73030042644901,1.254263414,-0.469998054867674,-1.54846919174044,0.400558510939401,0.805821123102256,-0.4657134435,-0.0205399806771926,-0.0922586185691684,-1.84494195947025,1.3252494453,-0.419409050374475,-0.698553900281028,0.0194527950705494,0.831195019164837,0.503909723224722,0.696178028454285,-0.539465146557225,-6.14135856760461,4.99145714664466,-2.61145049014779,-0.231138210676878,0.399639754764087,0.550184718662671,-0.866562054086556,0.418129430380015,-0.995378617141597,-5.23589034045057,2.918760923849,-2.17977161121256
1.8665920784,-0.12914659527,-0.01795293682,0.532224784,0.655366419490988,-0.0460092560993674,0.750978491689674,0.066402632299087,-0.186608529903639,-0.0844751950598443,-0.043847232047698,0,0,0,-1.6972485826564,0.34978328892129,0.910169518943854,-0.4317077646,0.0121504478852901,-0.181992322537717,-1.8252976704281,1.3294329995,-0.505840151462791,-1.54387891232913,0.406002203622206,0.813370613958835,-0.4765294268,-0.013770562706272,-0.106438232850163,-1.92621891121079,1.3685789894,-0.442043387685532,-0.00734989190173706,0.0440544874337332,0.399014050398782,0.286505952204838,0.709548198125656,-0.657506985337285,-5.70006240183866,4.51035535477927,-2.15061172985053,0.275427770221467,0.326634612634184,0.452987551871302,-0.648984930139838,0.40618130844796,-0.850810853559744,-4.87681197208502,2.59987653186645,-1.35811450620286
1.8832580791,-0.13286849366,-0.0188959127,0.528981712,0.664156582110793,-0.0460372279007482,0.743197173012078,0.0665925680010823,-0.223322826933519,-0.056580813656152,-0.19459209551095,0,0,0,-1.68583940041121,0.351328849649596,0.912236779863095,-0.4273741296,0.0239610496674332,-0.194664828899946,-1.91168284137366,1.3986091244,-0.534018040327341,-1.52949896479974,0.4087970917135,0.823140927520393,-0.4857420855,-0.00782499614929956,-0.119358769266344,-1.99820128005086,1.4067825013,-0.453644283450596,0.684578289090452,0.0927373492973083,0.124040611569212,0.260028490218412,0.708664423741633,-0.760380765028319,-5.18331737172911,4.15073334900316,-1.69074089049749,0.862831328777794,0.167699986433693,0.586242238760903,-0.552781610047574,0.356748248364853,-0.775263162936361,-4.31911471359018,2.29230230981569,-0.696081559930786
1.8999240798,-0.13703377359,-0.01943210276,0.523331228,0.676658554700803,-0.046330453100055,0.731954549200869,0.0650325101000772,-0.249926782374369,-0.0321726891563133,-0.339042587463711,0,0,0,-1.66417087921045,0.353973396641508,0.912791274848069,-0.4208373445,0.0343449563863969,-0.208643983989825,-1.98881894497185,1.4606677966,-0.552229381814405,-1.50645543078957,0.4073384935867,0.839444160481644,-0.4958169661,0.00190945226484897,-0.133942935450274,-2.0599179479559,1.4375352027,-0.4713775968216,1.30016322396795,0.158679160016617,0.033271028542189,0.392222778437781,0.623059299341307,-0.838782821476723,-4.62835115554716,3.72366912237078,-1.09272415229551,1.38266728922998,-0.0875193847076003,0.978233065911863,-0.604516991289938,0.584090243926879,-0.8750849376797,-3.70314804469189,1.84523581593273,-1.0640413192233
1.9165900805,-0.14154215152,-0.0199209787,0.514603026,0.693765778519407,-0.0466369029013046,0.715872196820026,0.0635691880017785,-0.270513484977833,-0.029333728517124,-0.523713046525914,0,0,0,-1.62878234037576,0.356094932730498,0.914012621797755,-0.4135948147,0.0409671484564132,-0.220036207894445,-2.05244564004229,1.5156805746,-0.561443529023606,-1.47027793530977,0.403462041183871,0.856705252765584,-0.5039002413,0.0101817291192869,-0.146318200128907,-2.10789802200604,1.4851076421,-0.472342215772044,2.12339717678557,0.127297251882995,0.0732837452530533,0.434569152514197,0.39734740140844,-0.683560747997558,-3.81775425405087,3.30089857730535,-0.552870924168474,2.17073646707522,-0.232596438258181,1.03570692181359,-0.485015892265024,0.496356444677093,-0.742545551353136,-2.87891947887287,2.85446042252957,-0.0578794497736625
1.9332560812,-0.14644042476,-0.02032719227,0.502907342,0.714630700806501,-0.0478867790004356,0.695095728506323,0.0620624369005646,-0.293908138381394,-0.0243737881278261,-0.701769081288949,0,0,0,-1.58196535884135,0.359373802659101,0.918629309001361,-0.4043514069,0.0436842842761198,-0.229447089615697,-2.10315540501364,1.5682743263,-0.580374963241801,-1.42347612022282,0.395162159242968,0.875797746202094,-0.5096858971,0.0151744733553289,-0.154296683236868,-2.14225425304918,1.5491228286,-0.449186216743001,2.80913113932681,0.196740057055393,0.277012301073925,0.554626629770872,0.163034663721488,-0.564675466577433,-3.04270747878613,3.15575119950644,-1.13593144264028,2.80822111611675,-0.498012816050326,1.14559538189088,-0.347153219548347,0.299576624645286,-0.478728115495678,-2.06145623425677,3.84106467126214,1.38941546000549
1.9499220819,-0.15118716697,-0.02065871689,0.488583774,0.73767583443285,-0.0483361898021525,0.670660637329866,0.0609285285027132,-0.284815913274262,-0.0198922720554067,-0.859448421840037,0,0,0,-1.52566839034724,0.360742659550645,0.924468208755793,-0.3938127183,0.0433932820252175,-0.23330536425338,-2.13831063833494,1.6175449711,-0.611632265743391,-1.36964862722396,0.385714329843475,0.89833751614548,-0.5132429097,0.0151418129647697,-0.158443056514083,-2.16523944327028,1.6260778859,-0.435898157934847,3.37795308589616,0.0821346954308054,0.350347984470662,0.632346583304776,-0.017460832754088,-0.231505728766891,-2.10939828661485,2.95635681810574,-1.87551309184754,3.22977863542608,-0.566892415856744,1.35244023741017,-0.213429284207336,-0.00195970173931493,-0.248792337877191,-1.37916652200162,4.61748794358325,0.797315387617504
1.9665880826,-0.15533542822,-0.02118668552,0.471399404,0.762777812317463,-0.0483406387011067,0.641981430814697,0.0607703396013912,-0.248905620770795,-0.0316793836448117,-1.0311034008297,0,0,0,-1.45916269881988,0.360918548566604,0.935073586658375,-0.3813319828,0.0369342253456678,-0.227127575528635,-2.15635603337613,1.6718735803,-0.632639297804878,-1.30715728394326,0.376012862627934,0.924789252843005,-0.5173027075,0.0099386010130216,-0.160204821923241,-2.17281311687844,1.7152607201,-0.433529597691124,3.99050094407829,0.010553762664795,0.636348101352359,0.748874053509427,-0.387558886850987,0.370682135201464,-1.08276696767407,3.25984680895879,-1.26047228964099,3.74963042457471,-0.582111292935486,1.58716762189532,-0.243597601672967,-0.312205192199954,-0.105710148515537,-0.454438574946296,5.35118387460527,0.142119293426144
1.9832540833,-0.15884801625,-0.02122367058,0.451734724,0.788809143583642,-0.0467115523990313,0.609927344687352,0.0598898995987581,-0.210763703496065,-0.00221919227448498,-1.17992794756092,0,0,0,-1.38612197291487,0.359763536178116,0.953430827409286,-0.3604078519,0.0252816151953308,-0.212946403851714,-2.15833120300435,1.7459296457,-0.633658600309624,-1.24059123693501,0.367347068766407,0.961148275929474,-0.522698977,-0.00239922707157363,-0.154442978525375,-2.16725262128355,1.8121317295,-0.439471892964357,4.38261867497769,-0.0693035125390425,1.10147845793087,1.25549802118993,-0.699184547036351,0.850904301049335,-0.118514913311851,4.44354147903042,-0.0611605941397753,3.9941224176383,-0.51996840858931,2.18162855870211,-0.323789107965179,-0.740299265953783,0.345724418328265,0.333643067403062,5.81249281958807,-0.356551963497336
