mit-biomimetics/pkGym/resources/robots/mit_humanoid/trajectories/humanoid3d_roll.csv
t,x,y,z,qw,qx,qy,qz,x_v,y_v,z_v,wx,wy,wz,left_arm_pitch,left_shoulder_abad,left_shoulder_yaw,left_elbow,left_hip_yaw_joint,left_hip_abad_joint,left_hip_pitch,left_knee,left_ankle,right_arm_pitch,right_shoulder_abad,right_shoulder_yaw,right_elbow,right_hip_yaw_joint,right_hip_abad_joint,right_hip_pitch,right_knee,right_ankle,left_arm_pitch_v,left_shoulder_abad_v,left_shoulder_yaw_v,left_elbow_v,left_hip_yaw_joint_v,left_hip_abad_joint_v,left_hip_pitch_v,left_knee_v,left_ankle_v,right_arm_pitch_v,right_shoulder_abad_v,right_shoulder_yaw_v,right_elbow_v,right_hip_yaw_joint_v,right_hip_abad_joint_v,right_hip_pitch_v,right_knee_v,right_ankle_v
0,0,-0.017171,0.5920831,0.995211201190922,-0.026977005453645,-0.0218060044082805,-0.091386018474508,0,0,0,0,0,0,0.368835318668668,0.530439665981598,0.128640537508987,-0.631957,-0.304561682703389,0.255502448555176,-0.265364837185596,0.562434,-0.207716463451215,-0.297603804689699,0.662477061402211,-0.0910501860550082,-1.484401,-0.0696328038778725,0.0813038555781992,-0.0806833178392727,0.358543,-0.183735439832959,0,0,0,0,0,0,0,0,0,0,0,0,0,0,0,0,0,0
0.016666,0,-0.017171,0.5920831,0.995211201190922,-0.026977005453645,-0.0218060044082805,-0.091386018474508,0,0,0,0,0,0,0.368835318668668,0.530439665981598,0.128640537508987,-0.731957,-0.304561682703389,0.255502448555176,-0.265364837185596,0.562434,-0.207716463451215,-0.297603804689699,0.662477061402211,-0.0910501860550082,-1.484401,-0.0696328038778725,0.0813038555781992,-0.0806833178392727,0.358543,-0.183735439832959,0,0,0,-6.00024000960038,0,0,0,0,0,0,0,0,0,0,0,0,0,0
0.033332,0,-0.017171,0.5920831,0.995211201190922,-0.026977005453645,-0.0218060044082805,-0.091386018474508,0,0,0,0,0,0,0.368835318668668,0.530439665981598,0.128640537508987,-0.831957,-0.304561682703389,0.255502448555176,-0.265364837185596,0.562434,-0.207716463451215,-0.297603804689699,0.662477061402211,-0.0910501860550082,-1.484401,-0.0696328038778725,0.0813038555781992,-0.0806833178392727,0.358543,-0.183735439832959,0,0,0,-6.00024000960038,0,0,0,0,0,0,0,0,0,0,0,0,0,0
0.049998,0,-0.017171,0.5920831,0.995211201190922,-0.026977005453645,-0.0218060044082805,-0.091386018474508,0,0,0,0,0,0,0.368835318668668,0.530439665981598,0.128640537508987,-0.931957,-0.304561682703389,0.255502448555176,-0.265364837185596,0.562434,-0.207716463451215,-0.297603804689699,0.662477061402211,-0.0910501860550082,-1.484401,-0.0696328038778725,0.0813038555781992,-0.0806833178392727,0.358543,-0.183735439832959,0,0,0,-6.00024000960039,0,0,0,0,0,0,0,0,0,0,0,0,0,0
0.066664,-0.035,-0.012971,0.5780831,0.996515572538173,-0.031996411790866,-0.0288234868201422,-0.0714293352128955,-2.10008400336013,0.252010080403216,-0.840033601344054,0,0,0,0.374221608543293,0.516936026486799,0.154874970682151,-1.061957,-0.417263615748827,0.240204186691076,-0.403758719989286,0.622434,-0.205224353003148,-0.325976155176028,0.648337254962744,0.0478177534876188,-1.490401,-0.0736966632776079,0.0623205227635168,-0.202779265197287,0.478543,-0.189020209475708,0.323190320090315,-0.810250779719145,1.57412895554806,-7.8003120124805,-6.7623864781854,-0.917932429143147,-8.30396512682646,3.60014400576023,0.149532608188312,-1.70240912554476,-0.848422323260983,8.33240966894438,-0.360014400576023,-0.243841317636833,-1.13904553070217,-7.32604988347622,7.20028801152046,-0.317098862519478
0.08333,-0.07,-0.008771,0.5675831,0.99730921442248,-0.0370177631261851,-0.0368465746172586,-0.051442647483629,-2.10008400336013,0.252010080403216,-0.630025201008044,0,0,0,0.376074107157327,0.50237922775449,0.183969804064989,-1.191957,-0.518840134294675,0.207149750058981,-0.53778264596432,0.712434,-0.202248047630274,-0.35548946732059,0.625735687075329,0.196750586035554,-1.494401,-0.0760567933402156,0.0392421115860649,-0.326856179560283,0.608543,-0.192230381993187,0.111154363016566,-0.873442861653018,1.74575983336361,-7.80031201248049,-6.09483490614714,-1.98334553174699,-8.04175722879121,5.40021600864034,0.178585465791065,-1.77086956345624,-1.35614831917761,8.93632740597233,-0.240009600384016,-0.141613468295192,-1.38476006104955,-7.44491265828606,7.8003120124805,-0.192618055770922
0.115996,-0.098,-0.0042,0.5549831,0.99829354309191,-0.0408504820619469,0.0417055806373894,0.00137276363809326,-0.857160350211229,0.139931427171983,-0.385722157595055,0,0,0,0.46007260577835,0.497728276584151,0.198679217645937,-1.257403,-0.587788379722777,0.139346738476578,-0.66149649269499,0.785962,-0.210862626079667,-0.387999462280635,0.598101945003232,0.342072571940104,-1.509376,-0.161407514043965,0.00916376428075205,-0.503786939957443,0.713231,-0.202752053113667,2.57143508911476,-0.142378961927972,0.450297360587404,-2.00348986714015,-2.11070364991435,-2.07564475547675,-3.78723586391567,2.25090307965469,-0.263716967164429,-0.995224238047058,-0.845948144005929,4.44872301183341,-0.458427723014754,-2.61283048747166,-0.920784525357035,-5.41635830518458,3.20480009796118,-0.322098546515663
0.132662,-0.126,0,0.5430831,0.99761164103053,-0.0457980294282202,0.0516520331897993,0.00237100152352309,-1.68006720268811,0.252010080403216,-0.71402856114244,0,0,0,0.548166962359134,0.499282597974257,0.205615846082544,-1.307403,-0.646361564124709,0.0700801348618153,-0.777633730301637,0.855962,-0.220760463267957,-0.393047676436589,0.561425004691883,0.47230709440844,-1.519376,-0.253008484407127,-0.0437413089312277,-0.681850736465771,0.813231,-0.212613445191643,5.28587282976019,0.0932630139269154,0.416214354770601,-3.00012000480019,-3.51453164538172,-4.15616246338428,-6.96851299691873,4.20016800672027,-0.593893987056838,-0.302904965555857,-2.20070444685882,7.81438392345708,-0.600024000960039,-5.49627807291262,-3.17443136997358,-10.6842551607061,6.00024000960039,-0.591707192966263
0.149328,-0.1199912,-0.0018494,0.5135599,0.997350612950743,-0.0529479794520845,0.0489209810148717,0.0097469962174108,0.360542421696868,-0.110968438737549,-1.77146285851434,0,0,0,0.418671232293885,0.508580738229876,0.249981923944806,-1.278159,-0.601148644690381,0.109689605934497,-0.876248129919982,1.087056,-0.320092169396771,-0.449349369509793,0.52836122146275,0.553112336662123,-1.509216,-0.2246466075826,-0.0595882771790261,-0.753051872993053,1.039539,-0.316348700249917,-7.77005460609915,0.557910731766459,2.66207115458191,1.75471018840754,2.71288368140691,2.37666333089416,-5.91710066112711,13.8661946477859,-5.96014077335981,-3.37823671386079,-1.98390635000193,4.84850847556002,0.609624384975409,1.70178068069886,-0.950856129113072,-4.27223908120017,13.5790231609264,-6.22436427806754
0.165994,-0.1149477,-0.0052486,0.4871832,0.994789869312971,-0.0710269906690783,0.0681169910513693,0.0266149965035482,0.302622104884197,-0.203960158406336,-1.58266530661227,0,0,0,0.29226277616453,0.53824287874324,0.306389302036778,-1.224236,-0.587743399287266,0.148811699140161,-1.05071422860947,1.314057,-0.330670353472481,-0.459199318401897,0.454571862995033,0.588989738135293,-1.491447,-0.173400946040657,-0.10815567346997,-0.853899339662173,1.226441,-0.467349647211536,-7.58481076019174,1.77979962278674,3.38457806864109,3.23550942037681,0.804346898062826,2.3474194891194,-10.4683846567556,13.620604824193,-0.634716433199877,-0.591020574349257,-4.42753860960743,2.15273019759811,1.06618264730589,3.07486268702403,-2.9141603438704,-6.05109004374896,11.2145685827433,-9.06041923446656
0.18266,-0.1108086,-0.0072492,0.4704511,0.993359781658054,-0.0705929844835578,0.0813549821180548,0.0404269911140877,0.248355934237369,-0.120040801632065,-1.00396615864635,0,0,0,0.146588688106287,0.517159909727035,0.39617207118632,-1.142545,-0.570121810508257,0.154599139410228,-1.15272067445378,1.466271,-0.33068272743036,-0.450152583915318,0.404164013424077,0.636096495547545,-1.459773,-0.163945056325007,-0.111969627485742,-0.95337169458114,1.398208,-0.531254964029872,-8.74079491529118,-1.26502874212199,5.38718163623797,4.90165606624266,1.05733762024536,0.347260306616286,-6.1206315759217,9.13320532821313,-0.000742467171467325,0.542825782226039,-3.02459195793565,2.82651850547531,1.90051602064082,0.567376077982133,-0.228846394802066,-5.96858003833956,10.3064322572903,-3.83447238799565
0.199326,-0.1064581,-0.0090209,0.4480574,0.991587332893276,-0.0670020224937553,0.0956140320993092,0.0558860187619176,0.261040441617665,-0.10630625225009,-1.34367574702988,0,0,0,0.000103734687011115,0.465914165627446,0.486092119624692,-1.044892,-0.551382183795083,0.149237050306152,-1.21941371593823,1.56845,-0.342690735640054,-0.443502358331076,0.345670797348364,0.703378476091157,-1.399036,-0.169046817409768,-0.109768586321418,-1.04039667464374,1.54763,-0.568835157436195,-8.78944878310787,-3.07486764068095,5.3954187230512,5.85941437657506,1.12442257969365,-0.3217382157732,-4.00174255876902,6.13098523940956,-0.720509312954138,0.399029496234396,-3.50973335387695,4.03708031582939,3.64436577463099,-0.306117909802061,0.132067752569495,-5.22170767206289,8.9656786271451,-2.25490180045141
0.215992,-0.1017905,-0.0106589,0.4267613,0.988761666325623,-0.0654669779070591,0.11515996113732,0.0693009766132112,0.280067202688107,-0.0982839313572543,-1.27781711268451,0,0,0,-0.128570339503067,0.410042347524475,0.562425535829619,-0.937079,-0.543272315761152,0.141207684016952,-1.28165446351907,1.647082,-0.372650306869728,-0.507176008811671,0.364546845139476,0.864142463185489,-1.32036,-0.183724696227917,-0.120638619100086,-1.11494566045019,1.665118,-0.614881944201177,-7.72075328153595,-3.35244318390562,4.58018817982285,6.46903876155046,0.486611546497739,-0.481781248601948,-3.73459423861993,4.71810872434898,-1.79764617962766,-3.82057185170976,1.13260817179359,9.64622507466292,4.7207488299532,-0.880707957407251,-0.652228055842272,-4.47311807311001,7.0495619824793,-2.76291772260784
0.232658,-0.0974043,-0.0125622,0.4131904,0.984993180853137,-0.0649620119275787,0.138137025363134,0.080539014787649,0.263182527301092,-0.114202568102724,-0.814286571462862,0,0,0,-0.266135348141435,0.348567810775756,0.654711068923341,-0.823313,-0.540685075307562,0.137738149080587,-1.34683033602049,1.715896,-0.422398849846518,-0.588405824596149,0.38060438979179,1.02257845086343,-1.249984,-0.192097423090525,-0.135178612223054,-1.18068757156718,1.758674,-0.658976617510479,-8.25423068752958,-3.68861974971316,5.53735347976246,6.82623304932198,0.155240636840816,-0.208180423398837,-3.91070877843638,4.12900516020642,-2.98503197988658,-4.87398390642498,0.963491218787559,9.50653952225736,4.22272890915637,-0.502383707104753,-0.872434484757493,-3.9446724539173,5.61358454338173,-2.64578623000732
0.249324,-0.0928032,-0.0146013,0.3940293,0.980784320847951,-0.0655940214580381,0.159572052201452,0.0910840297966879,0.276077043081723,-0.122350894035761,-1.14971198847954,0,0,0,-0.394370764094498,0.292145142137648,0.76298593747256,-0.714214,-0.542551279649782,0.141317337777597,-1.40746219138944,1.773836,-0.456538812084623,-0.684253852575752,0.38504820356588,1.19253533140254,-1.169142,-0.18533696421125,-0.152735098762098,-1.2329911000101,1.836438,-0.711996130812893,-7.69443273449314,-3.38549553810802,6.49675198303251,6.54620184807392,-0.111976739602735,0.214759912217091,-3.63805684441082,3.47653906156246,-2.04847967347323,-5.7511117232451,0.26663949202511,10.1978207451762,4.85071402856115,0.405643758506853,-1.05343132959584,-3.13833724006515,4.66602664106564,-3.18129805006685
0.26599,-0.0867209,-0.0162134,0.372617,0.973081190967984,-0.0363179698047803,0.195236837677623,0.116946902768865,0.364952598103924,-0.0967298691947679,-1.28478939157566,0,0,0,-0.504517617860845,0.227305596977943,0.860387527404703,-0.647897,-0.487592845272551,0.0776738907884125,-1.45458300127163,1.83988,-0.483375476515979,-0.785742163370034,0.40315985473243,1.35902992560074,-1.100445,-0.233643630423116,-0.104016159070463,-1.32786729227454,1.947725,-0.760172220825332,-6.60907558900443,-3.89052833071551,5.84432916909534,3.97917916716669,3.29763796815257,-3.81875956973388,-2.82736168739884,3.96279851194048,-1.61026427645241,-6.08954222934605,1.08674253969456,9.99007525490266,4.12198487939518,-2.8985159133485,2.92325331163059,-5.69279924783599,6.67748709948397,-2.8906810279874
0.282656,-0.0820519,-0.0175882,0.3694558,0.965593238384723,-0.033091008169476,0.2244860554209,0.127046031365001,0.280151206048242,-0.082491299651986,-0.189679587183486,0,0,0,-0.59098649975691,0.168461480296194,0.89498131213229,-0.616954,-0.474746343354124,0.0625249900010494,-1.50471017525531,1.870053,-0.49975014648543,-0.896038273438767,0.410641342075617,1.52301486282781,-1.040541,-0.23081350630366,-0.111107076906762,-1.37418345625522,1.991242,-0.796585948486684,-5.18834044738175,-3.5307882324342,2.07571011205972,1.85665426617064,0.770820947943515,-0.908970406058026,-3.00775074905114,1.81045241809672,-0.982519498947036,-6.61803132537703,0.448907196879114,9.83948981321651,3.59438377535101,0.169814239736972,-0.425472089061529,-2.77908100208109,2.6111244449778,-2.1849110561234
0.299322,-0.0768243,-0.0188286,0.3674727,0.956971235378109,-0.0325640080094932,0.254374062566234,0.135792033399616,0.31366854674187,-0.0744269770790831,-0.118990759630386,0,0,0,-0.660079924278165,0.106863987002962,0.882858568933636,-0.588219,-0.464510583848408,0.0558265789047287,-1.5435517514029,1.883915,-0.520985757607321,-0.994536048589919,0.415315635304053,1.66458702821808,-1.000047,-0.228539085153769,-0.120704803740555,-1.40266343917258,2.014756,-0.832240109401979,-4.14577130212738,-3.69599743749146,-0.727393687666768,1.72416896675867,0.614170137148441,-0.401920742608947,-2.33058779236669,0.831753270130808,-1.27418763481886,-5.91010291318562,0.280468812458648,8.49466971020451,2.42973718948758,0.136470727822531,-0.575886645493383,-1.70886732973448,1.41089643585745,-2.13933522832684
0.315988,-0.0707672,-0.0200753,0.366695,0.947964584455076,-0.0312719862917715,0.282349876230547,0.143748936986949,0.363440537621505,-0.074804992199688,-0.0466638665546617,0,0,0,-0.764755464992089,0.115329971399228,0.91917673111489,-0.567076,-0.455018967349727,0.0525816350358042,-1.56778598584491,1.887128,-0.545400051720429,-1.08635779143253,0.425248188410382,1.78329186271648,-0.975868,-0.22524316051727,-0.129113073753606,-1.42233902239671,2.032629,-0.852362803527008,-6.28078367418246,0.507979382951294,2.17917689795112,1.26863074522981,0.569519770711696,-0.194704420312281,-1.45411223100998,0.192787711508455,-1.46491624343621,-5.50952495155503,0.595977025460772,7.12257497290283,1.45079803192127,0.197763388725477,-0.504516381438318,-1.18058221673696,1.07242289691586,-1.20740994389949
0.332654,-0.0640416,-0.0213948,0.367101,0.93874920448119,-0.0396710086412591,0.309474067410577,0.146294031866208,0.403552142085684,-0.0791731669266771,0.0243609744389786,0,0,0,-0.856703428801631,0.136092918721776,0.968342622587502,-0.559745,-0.468537946494226,0.066882769456063,-1.59160394412461,1.877679,-0.56319543903317,-1.14130136095952,0.39846058209908,1.85860105701457,-0.94907,-0.196139855797427,-0.1662883086826,-1.43317204801885,2.036663,-0.856548440270045,-5.51709851251298,1.24582667241976,2.95007149121639,0.439877595103803,-0.811171195517728,0.858102389311101,-1.42913466216863,-0.566962678507129,-1.06776594940246,-3.296746041461,-1.60732067150495,4.51873240718164,1.60794431777271,1.74626813391593,-2.23060331987246,-0.650007537629442,0.242049681987272,-0.251148250512245
0.34932,-0.0566223,-0.0226793,0.3677639,0.922575093705035,-0.0403480040981066,0.352493035802367,0.151578015395628,0.445175807032281,-0.0770730829233168,0.0397755910236423,0,0,0,-0.936546124989492,0.145434481921678,1.00492034456269,-0.565628,-0.458254512356222,0.0521808175206439,-1.62543884901622,1.857006,-0.573530370441566,-1.20277986652928,0.392869757756119,1.92268296700099,-0.914404,-0.176219861185465,-0.185247655324898,-1.48123840303263,2.038066,-0.842398432054842,-4.79075340140772,0.56051621264265,2.19475110855546,-0.352994119764789,0.617030729509422,-0.882152402221239,-2.03017550051671,-1.2404296171847,-0.620120689331302,-3.68885788850115,-0.335462879092876,3.84506840192147,2.08004320172807,1.19524748661722,-1.13760630278997,-2.88409666469375,0.0841833673347093,0.849034454290376
0.365986,-0.0480683,-0.0236572,0.3696896,0.910124544201096,-0.0450119774575797,0.380734809324438,0.157124921310366,0.513260530421217,-0.0586763470538824,0.115546621864873,0,0,0,-0.983213381733065,0.180881204632268,1.05563382528028,-0.58561,-0.46105495734774,0.0628339283192627,-1.62644441142504,1.822202,-0.581957128679353,-1.20462756857059,0.364658920550755,1.93968345856,-0.878763,-0.15853190232512,-0.205896592110225,-1.47842982474367,2.018651,-0.842759187990554,-2.80014741051085,2.12688843817292,3.042930560278,-1.19896795871835,-0.168033420827959,0.639212216405787,-0.0603361579752988,-2.08832353294131,-0.505625719296028,-0.11086655714072,-1.69271794103946,1.02007029635234,2.13854554182167,1.06131998442009,-1.23898576655027,0.168521438195433,-1.16494659786391,-0.0216462219916229
0.382652,-0.0381087,-0.0241304,0.3731602,0.896080033492784,-0.0486730018192508,0.411206015369648,0.159941005978115,0.597599903996159,-0.028393135725429,0.20824432977319,0,0,0,-0.961998893864288,0.171105210780067,1.06759130358143,-0.603367,-0.464115626358069,0.0617503828418783,-1.6121135689235,1.765314,-0.584411045832253,-1.1780545350397,0.337446997607536,1.94803179241656,-0.828831,-0.149022068053081,-0.218632017977119,-1.46060216799672,1.971039,-0.825626939863626,1.27292018893422,-0.586583094455852,0.717477397164927,-1.06546261850474,-0.183647486519186,-0.0650153292562335,0.859884945489929,-3.41341653666147,-0.147240918810719,1.59444578968516,-1.63278068782065,0.500920068196273,2.99603984159366,0.570612880837542,-0.76415611825837,1.06970219290479,-2.85683427337095,1.02797600665598
0.399318,-0.027048,-0.0242802,0.3768338,0.883456126727373,-0.048709006987064,0.436453062607014,0.163222023413385,0.66366854674187,-0.00898835953438129,0.22042481699268,0,0,0,-0.945229688215842,0.160340218965273,1.09181203198916,-0.609027,-0.466985076535206,0.0607620149942272,-1.57494934589192,1.69345,-0.584226935336097,-1.15022538043223,0.313018586957733,1.95137602756404,-0.764384,-0.150334398140977,-0.227646007073115,-1.42483415551415,1.912236,-0.811858815861319,1.00619258661022,-0.64592534590146,1.45330183653697,-0.339613584543382,-0.172173897584098,-0.0593044430367887,2.22994257959811,-4.31201248049923,0.0110470716521907,1.66981606909097,-1.46576326951895,0.20066213533421,3.86697467898716,-0.0787429549919528,-0.540860980198992,2.1461665956178,-3.52832113284531,0.82612048495779
0.415984,-0.0151235,-0.0244762,0.3808441,0.868093136185594,-0.0468220073453903,0.464678072898237,0.168215026389407,0.715498619944798,-0.0117604704188166,0.240627625105006,0,0,0,-0.926353694727636,0.147466903455614,1.12489624423368,-0.601616,-0.463965605455682,0.0518661401312382,-1.5345891967646,1.606135,-0.568903905831612,-1.12972986913118,0.308718535090653,1.98096778448928,-0.717064,-0.157442727928658,-0.238027680022434,-1.39364684674169,1.844931,-0.790910974159862,1.13260491348889,-0.772429827772658,1.985132139957,0.444677787111481,0.181175511791901,-0.533773842733048,2.42170581587191,-5.23910956438256,0.91941854701103,1.22977986925776,-0.258013432562135,1.77557643857225,2.8393135725429,-0.426516847934789,-0.622925293970875,1.87131337888296,-4.03846153846154,1.25692077891856
0.43265,-0.0020433,-0.0246687,0.3853843,0.851151350846787,-0.0476690196492931,0.493537203437311,0.172308071025832,0.784843393735749,-0.0115504620184808,0.272422896915876,0,0,0,-0.903015151315214,0.150264745905426,1.11783024103345,-0.615942,-0.467624164656719,0.0420454683233982,-1.48898836460295,1.49562,-0.539973969465268,-1.12070822556445,0.326423572594679,2.02386030570053,-0.755416,-0.166041934270702,-0.257178769787682,-1.35495463051963,1.753519,-0.755788348944187,1.40036861949011,0.167877262079197,-0.42397715110009,-0.859594383775348,-0.21952233295556,-0.589263879025563,2.7361593760742,-6.63116524660987,1.73586561660529,0.541320266814624,1.06234474403137,2.57365421884384,-2.30121204848194,-0.515973019443411,-1.14911135036891,2.32162583835687,-5.48493939757591,2.10744181061297
0.449316,0.0117845,-0.0248913,0.397264,0.82969858928478,-0.049379975556054,0.526474739385855,0.178846911467671,0.829701188047522,-0.0133565342613704,0.712810512420493,0,0,0,-0.88338556982909,0.161700356456559,1.0760979939918,-0.673268,-0.465608347742573,0.0279599932757949,-1.45002702613097,1.369899,-0.487127163028632,-1.1322528182707,0.362301694683393,2.04457205073718,-0.860632,-0.179494972361631,-0.283382107745278,-1.32065873964505,1.645385,-0.704836114577492,1.17782200204753,0.686164079631148,-2.50403498389835,-3.43969758790352,0.120953853002876,-0.845162309348571,2.33777381927117,-7.5435617424697,3.17093522360709,-0.692703270506038,2.15277343626029,1.24275441237537,-6.31321252850114,-0.807214574038702,-1.57226316798244,2.05783576590545,-6.48829953198128,3.05725635225579
0.465982,0.0267715,-0.0251559,0.4093852,0.804699994869233,-0.0497039996830873,0.561879996417454,0.185143998819522,0.89925597023881,-0.0158766350654024,0.727301092043682,0,0,0,-0.870184781853822,0.172336696135596,1.03227088620401,-0.726797,-0.461496977837947,0.0029784670429152,-1.41058109713511,1.227384,-0.391677514500303,-1.11611591049177,0.400110763797055,1.9890243835906,-0.928909,-0.196421222164409,-0.308904401713893,-1.28705984758924,1.518398,-0.63335519067676,0.792078961674548,0.638205908978635,-2.62973165653316,-3.21186847473899,0.246692061960059,-1.49895153203407,2.36685041376835,-8.55124204968198,5.72720800001975,0.968253196863885,2.26863489221539,-3.33299334852875,-4.09678387135486,-1.01561561279115,-1.53139889407267,2.01601416391492,-7.61952478099125,4.28902699512369
0.482648,0.0427987,-0.0254471,0.4150566,0.775839734021625,-0.0509759825240853,0.59856879479479,0.192845933887315,0.961670466818672,-0.0174726989079566,0.340297611904479,0,0,0,-0.886037084722459,0.168117354662074,1.0281602135124,-0.740752,-0.454233479916762,-0.0243102384777748,-1.37917666962027,1.077328,-0.247941543843592,-1.09635556404262,0.425444590843832,1.94099106024015,-0.963864,-0.215660882525965,-0.340376777250584,-1.25294061937521,1.37503,-0.530290426801049,-0.951176219167015,-0.253170615235987,-0.246650227506035,-0.83733349333973,0.435827308363456,-1.63738782675447,1.88434102453166,-9.00372014880595,8.62450321953144,1.18566821367715,1.52009042642364,-2.88211468561454,-2.09738389535582,-1.15442579872536,-1.88841806892423,2.04723558226542,-8.60242409696387,6.18413319787062
0.499314,0.0585788,-0.0251097,0.4211865,0.734467385955735,-0.0428350225094033,0.647429340218057,0.198892104515939,0.94684387375495,0.0202448097923918,0.367808712348495,0,0,0,-0.92424329792089,0.144976718651098,1.03064079258298,-0.722922,-0.407569549209138,-0.0840976461733565,-1.37309814463676,0.926252,-0.0441693443291781,-1.09598093874246,0.45027681642256,1.90866277683509,-0.9818,-0.24628813391537,-0.360258144605009,-1.26874248666289,1.242018,-0.385925167930154,-2.29246449048547,-1.38849370040657,0.148840697862526,1.06984279371175,2.79994784037101,-3.5873879572532,0.36472608805399,-9.06492259690388,12.2268210437066,0.0224784171464572,1.48999313444908,-1.93977459528766,-1.07620304812192,-1.83770859170798,-1.19292975845584,-0.948149963259428,-7.98103924156966,8.66226202273461
0.51598,0.07658,-0.024493,0.4260459,0.702982718422437,-0.0366379853247678,0.676094729192339,0.217643912823401,1.08011520460818,0.0370034801392056,0.291575663026522,0,0,0,-0.908486605145087,0.121307729064558,1.03004545302343,-0.710019,-0.375919501670815,-0.0982889250602496,-1.33984154923779,0.783298,0.143019953314791,-1.05074096242409,0.467496451584014,1.88774197069074,-0.981057,-0.31530191663008,-0.385914577923286,-1.21978853411222,1.105957,-0.211807235305681,0.945439384123541,-1.42019618303968,-0.0357218024445343,0.774210968438737,1.89907881545202,-0.85151079364533,1.99547554295982,-8.57758310332413,11.2318071309234,2.71450715938876,1.03321943846479,-1.2552985806041,0.0445817832713338,-4.14099260258669,-1.5394475769997,2.93735464722606,-8.16398655946238,10.4474938572226
0.532646,0.0954933,-0.0239519,0.4295242,0.677707680215235,-0.0352989833437374,0.696163671506547,0.234141889517249,1.13484339373575,0.0324672986919476,0.20870634825393,0,0,0,-0.875999538520411,0.117266217803597,1.03492471400591,-0.705279,-0.37012623979889,-0.0945185922513538,-1.30369602328862,0.669098,0.276270299323453,-0.993445640735236,0.470649144581921,1.8797501164902,-0.975323,-0.379652741512636,-0.408882231263391,-1.15203407266146,0.983304,0.00777845912738777,1.94930196955938,-0.242500375672716,0.292767369643528,0.284411376455056,0.347609616700186,0.226229017694457,2.16881830968255,-6.85227409096364,7.99534057414268,3.43785681560369,0.189169146640278,-0.47953043324982,0.34405376215048,-3.861203941111,-1.37811432497932,4.06543030425786,-7.35947437897517,13.1756686927318
0.549312,0.1142386,-0.0239288,0.4177446,0.654246048578753,-0.0403340029948603,0.716895053230535,0.237480017633248,1.12476299051962,0.00138605544221778,-0.70680427217089,0,0,0,-0.8661476651514,0.120007990712894,1.0464660763716,-0.692432,-0.392857919111811,-0.0880379901538112,-1.28612928970386,0.605502,0.337110191499603,-0.959264649345207,0.470818276052697,1.8841231619028,-0.980787,-0.40412837567268,-0.425539652530629,-1.10434862675043,0.886702,0.239267192833264,0.591136047582553,0.164512955076005,0.692509442318688,0.770850834033358,-1.36395531698797,0.388851679919752,1.0540461769326,-3.81591263650546,3.65053955215108,2.05094152106255,0.0101482941782983,0.262393220485277,-0.32785311412456,-1.46859679347438,-0.999485255444459,2.86124120430984,-5.79635185407416,13.8898796175373
0.565978,0.1325065,-0.0244657,0.4116938,0.634148363902972,-0.0528220303116667,0.736071422391027,0.230791132438375,1.09611784471379,-0.0322152886115447,-0.363062522500898,0,0,0,-0.858175225292858,0.147623569160095,1.06735717033507,-0.686797,-0.445624790512297,-0.0653796195763686,-1.28749491963969,0.605278,0.291136890127306,-0.934332014969357,0.45705188876284,1.89462216758178,-0.999607,-0.391836816696475,-0.455953324886064,-1.0828507944418,0.855065,0.390262394169124,0.478365526133533,1.65700098687154,1.25351577843977,0.338113524540985,-3.16613892958632,1.35955661691123,-0.081941073792752,-0.013440537621505,-2.7585084226747,1.49601790326716,-0.826016278042513,0.629965539359987,-1.1292451698068,0.737523039493869,-1.82489333705962,1.28992153537906,-1.89829593183727,9.06007448313091
0.582644,0.1499974,-0.0248913,0.4047078,0.615709308718611,-0.0609439315758182,0.753006154569968,0.22398574852227,1.0494959798392,-0.0255370214808591,-0.419176767070682,0,0,0,-0.856882729265285,0.167241664790956,1.09341536298269,-0.678256,-0.490560369618989,-0.0376814922200987,-1.29901824925217,0.657658,0.208937722701653,-0.924690690409548,0.449174264289904,1.91741742001686,-1.015623,-0.395093294651651,-0.468343411732686,-1.08478654808869,0.91034,0.314010993612397,0.077552863768936,1.17713282316458,1.56355410102093,0.51248049921997,-2.69624259610535,1.66195411954098,-0.691427433846243,3.14292571702868,-4.93214733143243,0.578502613693103,-0.47267637543115,1.36776985689897,-0.960998439937593,-0.195396493170289,-0.743434948195255,-0.116149864807861,3.31663266530662,-4.57526704408539
0.59931,0.1657306,-0.0251391,0.3976014,0.586278857416413,-0.0573049860633718,0.77725981096966,0.221043946241898,0.944029761190446,-0.0148685947437897,-0.426401056042246,0,0,0,-0.881680561920877,0.169885348728921,1.12181436507901,-0.676259,-0.485970950058166,-0.0204074403197575,-1.34023978803606,0.746503,0.159810183563494,-0.943889917894869,0.46287300249307,1.94512381750655,-1.034743,-0.401875937658008,-0.470353542629574,-1.13441496609912,1.000375,0.201717540371103,-1.48792947651458,0.158627381373191,1.7040082861108,0.119824792991715,0.27537618869693,1.03648457340341,-2.47339126268378,5.33091323652947,-2.94777025909993,-1.15199972910843,0.821957170476767,1.66245034739554,-1.1472458898356,-0.406974859375762,-0.120612678320413,-2.97782419359329,5.4023160926437,-6.73787670954604
0.615976,0.1809738,-0.0255423,0.3970715,0.553586064174745,-0.0484170056127659,0.801692092936562,0.220200025526799,0.914628585143407,-0.0241929677187089,-0.0317952718108674,0,0,0,-0.920566245154082,0.158371270215734,1.14846075301356,-0.662189,-0.468490455776581,-0.00989708910161143,-1.39064542827754,0.85249,0.149395379312673,-0.969522465334046,0.488634258685115,1.96527750417417,-1.05808,-0.403297012141301,-0.465635472581752,-1.19183503980784,1.090156,0.12777389409185,-2.3332343233652,-0.690872345685036,1.59884722996208,0.844233769350776,1.04887161175953,0.630646298940724,-3.02445939286417,6.35947437897516,-0.624913251579282,-1.53801436692534,1.54573720101072,1.20926957083975,-1.40027601104044,-0.0852678797127808,0.283095526690423,-3.44534223621256,5.38707548301931,-4.43679624860511
0.632642,0.1962093,-0.0260323,0.3960131,0.514449152534968,-0.0359120106479666,0.827484245350356,0.222086065848861,0.914166566662667,-0.0294011760470417,-0.0635065402616114,0,0,0,-0.965448355094096,0.135065837262223,1.1673583399067,-0.648048,-0.440060237476977,-0.00837856691826308,-1.45264081144851,0.961138,0.182297111661505,-0.998003833907262,0.526966496760372,1.97390702786501,-1.075806,-0.406037216817055,-0.458944294623144,-1.25895416478449,1.180205,0.136112664553326,-2.69303431777356,-1.3983819124872,1.13390056961107,0.848493939757594,1.70588133322962,0.0911149755999252,-3.71987178513012,6.51914076563063,1.97418290824623,-1.70895047241182,2.30002628556682,0.517792133136007,-1.06360254410177,-0.164418857299521,0.401486736985937,-4.02730859094291,5.40315612624505,0.500346241538254
0.649308,0.2119495,-0.0262983,0.3940272,0.468915047158085,-0.0180950018197873,0.853313085816421,0.227262022855402,0.94444977799112,-0.015960638425537,-0.119158766350653,0,0,0,-1.00579110910014,0.107595288051615,1.18675512801349,-0.644417,-0.399051812911334,-0.0205830391809484,-1.51676646452996,1.063099,0.219213018708044,-1.01629487274562,0.575759946312582,1.96310024106217,-1.088816,-0.419870646298822,-0.456025142086788,-1.33413094782206,1.28185,0.116555713307163,-2.42066206684548,-1.64829888459185,1.16385384056112,0.217868714748586,2.4606038980945,-0.732297627666223,-3.84769309261033,6.11790471618865,2.21504302451329,-1.0975062305509,2.9277240820959,-0.648433145496025,-0.780631225249008,-0.83003897046485,0.175156158427684,-4.51078741375098,6.09894395775831,-1.17346401333033
0.665974,0.228494,-0.0264635,0.3897467,0.423043122883257,0.00528700153573936,0.873447253714191,0.24103207001368,0.992709708388333,-0.00991239649585988,-0.256840273610946,0,0,0,-1.01597618401326,0.0796333127101859,1.19874810437955,-0.647063,-0.356232841224731,-0.0242191340412828,-1.56397428273499,1.151727,0.196926446508327,-0.994988261632224,0.622761269828994,1.92267836753837,-1.089303,-0.464115316713306,-0.459271417285573,-1.37918936338602,1.377167,0.120288593718926,-0.611128939944867,-1.67778563191102,0.719607366258504,-0.158766350654028,2.56924107083902,-0.218174418596809,-2.83258239559769,5.31789271570862,-1.33724782189587,1.27844780471612,2.8201922186735,-2.42540942780551,-0.0292211688467481,-2.65478641632566,-0.194784303299216,-2.70361307836032,5.7192487699508,0.223981783977095
0.68264,0.2454123,-0.0267792,0.3828258,0.381911978636226,0.028996998377937,0.884989950494548,0.264754985189872,1.01513860554422,-0.0189427577103083,-0.41527061082443,0,0,0,-0.9939175566095,0.06994967934463,1.2102884111291,-0.655995,-0.332245538478014,-0.00356163853854923,-1.59578193896705,1.2339,0.15817981581694,-0.932229023314985,0.653087505731799,1.85851741829981,-1.084914,-0.524896304154318,-0.458341439095037,-1.37627646817514,1.473572,0.123682778250573,1.3235705870493,-0.581041243583097,0.692446102817051,-0.535941437657503,1.43929573663244,1.23949931013642,-1.90853571535237,4.93057722308893,-2.32489083711672,3.76570492723141,1.81964694004586,-3.84981094675127,0.263350534021359,-3.64700512666579,0.0558009234690872,0.174780703880816,5.78453138125525,0.203659218267586
0.699306,0.2627261,-0.0270627,0.3748031,0.340970877686778,0.0485759825748022,0.895981678593062,0.280349899432762,1.03886955478219,-0.0170106804272172,-0.481381255250213,0,0,0,-0.974546271458593,0.0731523289016772,1.21287346857898,-0.672018,-0.328307692127948,0.0112068026919763,-1.61701767989003,1.301512,0.132870479077445,-0.874629217154574,0.673989818090156,1.78718996650403,-1.080198,-0.56630221174238,-0.451276257573985,-1.36338957371287,1.548707,0.142872826886361,1.16232360199851,0.192166660089234,0.155109651378763,-0.96141845673827,0.236280232213258,0.886141919508309,-1.27419542319549,4.05688227529101,-1.51862094920766,3.4561266146893,1.25418890905778,-4.2798183004789,0.282971318852751,-2.48445383343711,0.423927848377086,0.773244597520313,4.50828033121325,1.15144897610634
0.715972,0.2800259,-0.0273518,0.365624,0.303320034900763,0.0644050074106016,0.905311104167365,0.290277033400003,1.03802952118084,-0.0173466938677545,-0.550768030721232,0,0,0,-0.957355192751613,0.0908290916652483,1.21369071275831,-0.707596,-0.343709442336291,0.0341085655659487,-1.62458721638208,1.359381,0.112493869341801,-0.824529988787159,0.687539883549125,1.71728063643216,-1.070467,-0.591675299257061,-0.442635381454887,-1.34344525918559,1.610275,0.124908657535059,1.03150598265813,1.06064819174194,0.0490366122243916,-2.13476539061562,-0.924141978179721,1.3741607388679,-0.454190357137262,3.47227889115564,-1.22264548995825,3.00607394500267,0.813036448996112,-4.19472759341598,0.583883355334209,-1.52244614872678,0.518473306078118,1.19670673990647,3.69422776911076,-1.07789327680922
0.732638,0.2970793,-0.0275331,0.3554376,0.265284931761959,0.0791959796287771,0.914280764823703,0.295706923936649,1.0232449297972,-0.0108784351374056,-0.611208448337929,0,0,0,-0.943291649852177,0.113498107765005,1.20800103566622,-0.758961,-0.365257675081889,0.0640640512212975,-1.62344052789738,1.406004,0.105674036316018,-0.792148238153522,0.700465554248637,1.6563606026003,-1.051465,-0.602545763877511,-0.425749422260921,-1.32004402785414,1.653564,0.101830921585676,0.843846327819233,1.36019537380033,-0.341394281296506,-3.08202328093124,-1.29294568256317,1.79740103536234,0.0688040612443837,2.79749189967599,-0.409206349800929,1.94298275732849,0.775571264821346,-3.65534824384092,1.14016560662426,-0.652253967385712,1.01319807956114,1.40413004508827,2.59744389775592,-1.38471954574479
0.749304,0.3134677,-0.0278908,0.3452169,0.218013893235897,0.0943039538181864,0.924906547061814,0.296857854625034,0.983343333733351,-0.0214628585143405,-0.613266530661228,0,0,0,-0.949975260405487,0.116886399001098,1.19178336605912,-0.81444,-0.374069316975265,0.0958219514141919,-1.63388476021802,1.448616,0.105671347235147,-0.803560643799253,0.728308395875122,1.60719947087305,-1.030789,-0.595579863443116,-0.417436631969185,-1.32586785312676,1.698989,0.0824051390253564,-0.401032674505561,0.203305606389875,-0.97309910039017,-3.3288731549262,-0.52871966238902,1.90555023358301,-0.626679006398747,2.55682227289091,-0.000161351306341667,-0.68477172961299,1.670637323082,-2.94978589507119,1.24060962438498,0.417970744893532,0.498787368998929,-0.34944349409664,2.72560902436098,-1.16559357736228
0.76597,0.3293297,-0.0282065,0.3349395,0.159744911750945,0.108998939784915,0.93630648274933,0.293139838058605,0.951758070322809,-0.0189427577103083,-0.616668666746666,0,0,0,-0.945690658271749,0.126224966826561,1.16481995765915,-0.856904,-0.370222287989988,0.11415486823142,-1.65723684381241,1.48876,0.114163596225441,-0.839598294223054,0.757790130228338,1.58326395879739,-1.016752,-0.573154135926617,-0.41536372389,-1.36208501955483,1.746401,0.0694202776235784,0.257086411480755,0.560336482987089,-1.6178692187668,-2.5479419176767,0.230830972355511,1.10001900979407,-1.40118106290579,2.40873634945399,0.50955532163048,-2.16234551924886,1.76897482018577,-1.43618817206653,0.842253690147597,1.34559747488889,0.124379459929492,-2.17311691036065,2.84483379335173,-0.779122849020642
0.782636,0.3446856,-0.0285411,0.3099411,0.100006976806085,0.121517971817191,0.944686780905433,0.287747933264644,0.921390855634227,-0.0200768030721229,-1.49996399855994,0,0,0,-0.932058205082914,0.138438595446701,1.14261521690342,-0.883367,-0.371525106940935,0.138364037585353,-1.67754549139284,1.527716,0.102521883147699,-0.89305306342788,0.798391758018975,1.57225652057259,-1.015733,-0.544338938998655,-0.412493863399243,-1.39914199253402,1.790889,0.0604097943570433,0.817979910526487,0.73284703108966,-1.33233773885375,-1.58784351374055,-0.0781722639473828,1.45260826556659,-1.21856759752979,2.33745349813992,-0.698530725893499,-3.20741444886752,2.43619511524282,-0.660472712396282,0.0611424456978341,1.72898097491672,0.172198517386088,-2.22350731904425,2.66938677547101,-0.54065062201699
0.799302,0.3596628,-0.0286965,0.2983722,0.0374809899190956,0.134539963814069,0.94968374457262,0.280347924597492,0.89866794671787,-0.009324372974919,-0.694161766470662,0,0,0,-0.923260707310883,0.153350482918425,1.12780588921711,-0.89912,-0.366230650787985,0.156866211339253,-1.69497314606055,1.563448,0.092062256617601,-0.972672186592445,0.850895436278112,1.57054583993985,-1.019442,-0.518938943632608,-0.405216397529772,-1.43909144482409,1.833955,0.0551414531498309,0.527870981161132,0.894749038264919,-0.888595204986569,-0.94521780871235,0.317680076380068,1.11017483222728,-1.0457011081072,2.1440057602304,-0.627602695913744,-4.77733848341326,3.15034670941661,-0.102644943762247,-0.222548901956076,1.52406068439019,0.436665418785023,-2.39706301992496,2.5840633625345,-0.316113116957419
0.815968,0.374178,-0.0285173,0.2514645,0.0288349836325038,-0.149805914966217,-0.950985460195605,-0.268985847316548,0.870946837873515,0.0107524300972039,-2.81457458298332,0,0,0,-0.870697480662789,0.223877918875389,1.11710502132368,-0.922938,-0.347982216999595,0.161685972071177,-1.70880053423388,1.597875,0.0930392818050657,-1.04989997820549,0.891763976644692,1.59220562340435,-1.035652,-0.505530221628482,-0.38799465101134,-1.48616043639804,1.881032,0.0468183963162154,3.15391975567585,4.23181543003505,-0.642077756716172,-1.42913716548662,1.09494982529638,0.289197211803962,-0.829676477458656,2.06570262810512,0.0586238562021269,-4.63385285089663,2.45221051041519,1.29963899342962,-0.972638905556226,0.804555502467673,1.03334612495091,-2.82425246453537,2.82473298931957,-0.499403386152374
0.832634,0.3886218,-0.0282051,0.2258221,0.108719044462456,-0.166583068126908,-0.945964386867824,-0.256089104731886,0.866662666506657,0.0187327493099721,-1.53860554422177,0,0,0,-0.845983890499291,0.270071853457082,1.09989448823432,-0.953072,-0.309741944736312,0.146089811239138,-1.74492036534562,1.632099,0.109412619459155,-1.20469248195258,0.9403388461226,1.697262555684,-1.049129,-0.496915285603377,-0.377955386428382,-1.56177358222649,1.932434,0.042033652579092,1.4828747247989,2.77174694477939,-1.03267329229358,-1.80811232449298,2.29450811612162,-0.935807082205643,-2.16727655776645,2.05352214088564,0.982439556827605,-9.28792174169517,2.91460875302463,6.30366808350263,-0.808652346093841,0.51691683817984,0.602379970176291,-4.53697022851624,3.08424336973479,-0.287096108071731
0.849299999999999,0.4031811,-0.0280455,0.165403,0.198632918170207,-0.18228792490377,-0.931055616437752,-0.24586889871064,0.873592943717749,0.00957638305532217,-3.62529101164047,0,0,0,-0.833956222131195,0.418108984505513,1.10406402363559,-0.978946,-0.265273474589743,0.123444780751323,-1.80830161775813,1.668825,0.126802664884032,-1.23955089310113,0.886262070054533,1.63060932358047,-1.033426,-0.485063543969366,-0.386203238730267,-1.66222237230674,1.986062,0.0491944043621783,0.721688969644498,8.8825831662325,0.250182131361672,-1.552502100084,2.66821493739163,-1.35875617951612,-3.80302726584135,2.20364814592584,1.04344446327116,-2.09158833244625,-3.24473635353814,-3.99935390036772,0.94221768870755,0.711132943358396,-0.494890933750458,-6.02716849155478,3.21780871234849,0.429662293476922
0.865965999999999,0.4168941,-0.0282695,0.1608229,0.291886105436578,-0.201501072787238,-0.903508326369854,-0.240567086898862,0.822812912516499,-0.0134405376215046,-0.274816992679709,0,0,0,-0.854928478011563,0.472917461487684,1.09362024036592,-1.02008,-0.221325405258362,0.0997941874775759,-1.88633349246166,1.708356,0.12929129421298,-1.39006564686504,0.92672335764366,1.67772772702364,-1.006662,-0.48267256307065,-0.406114334617784,-1.75813453752524,2.044599,0.0358809290537367,-1.25838568824959,3.28864016453688,-0.62665206226277,-2.46813872554903,2.63698963946843,-1.4190923601192,-4.68209976620284,2.37195487819513,0.149323732686197,-9.03124647569344,2.42777436632224,2.82721729528201,1.60590423616945,0.143464592506649,-1.19471354179264,-5.75496011151471,3.51236049441977,-0.798840472125384
0.882631999999999,0.4289642,-0.0288302,0.128191,0.38338103602325,-0.221893020849513,-0.862035080998544,-0.246329023145569,0.724234969398778,-0.0336433457338294,-1.95799231969279,0,0,0,-0.798657082302217,0.57999381969869,1.02192840203768,-1.109649,-0.196105390992381,0.0882450944798494,-1.97461032560867,1.752497,0.120543821979527,-1.47265213368493,0.975399401416168,1.66073669326994,-0.98477,-0.478833693042978,-0.452643909247831,-1.83423926900141,2.101966,0.0200309890036316,3.37641879931275,6.42483848619981,-4.30168236698867,-5.37435497419897,1.51326138641432,-0.69297329879554,-5.29682186169478,2.6485659426377,-0.524869328780344,-4.95538742469044,2.92067945352862,-1.01950280533423,1.31357254290171,0.230341415316908,-2.791886153249,-4.56646654723157,3.44215768630746,-0.95103444438408
0.899297999999999,0.4380215,-0.0286307,0.1031317,0.462425872852324,-0.232209936152029,-0.819427774691809,-0.246533932213532,0.543459738389535,0.0119704788191527,-1.50361814472579,0,0,0,-0.743067836139995,0.636582031749467,0.982654244461843,-1.063197,-0.19200766918592,0.0585366574732203,-2.01819019991329,1.80209,0.112335660755429,-1.55105098318762,0.991564923208878,1.67325500477734,-0.949511,-0.480062028304874,-0.47183009070347,-1.8729977071557,2.161767,1.83384184653793e-05,3.33548818926087,3.39542854018824,-2.35654371629912,2.78723148925958,0.24587314331343,-1.78257752349869,-2.61489705415954,2.97569902796112,-0.49250937382082,-4.70411913492703,0.969970106366843,0.751128735593218,2.115624624985,-0.0737030638362753,-1.15121693601575,-2.32559931322992,3.58820352814114,-1.20080706739267
0.915963999999999,0.4449221,-0.02751,0.0802095,0.530705043610689,-0.230843018969526,-0.777574063897151,-0.245850020202726,0.414052562102486,0.0672446897875914,-1.37538701548062,0,0,0,-0.632745393117932,0.609955550980225,0.89050595155903,-0.957327,-0.210444668590263,0.0162697220512986,-2.02401043573061,1.859408,0.139986086288349,-1.66380587171919,1.01571479197297,1.7676444151181,-0.901251,-0.484557751390681,-0.466007889728983,-1.88071531096134,2.220262,-0.0019205236903316,6.61961136577841,-1.59765275226461,-5.52911873891836,6.35245409816392,-1.10626421482919,-2.5361175700181,-0.349228118163597,3.43921756870275,1.65909189565101,-6.76556393445156,1.44905008784893,5.66359116409229,2.89571582863314,-0.269754175315448,0.349346032310485,-0.463074751328514,3.50984039361573,-0.116336379983018
0.932629999999999,0.4505193,-0.026068,0.0606284,0.575635966217653,-0.222796986924714,-0.747086956155709,-0.246709985521332,0.335845433817354,0.0865234609384375,-1.17491299651986,0,0,0,-0.484512107709738,0.617645917664957,0.83518022395286,-0.809352,-0.270751288940985,-0.011615584961322,-1.97460864261974,1.924745,0.178245371818671,-1.63454625568195,0.990517578778477,1.75234520095386,-0.86138,-0.510627713165483,-0.413189106753938,-1.82610518295407,2.280641,0.012992190636652,8.89435289860761,0.461440458702228,-3.31967644342793,8.87885515420617,-3.61854196272182,-1.67318534817116,2.96422615569846,3.9203768150726,2.29564895777766,1.75564718812189,-1.51189326740012,-0.917989569437555,2.39235569422777,-1.56426027689917,3.16925374865266,3.27673874998601,3.62288491539663,0.894798651565081
0.949295999999999,0.4546941,-0.0241185,0.0584962,0.606731621797299,-0.208008870338855,-0.725471547781442,-0.249599844413358,0.250498019920796,0.11697467898716,-0.127937117484699,0,0,0,-0.285574858785056,0.609533160312328,0.806275664273413,-0.647184,-0.369593347800331,-0.0132233179663692,-1.8811493305834,1.982126,0.183928728547696,-1.53950957537307,0.942042859751014,1.70849472927474,-0.80281,-0.539145503585264,-0.311170769187604,-1.74130545577349,2.329577,0.0816549379354849,11.9367124039771,-0.486784912554226,-1.734342954485,9.73046921876875,-5.93076076199124,-0.0964678390163928,5.60778303350134,3.4429977199088,0.341015044343287,5.70242891568936,-2.90859948562724,-2.63113354608852,3.51434057362295,-1.7111358706217,6.12134510778436,5.08818715832132,2.93627745109804,4.11992963511538
0.965961999999999,0.4586232,-0.0229719,0.0591591,0.624126268150916,-0.194642083626432,-0.711174305550417,-0.258480111053936,0.235755430217206,0.0687987519500781,0.039775591023641,0,0,0,-0.0361748519329053,0.609511747767815,0.760333599905333,-0.535525,-0.501885301567462,0.0363926340465723,-1.7696303494516,2.029449,0.172183043094804,-1.42207647949956,0.894548235033987,1.66009919294105,-0.783726,-0.556472474240857,-0.181633345493883,-1.62730803684381,2.358946,0.194164519194104,14.9645989950888,-0.00128480406296515,-2.75663412744991,6.69980799231969,-7.93783473941744,2.97707620382464,6.69140652416918,2.83949357974319,-0.70476931794623,7.04626760311496,-2.8497914746806,-2.90384833395494,1.14508580343214,-1.0396598257286,7.77255632387619,6.84011874053039,1.76221048841954,6.75084490931352
0.982627999999999,0.4629842,-0.0233646,0.0534352,0.642647761493859,-0.189775929568377,-0.693365742670873,-0.265014901644905,0.261670466818676,-0.0235629425177007,-0.343447737909517,0,0,0,0.185618338689939,0.610906309886137,0.666524300623581,-0.482532,-0.60950545869457,0.107487079431603,-1.6782741395,2.047216,0.152033123606626,-1.30395495581974,0.836709177674402,1.57608084579707,-0.77557,-0.532528101425371,-0.109991120298906,-1.54106247672157,2.388401,0.182377529846432,13.3081237623211,0.083677074182301,-5.62878310822946,3.17970718828753,-6.45746772633556,4.2658373565961,5.48159186077046,1.06606264250571,-1.20904353103197,7.08757492378577,-3.47048226086556,-5.04130248073823,0.48937957518301,1.43671983772267,4.29870545991703,5.17494060495828,1.76737069482779,-0.707247650766349
0.999293999999999,0.4668944,-0.0253071,0.0553042,0.649281050275457,-0.193157014956631,-0.685526053081998,-0.266793020658451,0.234621384855393,-0.116554662186487,0.112144485779431,0,0,0,0.445401232901101,0.621719208946266,0.537791438525473,-0.474248,-0.710062082505888,0.209380857174972,-1.57734661881636,2.026134,0.133405794552981,-1.16650285923998,0.743156944654015,1.47807593542949,-0.76248,-0.495473017953282,-0.0244070968448025,-1.43701519692693,2.400327,0.166816627848973,15.587597156556,0.648799895603587,-7.72428069711437,0.497059882395297,-6.03363877423005,6.11387121945092,6.0558934767575,-1.26497059882397,-1.11768445059669,8.24745569301339,-5.61335851556379,-5.88052984324825,0.785431417256686,2.2233939440831,5.1352468171189,6.24308651113891,0.715588623544935,-0.933691467506266
1.01596,0.4715662,-0.0270508,0.0558782,0.645726700542052,-0.210939902175905,-0.693636678323637,-0.239602888883347,0.280319212768508,-0.104626185047402,0.0344413776551065,0,0,0,0.572477493352047,0.602067388953939,0.466379790292948,-0.457111,-0.721004824181638,0.292983612636809,-1.42740286136285,1.964773,0.126285234482198,-1.10369328353067,0.705857340412852,1.39707994939321,-0.750478,-0.495305689321807,0.0702766892430674,-1.31612021617163,2.406838,0.0986153769839742,7.62488062228163,-1.17915636579424,-4.28487028876303,1.02826113044522,-0.656590764175536,5.01636598234955,8.99698532662374,-3.68180727229088,-0.427250694274795,3.76872529157052,-2.23806577710088,-4.85995356031947,0.720148805952242,0.0100401194932934,5.68125441544881,7.25398900487855,0.39067562702509,-4.09223874144956
1.032626,0.4746854,-0.0290969,0.0563108,0.662477024822352,-0.226812008498419,-0.677533025386486,-0.2250100084309,0.187159486379458,-0.122770910836434,0.0259570382815307,0,0,0,0.690783864914486,0.567311283469299,0.354934644826327,-0.446877,-0.723741524727502,0.343326704001926,-1.35235097698275,1.878301,0.11724535200568,-1.05761406392894,0.657210098298215,1.36072787620611,-0.731912,-0.455492708796602,0.0858934955753871,-1.24455690583461,2.387573,0.0498542339241296,7.098666240396,-2.0854497470683,-6.68697620704555,0.614064562582501,-0.164208601095927,3.02070631015943,4.5032931945337,-5.18852754110165,-0.542414645176873,2.76486377065487,-2.91895128492961,-2.18121163969182,1.11400456018241,2.38887438648771,0.937045861773648,4.2939703790359,-1.15594623784951,-2.92578561501528
1.049292,0.4771193,-0.0311066,0.0568834,0.683901452818825,-0.238634158002353,-0.656839434900759,-0.209510138719013,0.14603984159366,-0.120586823472939,0.0343573742949718,0,0,0,0.783757156144039,0.531846848097379,0.292239824300726,-0.444308,-0.717115179830201,0.352645763909654,-1.28895022333883,1.77707,0.0976231885061085,-1.0229576962765,0.625385680642106,1.3376104355877,-0.715612,-0.408124390564322,0.0781622734057939,-1.20266437196406,2.355756,0.0256875234152047,5.5786206185979,-2.12795124036482,-3.76183970512427,0.154146165846636,0.397596597701966,0.559165961102085,3.80419738653041,-6.07410296411857,-1.17737690505047,2.07946523775547,-1.90954144102418,-1.3871019211809,0.978039121564862,2.84221278244813,-0.463891885851021,2.51365257833608,-1.90909636385457,-1.45006063296081
1.065958,0.479577,-0.0330939,0.0574707,0.706312547190078,-0.249748193483372,-0.633963491140265,-0.191934148694034,0.147467898715952,-0.119242769710788,0.0352394095763834,0,0,0,0.844618283524702,0.510224920933762,0.301960205457488,-0.442128,-0.705405937129345,0.342021342551687,-1.23943250254238,1.675183,0.079018464984861,-1.00357613350497,0.60742674905079,1.33947315459378,-0.699715,-0.367560410056737,0.0661675152613424,-1.17952651459083,2.318273,0.00737594791364937,3.65181371538839,-1.29736752451802,0.583246199253736,0.130805232209286,0.702582665358004,-0.637490781109227,2.97118209507092,-6.11346453858153,-1.11632806439743,1.16294028390304,-1.07757899863891,0.111767611069125,0.953858154326176,2.4339361879026,-0.719714277238185,1.38832697547335,-2.24906996279851,-1.0987384796325
1.082624,0.4822258,-0.03472,0.0577857,0.726687634975809,-0.257283870763128,-0.614151691504006,-0.168960915128842,0.158934357374295,-0.0975699027961117,0.018900756030241,0,0,0,0.851655451391956,0.520979944305754,0.402651812444506,-0.498797,-0.68656428559134,0.318481823987508,-1.17614066403196,1.569402,0.0679823705446237,-0.996913070991819,0.612607668109955,1.35831975997842,-0.68518,-0.345051903555932,0.0651987767364048,-1.16547311639869,2.279671,-0.0232223008495351,0.42224696191372,0.645327215408134,6.04173808874463,-3.40027601104044,1.13054431405284,-1.41242761095521,3.79766221711382,-6.34711388455539,-0.662192154100404,0.399799742779062,0.310867578253014,1.13084155674045,0.872134885395414,1.35056441262482,-0.0581266365617162,0.843237621033216,-2.31621264850594,-1.83596836452565
1.09929,0.4844826,-0.0363776,0.0658714,0.750736245886806,-0.260262085243004,-0.588106192620983,-0.150963049444558,0.135413416536662,-0.0994599783991361,0.485161406456258,0,0,0,0.839973167673225,0.53354453781665,0.411529062461318,-0.546306,-0.685107691544751,0.28829860559481,-1.13670188709393,1.475032,0.0922148297178576,-0.996667760551669,0.596358603615182,1.38273256722175,-0.676967,-0.318176605297927,0.0581391520426964,-1.17332470251,2.235552,-0.0403992232618457,-0.700965061726304,0.753905766884469,0.532656307261004,-2.85065402616104,0.0873991387609064,-1.81106554618374,2.36642127313263,-5.66242649705989,1.45400571062246,0.0147192151775987,-0.974982869001116,1.46482702768072,0.492799711988481,1.61258239877623,-0.423594425399519,-0.471114011239595,-2.64724588983558,-1.03065657100148
1.115956,0.4868493,-0.0384503,0.074088,0.771150808309669,-0.266319933798998,-0.561616860394983,-0.137791965748091,0.142007680307209,-0.124366974678987,0.493015720628825,0,0,0,0.796283862947658,0.566493131715336,0.483863839653332,-0.537246,-0.706513347034051,0.248553438352407,-1.13740991794405,1.425247,0.111611247183074,-1.00900117203053,0.569206073144378,1.39726882535555,-0.666352,-0.292030855699462,0.0318256013491479,-1.18111539825362,2.19055,-0.0613612502903741,-2.62146314205971,1.97699471370971,4.34026024193054,0.543621744869792,-1.28439070498621,-2.38480542676124,-0.0424835503489176,-2.98721948877955,1.16383160117702,-0.740034290103552,-1.62921699692813,0.872210376443271,0.636925477019077,1.56880772821703,-1.57887619666078,-0.467460443034669,-2.70022800912038,-1.25777193258901
1.132622,0.4891866,-0.0410599,0.0896294,0.792509020794644,-0.274494007202448,-0.527577013843093,-0.135074003544207,0.140243609744389,-0.156582263290531,0.932521300852035,0,0,0,0.781013113310115,0.596809960057856,0.480588409267944,-0.543717,-0.743574234211046,0.213473188368685,-1.18050999077077,1.404613,0.117956744130704,-1.02891499927509,0.509995402640724,1.38831609081285,-0.653361,-0.251318171070917,-0.0280128302605094,-1.20666234202311,2.144248,-0.0649495987677942,-0.916281629517757,1.81908246384974,-0.196533684470667,-0.388275531021241,-2.2237421803069,-2.1048991949911,-2.58610781391572,-1.23808952358095,0.380745046659682,-1.19487742977074,-3.55278234151289,-0.537185559984297,0.779491179647191,2.44285879206439,-3.59044951456002,-1.53287794128676,-2.77823112924516,-0.215309521026046
1.149288,0.4919075,-0.0416129,0.1109031,0.810328290286386,-0.28706610283657,-0.500963179461575,-0.0999850358179458,0.163260530421222,-0.03318132725309,1.27647305892236,0,0,0,0.739381495177703,0.611582920630042,0.497895960383563,-0.557564,-0.683602464953253,0.166681022511053,-1.17087269165934,1.393207,0.13475176073498,-1.08169728645611,0.493121589709739,1.40168616538639,-0.647413,-0.306982889474722,-0.0268354489888207,-1.21333219083498,2.103611,-0.0655610181723394,-2.49799700782508,0.886413090854762,1.03849460672136,-0.830853234129362,3.59845009347131,-2.80764225714824,0.578261077129083,-0.684387375495008,1.00774130590877,-3.16706391341739,-1.01246927463012,0.802236563874815,0.356894275771028,-3.34001670489651,0.0706457021294072,-0.400206936989663,-2.43831753270132,-0.0366866317379843
1.165954,0.4940334,-0.0423808,0.1122793,0.82938247065561,-0.284417161400243,-0.473188268523535,-0.0855830485664254,0.127559102364092,-0.0460758430337215,0.082575303012121,0,0,0,0.715637995347035,0.617247204593598,0.498660093969335,-0.546183,-0.675686907426585,0.113195409080006,-1.18351969214591,1.383305,0.0582296699017891,-1.13177963940082,0.440396136405077,1.41555173837157,-0.639015,-0.305565868701197,-0.0502141719941153,-1.23190063786623,2.062616,-0.0748167815540865,-1.42466697651913,0.339870632638712,0.0458498491403314,0.682887315492618,0.474952449698071,-3.20926517646984,-0.758850383209567,-0.594143765750635,-4.59150911035585,-3.00506137913764,-3.1636537444295,0.831967657816939,0.503900156006241,0.08502464739741,-1.40277949149734,-1.11415138793107,-2.45979839193568,-0.555368017625532
1.18262,0.4965352,-0.043176,0.1137339,0.846126480766242,-0.281417159900291,-0.445651253217554,-0.0791790449892691,0.150114004560182,-0.0477139085563424,0.0872794911796472,0,0,0,0.676634710049051,0.613129698436306,0.516333299152242,-0.536097,-0.666586559118505,0.0481681150191875,-1.22177374627762,1.40423,0.0340444756575847,-1.18686141295868,0.404726142338293,1.43637123154807,-0.646192,-0.289713387055421,-0.0900931340431516,-1.24774423090188,2.03104,-0.0959348574060143,-2.34029072950824,-0.247060251847608,1.06043472836352,0.60518420736829,0.54604274019443,-3.90179371539775,-2.29533506130533,1.25555022200889,-1.45116970144032,-3.3050386150162,-2.14028525541725,1.24921955937289,-0.430637225489019,0.951186946224417,-2.39283343627963,-0.950653608283303,-1.89463578543141,-1.26713523652513
1.199286,0.4988788,-0.0436443,0.1155448,0.865670776259193,-0.275409928817697,-0.41132689368867,-0.0746569807041966,0.140621624864995,-0.0280991239649585,0.108658346333854,0,0,0,0.628645964489809,0.601176765199605,0.558364709936823,-0.528087,-0.63026143748434,-0.0263456740229504,-1.27902634059395,1.43292,0.0479477781798754,-1.23305073035046,0.385038413923003,1.46093186215492,-0.655059,-0.273035794080924,-0.138075983567144,-1.26866440982332,2.006067,-0.116620793620678,-2.87943991115094,-0.717204682389382,2.52198552649592,0.480619224768995,2.17959448182917,-4.47100618277558,-3.43529307070259,1.72146885875434,0.83423152059827,-2.77146990230305,-1.1813109573557,1.47369678428225,-0.532041281651264,1.00069560629404,-2.87908613488495,-1.25526094572393,-1.49843993759751,-1.24120582111269
1.215952,0.5011783,-0.0439698,0.1177897,0.884152797786902,-0.266532240496813,-0.378681341690956,-0.0619260558769892,0.137975519020761,-0.0195307812312492,0.134699387975519,0,0,0,0.578895801025736,0.590792371221614,0.608618484647548,-0.512289,-0.569548774975875,-0.0861925021994803,-1.33461316393853,1.472821,0.0883887645206393,-1.26252803877202,0.372803207659821,1.47221105885751,-0.671548,-0.275762620041189,-0.156323584451417,-1.28237599796446,1.98628,-0.0733908437024229,-2.98512921301289,-0.62308856222192,3.01534709652737,0.947917916716667,3.64290546672657,-3.59095332872495,-3.33534281438748,2.39415576623065,2.42655624269554,-1.76870925366414,-0.734141741460564,0.676778873310095,-0.989379575183013,-0.163616102259968,-1.09489984905032,-0.822728197596333,-1.18726749069961,2.59390075112537
1.232618,0.5039727,-0.0452081,0.120862,0.89832544940808,-0.25744812879438,-0.351410175801067,-0.0569450284880673,0.167670706828272,-0.0743009720388818,0.184345373814953,0,0,0,0.55659530479797,0.592754877745281,0.646091651592845,-0.489698,-0.538203519888208,-0.115310174300426,-1.40337018043303,1.537688,0.111633611596621,-1.25842102755139,0.351099605352128,1.46572438291468,-0.706571,-0.256005747838364,-0.164458669060398,-1.305400831993,1.966306,0.0711545803502018,-1.33808329699786,0.117755101624093,2.24847995591604,1.35551422056882,1.88079053688147,-1.74713021126517,-4.12558601311051,3.89217568702748,1.39474661442345,0.246430530459475,-1.30226822919075,-0.389216125214524,-2.10146405856234,1.1854597505595,-0.488124601522947,-1.38154530352446,-1.19848793951758,8.67307236605212
1.249284,0.5068532,-0.0465976,0.1249416,0.914881904293966,-0.242779239969553,-0.31660931294519,-0.0617080609939128,0.172836913476543,-0.083373334933397,0.244785791431657,0,0,0,0.536510697755149,0.589382082237561,0.667792022853002,-0.441493,-0.522173232310666,-0.147042596718285,-1.49203668321808,1.608557,0.135891509757694,-1.22986981311588,0.317036152256363,1.43614522890361,-0.732464,-0.207560572000866,-0.15646143437456,-1.37651410584992,1.988914,0.049327075056945,-1.20512462755438,-0.202375825496271,1.30207435858376,2.89241569662786,0.961855728881668,-1.9040215059318,-5.32020297522182,4.2523100924037,1.45553211094884,1.71314139178607,-2.04388894130354,-1.7748202334738,-1.55364214568583,2.90682682332285,0.479853275281337,-4.26696711009982,1.35653426137045,-1.30970270570363
1.26595,0.5104505,-0.0479003,0.1363495,0.928502502549811,-0.226508878646655,-0.287338846056674,-0.0633499660599163,0.215846633865349,-0.0781651266050644,0.684501380055203,0,0,0,0.511296688809625,0.57412462384663,0.707658623419928,-0.382817,-0.506299904168729,-0.159851418725029,-1.56797305291621,1.678403,0.172041597754008,-1.17979058134252,0.29469499851074,1.40902603288586,-0.751568,-0.173765269162122,-0.131414812759047,-1.43244749055923,2.025587,-0.0245623489624025,-1.51290105277354,-0.91548412282077,2.39209171768432,3.52070082803312,0.952437786027653,-0.768560062807127,-4.55636443646533,4.19092763710549,2.1690920434606,3.00487410136566,-1.34052284565122,-1.62721684973893,-1.14628585143406,2.02779928229591,1.50285741122722,-3.35613732805176,2.20046801872073,-4.43354278287217
1.282616,0.5146617,-0.0496524,0.1339184,0.936848110714374,-0.217184025666267,-0.266218031460983,-0.0653810077265644,0.252682107284296,-0.105130205208208,-0.145871834873396,0,0,0,0.501127713671654,0.557966740514561,0.741157726963732,-0.343277,-0.501896522287929,-0.135121741265351,-1.63265660085045,1.739664,0.221791254721245,-1.11024231695911,0.279847226541986,1.3812812385101,-0.761343,-0.146461208116457,-0.123281856785561,-1.45015905713958,2.049221,-0.0612249878406638,-0.610162914794838,-0.969511780395317,2.01002661369276,2.37249489979599,0.264213481387297,1.48384000118073,-3.88116812277963,3.67580703228129,2.98509882198711,4.17306278551595,-0.890901954203407,-1.66475425271559,-0.586523460938436,1.63830919510772,0.487996878284254,-1.0627365042809,1.41809672386898,-2.19984632654874
1.299282,0.5187658,-0.0513793,0.1525902,0.943629809388213,-0.211302957317124,-0.246377950232029,-0.0648979868907054,0.246255850234006,-0.10361814472579,1.12035281411257,0,0,0,0.484148361681756,0.536690957420078,0.7790075215953,-0.303997,-0.49300598887224,-0.103653053520659,-1.6801808759942,1.779433,0.270016687526949,-1.03753412742606,0.275690169326741,1.35862039299328,-0.758108,-0.128599161883714,-0.130130134619893,-1.44847748480945,2.057416,-0.0781527858398573,-1.01880187146876,-1.27659804959096,2.2710785210349,2.35689427577103,0.533453343075014,1.88819679255319,-2.85157057144768,2.38623544941797,2.89364171401077,4.36266587861817,-0.249433410251114,-1.35970511921432,0.194107764310572,1.07176564459037,-0.410913106584167,0.100898375742457,0.491719668786735,-1.01570850829194
1.315948,0.5224954,-0.0528654,0.1578752,0.952178363633178,-0.202658077394324,-0.220414084175273,-0.0608580232414401,0.223784951398056,-0.0891695667826711,0.317112684507379,0,0,0,0.481675513298251,0.460270951295243,0.817585265050089,-0.262884,-0.470223469997441,-0.0939299079554275,-1.70667201108562,1.793985,0.293108805839441,-0.971580961638154,0.288207031758986,1.34822159183868,-0.74527,-0.123167391640933,-0.140006505339828,-1.45383899271922,2.056118,-0.0878934167309528,-0.148376838083799,-4.58538378284142,2.31475719757528,2.46687867514701,1.36700581272045,0.583412070396703,-1.58953168675257,0.873154926197042,1.3855825220504,3.95734824120406,0.751041787606193,-0.623953027396677,0.770310812432498,0.325919251336911,-0.59260594743402,-0.321703342719654,-0.0778831153246009,-0.584461231915011
1.332614,0.5262355,-0.0545783,0.1772652,0.960018483409393,-0.19488389513203,-0.192447896442853,-0.0578669688615031,0.224414976599065,-0.102778111124445,1.16344653786152,0,0,0,0.494450686177343,0.39383774568409,0.873513399600149,-0.227464,-0.44807718464974,-0.0957827855824809,-1.718457692959,1.797095,0.279438746211476,-0.910312860823236,0.299369549101111,1.36209611083996,-0.731995,-0.116853578866251,-0.146719561377529,-1.46212176921158,2.057913,-0.126599102685025,0.766541034386917,-3.98615178274051,3.35582230589585,2.12528501140046,1.32883027407303,-0.111177104707388,-0.707169199170615,0.186607464298582,-0.820236387133364,3.67623309821903,0.669777831640791,0.832504440254191,0.796531861274453,0.378843920237692,-0.402799474240978,-0.496986469000259,0.107704308172326,-2.32243405460651
1.34928,0.5295766,-0.056196,0.1967742,0.968387366990798,-0.184396069880776,-0.158247059971058,-0.0564080213770083,0.200474018960758,-0.0970658826353054,1.17058682347294,0,0,0,0.50552520618241,0.356568136346177,0.939076294077801,-0.202439,-0.423046261288393,-0.121025850427648,-1.72135848964783,1.781283,0.252945111667867,-0.864699137106248,0.308120920348232,1.40133347673751,-0.723557,-0.108601019966899,-0.154651401046295,-1.48480064392725,2.055057,-0.15043605424042,0.664497780215217,-2.23626601091519,3.93393102590012,1.5015600624025,1.50191547829997,-1.51464447648906,-0.174054763520762,-0.948757950318022,-1.58968165988296,2.73693290033532,0.525103278958435,2.35433612729795,0.506300252010077,0.495173340894779,-0.475929417302694,-1.36078691441704,-0.171366854674185,-1.43027430429587
1.365946,0.5326384,-0.0579005,0.2234435,0.975520993298659,-0.174675998800063,-0.120350999173249,-0.0579889996016446,0.183715348613945,-0.102274090963638,1.60022200888035,0,0,0,0.508643041669044,0.320417687373409,0.965384777010327,-0.193303,-0.399672638648686,-0.155789915454939,-1.72309096024182,1.752625,0.188774275234546,-0.841058718218499,0.325633622926165,1.45180530465943,-0.72574,-0.0890709495627665,-0.163723023276565,-1.51545512603009,2.047441,-0.1803057717084,0.187077612302494,-2.16911370291422,1.57857211883632,0.548181927277091,1.40247345732073,-2.08592733873105,-0.103952393734714,-1.71954878195127,-3.85040420216734,1.41848187253984,1.05080418684341,3.02843081254807,-0.130985239409579,1.17185109829187,-0.544319106580418,-1.83934249987009,-0.456978279131169,-1.79225473826831
1.382612,0.5358353,-0.0597079,0.2358818,0.979534275644412,-0.172124048436317,-0.0852060239772768,-0.0602150169447189,0.191821672866918,-0.108448337933517,0.746327853114124,0,0,0,0.501838823291301,0.323782707521694,0.938810067387413,-0.196454,-0.37905101413808,-0.172276487951712,-1.72997557133966,1.727334,0.0974451068875259,-0.816964890334584,0.338921812106535,1.49938273119276,-0.742132,-0.0692065385292438,-0.185924063778049,-1.53522227240669,2.037309,-0.217794458788827,-0.408269433441893,0.20190928526853,-1.5945463592292,-0.189067562702507,1.23734696451492,-0.989233919163141,-0.413093189598424,-1.51752070082804,-5.47996929959318,1.4456875005349,0.797323243751973,2.85475978239069,-0.983559342373693,1.1919123385049,-1.33211571471765,-1.18607622564512,-0.607944317772713,-2.2494112012737
1.399278,0.5391029,-0.0614446,0.241339,0.981591601201499,-0.172160930054902,-0.0517609789706831,-0.0644929737979612,0.196063842553698,-0.10420616824673,0.327445097803914,0,0,0,0.492112379911381,0.330953261998401,0.918660954366415,-0.187205,-0.367988814562818,-0.165511168803129,-1.75045826110522,1.715269,-0.00516603467303448,-0.790233490637361,0.354578627236136,1.53937791481167,-0.76693,-0.0439000599120858,-0.210064587483569,-1.54791121229503,2.021346,-0.259793006460552,-0.583609947193082,0.430250478621575,-1.20899514106549,0.554962198487938,0.663758524856714,0.405935386330455,-1.22901054635523,-0.723928957158286,-6.15691477022443,1.60394813975898,0.939446485635465,2.39980700941506,-1.4879395175807,1.51844945500768,-1.44848936190568,-0.761366847974324,-0.95781831273252,-2.52001366084993
1.415944,0.5422207,-0.0629153,0.2678669,0.983128930224885,-0.171017987862426,-0.0199259985858021,-0.0617519956173066,0.187075483019324,-0.0882455298211928,1.59173766950678,0,0,0,0.501304297521309,0.303484359395102,0.919193772560712,-0.17142,-0.348089729026261,-0.146803196644066,-1.78025093652348,1.712381,0.00635057770295133,-0.758159802367719,0.387004581301014,1.56073041426948,-0.804539,-0.0345865111823914,-0.226130050872793,-1.55391983494495,2.002576,-0.303685116843385,0.551537118080416,-1.64820008420135,0.0319703704726364,0.947137885515422,1.19399289190908,1.12252323047297,-1.78763203037647,-0.173286931477259,0.69102438353449,1.92449827610956,1.94563506929545,1.28120121551758,-2.25663026521061,0.558835277192752,-0.963966362007925,-0.360531780266669,-1.12624504980199,-2.63363196824868
1.43261,0.545132,-0.0640787,0.2733696,0.98525389781686,-0.162852983110111,0.00773599919768022,-0.0519019946171146,0.174684987399493,-0.0698067922716906,0.330175207008282,0,0,0,0.496712312625946,0.284636076759208,0.935467115079193,-0.164654,-0.315222089120957,-0.138935589003334,-1.79829207626379,1.706203,-0.00653587331638854,-0.729430401533128,0.431605389578955,1.5769130094581,-0.83677,-0.0465442626871342,-0.222684424963588,-1.55429793483127,1.983392,-0.339743278916918,-0.275530114926417,-1.13094219584145,0.976439608693201,0.405976239049562,1.97213727980946,0.472075341457585,-1.08251168488601,-0.370694827793113,-0.773217989879988,1.72383300339561,2.67615554289821,0.970994551098983,-1.9339373574943,-0.717493790036171,0.206745824385272,-0.0226869006551785,-1.15108604344173,-2.16357626746269
1.449276,0.5479887,-0.0649999,0.2789633,0.987746081028272,-0.147230012077794,0.0315110025849579,-0.0410860033704288,0.171408856354257,-0.0552742109684394,0.335635425417015,0,0,0,0.479854805444509,0.235710071584103,0.939447010268241,-0.160675,-0.282067674118661,-0.152493965798556,-1.79766212971209,1.691503,0.00809901992732061,-0.702920207858993,0.497357704907035,1.57957414726011,-0.866785,-0.0646376498080669,-0.200934213192669,-1.55214653199673,1.963765,-0.369939765018282,-1.01149089052181,-2.93567773761581,0.238803263473396,0.238749549981998,1.98934447391671,-0.813535149119257,0.0377983050336491,-0.882035281411253,0.87812871977134,1.59067524745798,3.94529673155403,0.159674655107034,-1.80097203888156,-1.08564665312208,1.3050649088515,0.129089333645997,-1.17766710668427,-1.8118616405475
1.465942,0.5506984,-0.065821,0.2847159,0.989512148364989,-0.129251019379576,0.0549140082336697,-0.0338280050720869,0.162588503540137,-0.0492679707188282,0.345169806792271,0,0,0,0.460856984368387,0.159529492735043,0.923610296448709,-0.162601,-0.257842571275452,-0.178228032653057,-1.78922647233762,1.669615,0.0213068968744019,-0.676575291955719,0.573890552264039,1.57767587259423,-0.88965,-0.0749521913732349,-0.175484553134308,-1.55400446993031,1.940966,-0.390404793575963,-1.13991486116177,-4.57101757164645,-0.950240838805472,-0.115564622584902,1.45356431316505,-1.54410577550111,0.506159688855831,-1.31333253330133,0.792504316997558,1.58075818452381,4.59215452760139,-0.11390103599412,-1.37195487819513,-0.618897249800075,1.52704068512909,-0.111480735244005,-1.36799471978879,-1.22795083149413
1.482608,0.5532534,-0.0666848,0.3118066,0.990115243240652,-0.11562002840426,0.07396601817116,-0.0288590070897643,0.153306132245295,-0.0518300732029288,1.62550702028081,0,0,0,0.429483650496284,0.104854641937996,0.886408858800268,-0.179776,-0.246657743935509,-0.196036523640883,-1.76941849005343,1.640387,0.00618207875491509,-0.649139470813038,0.629174686718304,1.57206991130406,-0.893848,-0.0771260573857115,-0.158494923720619,-1.54431961714234,1.910815,-0.4068213823226,-1.88247533133944,-3.28062227271372,-2.23217554592832,-1.03054122164887,0.671116485056002,-1.06855220135763,1.18852647811072,-1.753750150006,-0.907525388184737,1.64621511716557,3.31718075448608,-0.336371132256076,-0.25189007560302,-0.130437178235726,1.019418541563,0.58111441185445,-1.80913236529461,-0.985034726187257
1.499274,0.5560436,-0.0679546,0.318038,0.989806472312534,-0.110432941125785,0.085840954236311,-0.026814985704345,0.167418696747868,-0.0761910476419049,0.373898955958238,0,0,0,0.387492564287179,0.0802324968426551,0.835486186869511,-0.198998,-0.256180650592233,-0.195804984591448,-1.74091656614496,1.612133,0.00774273935631086,-0.61374677095506,0.665672866737743,1.55970418960228,-0.895681,-0.0642388374117061,-0.156176762573216,-1.51394388668999,1.873017,-0.42567800616376,-2.5195659551845,-1.47738780123253,-3.0554825351468,-1.15336613464539,-0.571397255293634,0.0138928986820448,1.71018384186217,-1.69530781231249,0.093643381819019,2.12364693735616,2.18997840030232,-0.741972981025792,-0.109984399375973,0.773264129005486,0.139095232653484,1.82261673181036,-2.26797071882875,-1.1314426881771
1.51594,0.5583725,-0.0688093,0.3310874,0.989040167461823,-0.101856017246008,0.104502017694022,-0.0224550038020254,0.139739589583581,-0.0512840513620545,0.782995319812792,0,0,0,0.339186037711551,0.0564435910828884,0.805065828510083,-0.224545,-0.247408242034152,-0.209262448797366,-1.72240976813647,1.575384,-0.00174164822335737,-0.588116171105836,0.705136297625664,1.54406126078896,-0.893354,-0.060262840354592,-0.143185906323559,-1.49906421261149,1.831145,-0.442978115820765,-2.89850753483911,-1.42739144124365,-1.82529451334625,-1.53288131525261,0.526365568107581,-0.807480151561135,1.11045229860087,-2.20502820112805,-0.569086018220822,1.53789750685371,2.36790056929803,-0.938613273330038,0.139625585023399,0.238569366201492,0.779482554281594,0.892816157355854,-2.51242049681987,-1.03804810134438
1.532606,0.5605369,-0.0695667,0.3509506,0.988048691452697,-0.0933379708524697,0.121616962021522,-0.0160349949926006,0.129869194767795,-0.0454458178327136,1.19183967358694,0,0,0,0.284064133187221,0.0762653195208785,0.823700059606676,-0.261204,-0.233233233257814,-0.220778509395775,-1.70262453737362,1.535955,-0.00526397697639902,-0.567495932578064,0.734500452157452,1.52338131400551,-0.887696,-0.0604265742606469,-0.125423313079714,-1.4822336015468,1.786955,-0.459195600571426,-3.30744656932257,1.18935128033062,1.11809858973921,-2.1996279851194,0.850534547962162,-0.690991275555551,1.1871613322242,-2.36583463338533,-0.211348179109663,1.23726380221843,1.76191974869726,-1.24084644086458,0.339493579743186,-0.00982442734038202,1.06579822655976,1.00987705896419,-2.65150606024241,-0.973088008559958
1.549272,0.5626362,-0.0704214,0.3636094,0.987114232156956,-0.0874630205702116,0.133662031435643,-0.0094960022333413,0.125963038521536,-0.0512840513620545,0.759558382335295,0,0,0,0.259882825059884,0.0703239734928622,0.80227374261831,-0.303955,-0.224003039724164,-0.222520579385383,-1.67778321156499,1.497048,-0.00384352070374316,-0.546943736560885,0.74822642808596,1.50212108930653,-0.879453,-0.0588269316894641,-0.111482523130755,-1.45698694417358,1.742258,-0.471162958521849,-1.45093652510117,-0.356495021481835,-1.28563044451973,-2.56516260650426,0.553833765369622,-0.104528380511677,1.49053917008477,-2.33451338053522,0.0852307855907752,1.23318108827427,0.823591499370408,-1.27566450851899,0.49459978399136,0.0959823935667107,0.836480856171769,1.51486003679462,-2.68192727709108,-0.718070199833415
1.565938,0.5647124,-0.0712208,0.3762024,0.986491967869957,-0.0811239973577914,0.142289995365615,-0.00245999991987781,0.124576983079328,-0.0479659186367458,0.755610224408974,0,0,0,0.23012410864035,0.0823818226498956,0.769232400571659,-0.343279,-0.214999274289574,-0.223743772966183,-1.64634191902227,1.456276,0.001305807108141,-0.5205481855396,0.759057620931951,1.46998815956603,-0.867274,-0.062304788808429,-0.0968135911819789,-1.42717773178498,1.69714,-0.476265711017351,-1.78559440894844,0.723499889417576,-1.9825598251921,-2.35953438137526,0.540247535976852,-0.0733945506300254,1.88655301468399,-2.44641785671427,0.308972027594153,1.5837964131336,0.649897566662139,-1.92805290654631,0.730769230769234,-0.208679774328868,0.880171123771518,1.78862428828725,-2.7071882875315,-0.306177396825991
1.582604,0.56686,-0.072142,0.3885602,0.986035267719208,-0.0812939396269155,0.145305892088329,0.00345599743339753,0.128861154446173,-0.0552742109684386,0.741497659906398,0,0,0,0.205993422348403,0.0947689297496131,0.745720419205898,-0.373939,-0.21722193038067,-0.208214110261549,-1.61115011976118,1.420019,0.00604477200773055,-0.485622980304114,0.773654281570985,1.42559201048067,-0.857192,-0.0624101404993367,-0.0996413790577518,-1.38434995545015,1.649891,-0.479200947374203,-1.44789909348052,0.743256156229301,-1.41077531295819,-1.83967358694348,-0.133364700053791,0.931817034959401,2.11159241936206,-2.17550702028081,0.284349267946091,2.09559613797465,0.875834671728948,-2.66387550014171,0.604944197767913,-0.00632135430863867,-0.169674059508757,2.56976937086492,-2.83505340213609,-0.176121226260187
1.59927,0.5691994,-0.0727055,0.4008522,0.98636747516933,-0.0739870356422642,0.146863070749319,0.00603000290487322,0.140369614784598,-0.0338113524540978,0.737549501980081,0,0,0,0.188432860821846,0.0965658195053489,0.711531060322115,-0.405043,-0.219772089521074,-0.208786048628132,-1.56720700897915,1.381515,-0.0070146133991091,-0.448120313553048,0.79450678406852,1.37850979472264,-0.841609,-0.0715394708526231,-0.0886707579159623,-1.34297104267457,1.604021,-0.476817125486243,-1.05367583862696,0.107817698052069,-2.05144359077061,-1.8663146525861,-0.153015669050975,-0.0343176747019569,2.63669211460608,-2.31033241329652,-0.783594468189107,2.25025001506461,1.25120019786001,-2.82504594731953,0.935017400696022,-0.54778173246648,0.658263599051333,2.48283407989787,-2.7523100924037,0.143035034679007
1.615936,0.5716788,-0.0730681,0.4130189,0.987512442917725,-0.0650509633030056,0.143269919177593,0.00782799558401759,0.148769950798026,-0.0217568702748113,0.730031201248048,0,0,0,0.178856908760087,0.0965654403021858,0.688839300438299,-0.442954,-0.225283649763207,-0.209693511923414,-1.51151284174185,1.342381,-0.00090111347538649,-0.406679229288289,0.821832433649416,1.32525583947805,-0.826064,-0.0884379441301557,-0.0759949528927744,-1.29212472539385,1.55836,-0.473058286267943,-0.574580106909856,-2.27530999128626e-05,-1.36156005543113,-2.2747509900396,-0.330706842801712,-0.0544499757159214,3.34178370558646,-2.34813392535701,0.366824668410093,2.48656451846627,1.63960455903611,-3.1953651292808,0.932737309492382,-1.01394895461014,0.760578724540255,3.05090107288617,-2.73976959078363,0.225539374672984
1.632602,0.5739503,-0.0737709,0.4249238,0.987688114813812,-0.063954007434334,0.142695016587583,0.00449500052252136,0.136295451818078,-0.0421696867874709,0.714322572902916,0,0,0,0.166724450316909,0.116753048408618,0.64650382822818,-0.484443,-0.245806689712784,-0.196942948334103,-1.47199846945991,1.308189,-0.0164381119565596,-0.373445292551606,0.834564280854795,1.27212804748049,-0.81715,-0.0861570912035284,-0.0835091623876214,-1.24686866997483,1.507647,-0.467290209868639,-0.727976625655682,1.21130493858347,-2.54022994180485,-2.4894395775831,-1.23143165424079,0.765064417935361,2.37095717520343,-2.05160206408256,-0.932257199158355,1.99411596883969,0.763941389978346,-3.18779503165507,0.534861394455777,0.136856649863633,-0.450870604515,2.71547194401896,-3.04290171606864,0.346098427895392
1.649268,0.5765249,-0.073955,0.4369827,0.989749513175853,-0.0581230301362468,0.130440067631953,0.00173300089854472,0.154482179287164,-0.0110464418576747,0.7235629425177,0,0,0,0.167648877302995,0.130898699959969,0.596964623429333,-0.533428,-0.269700572153218,-0.18848766701391,-1.4028618498407,1.27006,-0.00806257285393218,-0.335992768313768,0.856919866102941,1.21887091845977,-0.811247,-0.0975493484788938,-0.0749608949542245,-1.17724884312446,1.45426,-0.459988861760987,0.055467837878665,0.848773044002822,-2.97247118677829,-2.93921756870275,-1.43369029403777,0.507337172698456,4.14836311167709,-2.28783151326054,0.502552448255578,2.24724134392407,1.34138877043956,-3.19555556346527,0.35419416776671,-0.683562779033085,0.512916562666321,4.17735670529063,-3.20334813392535,0.438098410395515
1.665934,0.579012,-0.0737366,0.4558008,0.991669307741809,-0.0494580153481599,0.118930036907207,-0.00123900038449532,0.149231969278776,0.0131045241809669,1.12913116524661,0,0,0,0.169881870852914,0.142083816473244,0.547561543414789,-0.582177,-0.289628688891763,-0.186570290020609,-1.33640755534899,1.234228,-0.0128034768196326,-0.302616725881064,0.884657933110327,1.15961589474038,-0.809628,-0.112752000967696,-0.0555442762218242,-1.11172906750312,1.401456,-0.454153857437412,0.133984972394052,0.671133836149934,-2.96430337300752,-2.92505700228009,-1.19573483370606,0.115047221486941,3.98741716618936,-2.15000600024,-0.284465616566689,2.00264265166831,1.66435059446695,-3.55544364090947,0.0971438857554324,-0.912195637153643,1.16504372569304,3.93134379103202,-3.16836673466939,0.350114263985068
1.6826,0.5809762,-0.0739725,0.4601303,0.991688127129468,-0.048696006242585,0.118993015254311,-0.00490100062828383,0.117856714268569,-0.0141545661826471,0.259780391215648,0,0,0,0.161645440282069,0.167895379099263,0.501261476202907,-0.630672,-0.309935790091256,-0.176088745292432,-1.31015855451513,1.209404,0.0100758743170626,-0.244549673627354,0.879073013741872,1.04779707838196,-0.814806,-0.117184975304975,-0.0588300701170179,-1.07045832930026,1.347586,-0.444516037256466,-0.494205602474792,1.54875570778948,-2.77811515731927,-2.90981639265571,-1.21847481096205,0.628917840404231,1.5750030501536,-1.48949957998321,1.37281598084095,3.48416250172265,-0.335108566449989,-6.70939735739944,-0.310692427697109,-0.265989099800693,-0.197155519932417,2.47634334590534,-3.23232929317173,0.578292342550425
1.699266,0.5835648,-0.0739074,0.4717629,0.99367240798856,-0.0423050173698726,0.10372304258729,-0.0081830033598314,0.155322212888512,0.00390615624624976,0.697983919356774,0,0,0,0.183755398740746,0.186326408115602,0.438510748154267,-0.677256,-0.340681871417912,-0.164049672710222,-1.24849968912724,1.185372,0.0202372436332134,-0.18974168702346,0.887359003226114,0.95899943592351,-0.8222,-0.131354567129565,-0.0420053008235232,-0.996916909450265,1.29186,-0.433809722652802,1.32665057354352,1.10590597721942,-3.76519429069002,-2.79515180607224,-1.84483867314626,0.722373249862627,3.69967991046979,-1.44197767910715,0.609706547230937,3.2886107406633,0.497179256224801,-5.32807167037375,-0.443657746309853,-0.850209517856111,1.00952653867123,4.41266169746747,-3.34369374774991,0.642404572402773
1.715932,0.5857292,-0.0737653,0.4901365,0.994719716984781,-0.0355290256089934,0.0959760691786639,-0.00767900553495623,0.129869194767795,0.00852634105364251,1.10246009840394,0,0,0,0.188793798868295,0.208767394158754,0.381825828577544,-0.723122,-0.355521365588243,-0.156069668056166,-1.20752269560124,1.163935,0.0602676229585837,-0.149811291933279,0.895351763396453,0.865517320345968,-0.830031,-0.153415984111139,-0.025185425639997,-0.941962747666369,1.238175,-0.421916221900787,0.302316100296977,1.34651302311003,-3.40123122385233,-2.75207008280332,-0.890405266430526,0.478819432020628,2.45871796027852,-1.28627145085804,2.40191883627567,2.39591954219254,0.479584793612085,-5.60915130070451,-0.469878795151801,-1.32373796841317,1.00923288032679,3.29738160229783,-3.22122884915396,0.71363859066452
1.732598,0.5880119,-0.0736925,0.4943463,0.99550882597014,-0.0303609946924432,0.0892019844061565,-0.00913199840358983,0.136967478699146,0.00436817472698895,0.252598103924159,0,0,0,0.198798033874299,0.229405937099721,0.327797854454725,-0.76455,-0.373664095478198,-0.137583111543832,-1.17302445103778,1.146989,0.0968633052508527,-0.0723499862697363,0.87485766397253,0.728244402725917,-0.846088,-0.166794581369743,-0.0111179673163137,-0.888510332976801,1.182189,-0.408701402871893,0.600278111484691,1.23836211094248,-3.24180811969392,-2.48577943117724,-1.08860733769083,1.10923776025043,2.06997747290636,-1.01680067202688,2.19582877068697,4.64786425438271,-1.22969515324152,-8.23670452538408,-0.963458538341533,-0.802747945434085,0.844081262671506,3.20727317230102,-3.35929437177488,0.792920858568005
1.749264,0.5903926,-0.073542,0.5122866,0.996416506105481,-0.0244060123964392,0.080404040839273,-0.00967900491621466,0.142847713908557,0.00903036121444845,1.07646105844234,0,0,0,0.210629062034978,0.250182822868847,0.269074832913031,-0.802877,-0.386224444010737,-0.110281640283023,-1.13459164591909,1.131234,0.167467691704556,-0.0257386722325054,0.88267053698393,0.624956713183429,-0.865565,-0.182892738544139,0.00633392056886875,-0.832706623405205,1.128052,-0.396467094842785,0.709890085244183,1.24666301266808,-3.52352223339098,-2.29971198847954,-0.753651057994611,1.63815380180061,2.30606054954318,-0.945337813512538,4.23643264452796,2.79679071386241,0.468791132329286,-6.1975092729202,-1.16866674666987,-0.965928067586447,1.04715515931732,3.34835650855606,-3.24834993399735,0.734087845260248
1.76593,0.592823,-0.0732669,0.5159462,0.997212165624489,-0.0185940030882317,0.0714190118618061,-0.0110220018306169,0.145829833193331,0.0165066602664107,0.219584783391341,0,0,0,0.22469870835033,0.269181267982673,0.208839689033952,-0.835756,-0.394793115656794,-0.0757474795257032,-1.09449898007004,1.114434,0.212483265969145,0.0334013518617682,0.874520294796254,0.506967928803161,-0.887048,-0.196475725554953,0.0246380062004316,-0.778046344076807,1.075482,-0.385123291163754,0.844212547423003,1.13995230492172,-3.61425320287286,-1.97281891275652,-0.51414086439803,2.07213253074042,2.4056561771903,-1.00804032161287,2.70104249757525,3.54854338739191,-0.489034092624253,-7.07961024722601,-1.28903156126245,-0.815011821121695,1.09828906945655,3.2797479496219,-3.15432617304692,0.680655446959774
1.782596,0.5949671,-0.0730408,0.524804,0.997155820671015,-0.0179649967691663,0.0720739870381793,-0.0127619977048762,0.128651146045841,0.013566542661706,0.531489259570378,0,0,0,0.229546692061345,0.289366904001146,0.151791157359808,-0.851079,-0.397188199644057,-0.0381083995077424,-1.0769557773264,1.099254,0.278844783597614,0.0459196112549715,0.854824296451174,0.417337824311566,-0.904637,-0.201782175580546,0.0271152166758326,-0.741825854732346,1.0224,-0.368226356736272,0.290890658287231,1.21118660857273,-3.42304882240149,-0.919416776671065,-0.143710787667251,2.25843513848319,1.05263426998946,-0.910836433457337,3.98185033172143,0.751125608616542,-1.1818071729917,-5.37802139035132,-1.05538221528862,-0.318399737525107,0.148638574067021,2.1733162933194,-3.18504740189608,1.01385661991369
1.799262,0.5978546,-0.0728259,0.5295255,0.998183105091218,-0.0166810017562177,0.0549360057838003,-0.0182830019248802,0.173256930277214,0.0128945157806315,0.283301332053278,0,0,0,0.257761963727141,0.316410515033229,0.0595296847213529,-0.873046,-0.413610645042488,0.0150873703921097,-1.02037895602796,1.089437,0.259692790734161,0.0467055639136962,0.809422657018494,0.339314154571986,-0.927679,-0.199273688752085,0.0394966608362026,-0.668209295418687,0.968482,-0.360001876207396,1.69298401930854,1.62268156918775,-5.53590979469912,-1.31807272290891,-0.985386139351438,3.19187386894588,3.39474506770886,-0.589043561742468,-1.14916553842873,0.0471590458853182,-2.72420733425421,-4.68160744867271,-1.38257530301212,0.150515230316928,0.74291636627685,4.41717024562933,-3.23520940837634,0.493488571275436
1.815928,0.6004789,-0.0725508,0.5324627,0.998483291953063,-0.0162490047511528,0.0467710136756827,-0.0240740070391564,0.157464298571938,0.0165066602664107,0.176239049561988,0,0,0,0.270575750073057,0.335054922125806,-0.0242869239700872,-0.879789,-0.420655388160988,0.0633411949456569,-0.97826967531968,1.073544,0.24143074871089,0.0305002575405428,0.787549069203784,0.276200074670347,-0.944298,-0.190959783981247,0.0459467495420331,-0.61451555609192,0.91616,-0.346489150275717,0.76885793507236,1.11870917392159,-5.02919768939398,-0.404596183847357,-0.422701495169801,2.89534528702432,2.52665790881313,-0.953618144725785,-1.09576635205034,-0.972357276680272,-1.3124677675933,-3.78699627394929,-0.997179887195484,0.498854240419848,0.387020803181959,3.22175322973523,-3.13944557782311,0.810795987740257
1.832594,0.6031907,-0.0722281,0.5491864,0.998674912429696,-0.0164839985545759,0.0382739966438873,-0.0301959973522188,0.162714508580346,0.019362774510981,1.00346213848553,0,0,0,0.285861579338039,0.354673026937407,-0.101338536036352,-0.883482,-0.424440931370903,0.112511845702505,-0.930560644098618,1.050992,0.199277637069333,0.0125364956936471,0.768418750718339,0.218169515022068,-0.955675,-0.17889740421171,0.0510699127613107,-0.559897872788166,0.863639,-0.332885096068786,0.917186443356638,1.17713337403102,-4.62328165524209,-0.221588863554539,-0.227141678262056,2.95035705969325,2.86265637951885,-1.35317412696509,-2.52928787000825,-1.07786882556676,-1.14786502372765,-3.48197285781106,-0.682647305892241,0.723771737041738,0.307402089240225,3.2771920859087,-3.15138605544221,0.816275903451972
1.84926,0.6059662,-0.0719404,0.5517379,0.998743142219036,-0.0174530024852728,0.0300250042755009,-0.0361390051461224,0.166536661466461,0.0172626905076196,0.153096123844956,0,0,0,0.301132516820755,0.392294284481174,-0.171833082377958,-0.882336,-0.425164148490841,0.1612003138619,-0.878825423907861,1.02118,0.178921138173012,-0.00707870911306152,0.76488361706851,0.161585054036256,-0.954216,-0.163392864289271,0.053486253783471,-0.505029601057307,0.811123,-0.31951095497393,0.916292900678968,2.2573657472559,-4.22984197417531,0.0687627505100192,-0.0433947629868296,2.92142494656157,3.10423738094067,-1.78879155166206,-1.22143879133087,-1.17695936677719,-0.212116503649856,-3.39520346728742,0.0875435017400756,0.930309607730636,0.144986260780047,3.29222799297124,-3.15108604344174,0.802480564913958
1.865926,0.6086689,-0.0716303,0.5540955,0.998726140831881,-0.0187920026498887,0.0228890032276129,-0.040854005760885,0.162168486739466,0.0186067442697712,0.141461658466343,0,0,0,0.320483198475877,0.413075694292382,-0.240835148907464,-0.87944,-0.419660798711528,0.206390628109262,-0.825175121731761,0.984877,0.177977291008702,-0.0303550324208602,0.763001845229647,0.107311295960316,-0.950498,-0.148783142871848,0.0548969153410208,-0.453010446691848,0.759254,-0.305323949489295,1.16108734280106,1.2469344660511,-4.14028960335449,0.173766950678028,0.330214195326623,2.71152731593438,3.21914689644189,-2.17826713068523,-0.0566330951824227,-1.39663526387847,-0.112910826764868,-3.25655574678627,0.223088923556942,0.876618349779361,0.0846430791761595,3.12127411289207,-3.11226449057963,0.851254379253279
1.882592,0.6113947,-0.071351,0.5632585,0.998654801316149,-0.0201869959837673,0.0156549968854152,-0.0451219910229131,0.163554542181687,0.0167586703468136,0.549801992079679,0,0,0,0.337469348931108,0.414002026203764,-0.309957256031306,-0.871943,-0.410666959087825,0.247912932928507,-0.76765606998765,0.944443,0.181147761439621,-0.0397962928729083,0.745644616324243,0.0451165887736126,-0.941074,-0.135914078011093,0.0560329943478458,-0.400933985154977,0.707464,-0.290995258202835,1.01920979570568,0.0555821379684737,-4.14749232712362,0.449837993519739,0.539651963500719,2.49143794667259,3.45128115589286,-2.42613704548182,0.190235835288577,-0.566498287054371,-1.04147539333996,-3.73183170447038,0.565462618504739,0.772174778636483,0.0681674671081829,3.12471268071947,-3.10752430097204,0.859755867422265
1.899258,0.6140932,-0.0709961,0.565166,0.998479250383681,-0.0219480055037923,0.00927300232534472,-0.0497140124665359,0.161916476659063,0.0212948517940721,0.114454578183131,0,0,0,0.349034049419801,0.437282976698794,-0.372068711323992,-0.860133,-0.401417722521935,0.285066014520903,-0.710239431621611,0.90248,0.179975874875978,-0.0834447869583586,0.728024512326243,-0.00203495809501807,-0.924918,-0.125767002706561,0.0567409629525905,-0.351184951035211,0.655537,-0.275798699575495,0.693909785712983,1.39691290621806,-3.72683639101683,0.708628345133805,0.554976393009123,2.22927406650637,3.44513610740668,-2.51788071522861,-0.0703160064588653,-2.61901440570324,-1.05724852982123,-2.82920598035706,0.969398775951035,0.608848872226797,0.0424798154773012,2.98506144964397,-3.11574462978519,0.911829990840036
1.915924,0.6166447,-0.0705502,0.5668684,0.998214572809126,-0.0230260132131015,0.00615000352907906,-0.054769031428314,0.153096123844956,0.0267550702028081,0.102148085923437,0,0,0,0.342743000130734,0.442281332282538,-0.365079771445959,-0.876064,-0.391379548576331,0.31435737123491,-0.65657855955132,0.858588,0.174008000216236,-0.0978302154485858,0.709852883777388,-0.0551925688484624,-0.904254,-0.120083360659936,0.0584651466161451,-0.310561300064326,0.606046,-0.260632286727316,-0.377478056466291,0.299913331557876,0.419353166808639,-0.955898235929432,0.602314529317407,1.75755170490863,3.21978111546206,-2.6336253450138,-0.358086803056657,-0.863160235823065,-1.09034132658435,-3.1895842285758,1.23988959558382,0.341032164084045,0.103455158019597,2.43751655891544,-2.96957878315133,0.910021171737646
1.93259,0.6191479,-0.0699895,0.5683769,0.997849736363644,-0.0239979936596229,0.0037079990203301,-0.0608789839155006,0.150198007920319,0.0336433457338292,0.0905136205448232,0,0,0,0.320686853807715,0.458808970844381,-0.297599534997457,-0.889211,-0.385292726617146,0.339060583780417,-0.603954827113098,0.814662,0.165035212370694,-0.122964156140296,0.698340947179416,-0.0994029709943193,-0.978458,-0.11697537152925,0.0610716037836462,-0.273970853283762,0.559938,-0.24476423925157,-1.32342171624975,0.99169798162983,4.04897614595597,-0.788851554062164,0.365223926508139,1.48225204281213,3.15755024830325,-2.63566542661707,-0.538388806284777,-1.50809676537325,-0.690743825631366,-2.65273023796093,-4.45241809672387,0.186486807313457,0.156393685797497,2.19551462741895,-2.76659066362654,0.95212093338206
1.949256,0.621873,-0.0694652,0.5766803,0.99739009430623,-0.0259370024524215,-0.0043650004127239,-0.0672400063577446,0.163512540501622,0.0314592583703343,0.498223928957156,0,0,0,0.305981314176941,0.456747952291728,-0.257978841543884,-0.913235,-0.381703716550062,0.364437820934065,-0.539202674150903,0.768979,0.156643460901897,-0.151130248848878,0.701467985472424,-0.12740349712827,-1.047152,-0.113552871258071,0.0639717029929075,-0.225303474337793,0.513669,-0.229876814576412,-0.882367672553374,-0.123666059801529,2.37733670068239,-1.4414976599064,0.215349217993784,1.52269513702441,3.88528458911524,-2.74108964358575,-0.503525229136984,-1.69003316384146,0.187629802772603,-1.68009877198795,-4.12180487219489,0.205358230599988,0.174012913072204,2.92015954313987,-2.776251050042,0.893281211757977
1.965922,0.6243881,-0.0547827,0.5778164,0.996898792428247,-0.0262669945307526,-0.0081959982934499,-0.0737269846487532,0.150912036481452,0.880985239409577,0.0681687267490684,0,0,0,0.282765363186242,0.496238185176265,-0.163473365258595,-0.926665,-0.378474334108327,0.380350954102971,-0.481601813547273,0.721662,0.156800213779771,-0.171977806256764,0.687627827806802,-0.162907273793498,-1.114457,-0.108059387570862,0.0689992892694555,-0.187975845619401,0.470267,-0.215269744532846,-1.39301277995314,2.36950875342233,5.67055539933332,-0.805832233289328,0.193770697332009,0.954826183181672,3.45618988381318,-2.83913356534261,0.00940554889439945,-1.25090348061238,-0.83044267764441,-2.13031181238616,-4.03846153846154,0.329622206120739,0.301667243282611,2.23974731299603,-2.60422416896676,0.876459260984392
1.982588,0.6266918,-0.0469791,0.5787964,0.996378201285854,-0.0259960052516485,-0.0101440020492661,-0.0803230162266566,0.138227529101172,0.468234729389175,0.0588023520940826,0,0,0,0.322786966003592,0.502069223396238,-0.121082255511199,-0.880207,-0.378802633165415,0.39097931503915,-0.428752416126452,0.673434,0.169461823595539,-0.193997436177567,0.674429941331969,-0.169497871490473,-1.278955,-0.09793671120533,0.073614858712198,-0.156836237350293,0.429747,-0.201251249590896,2.40139222473004,0.34987628824994,2.54356832757686,2.78759150366015,-0.0196987313745736,0.637727165257315,3.17109068887681,-2.89379575183008,0.759726978025196,-1.32123064447396,-0.791904864684567,-0.395451679885703,-9.87027481099244,0.607384877327033,0.276945244374323,1.86845123419584,-2.43129725189008,0.841143342250682
1.999254,0.6290774,-0.0320572,0.5865377,0.995838366329169,-0.0258540095106577,-0.0158040058136626,-0.0859520316183202,0.143141725669019,0.89534981399256,0.464496579863198,0,0,0,0.310006571652881,0.51786628602707,0.060623814895206,-0.756477,-0.375908012885059,0.399261465474654,-0.366976138632619,0.622824,0.189515899347209,-0.231619361612968,0.662842010135543,-0.138116381362199,-1.333237,-0.0869784748624691,0.0794508677520918,-0.119795942694653,0.393641,-0.191909782513835,-0.766854335216085,0.947861672316768,10.9028003363978,7.42409696387856,0.173684164187949,0.496948904086411,3.70672491862675,-3.03672146885875,1.20329267680727,-2.25740582235697,-0.695303683932916,1.88296472628552,-3.25705028201128,0.657520481390906,0.350174549375602,2.22250657960158,-2.16644665786631,0.560510445041448
2.01592,0.6317241,-0.017171,0.5920831,0.995211201190922,-0.026977005453645,-0.0218060044082805,-0.091386018474508,0.1588083523341,0.893207728309133,0.332737309492382,0,0,0,0.368835318668668,0.530439665981598,0.128640537508987,-0.631957,-0.304561682703389,0.255502448555176,-0.265364837185596,0.562434,-0.00733354414678914,-0.297603804689699,0.662477061402211,-0.0910501860550082,-1.484401,-0.0696328038778725,0.0813038555781992,-0.0806833178392727,0.358543,-0.183735439832959,3.52986601558784,0.754432974590697,4.08116660349099,7.4714988599544,4.28095104894216,-8.62588605061068,6.09692196369989,-3.62354494179768,-11.8114390672026,-3.95922495360199,-0.0218977999119121,2.82408468181871,-9.07020280811233,1.04078189035141,0.111183716915123,2.34685136537744,-2.10596423856954,0.4904801800598
