mit-biomimetics/pkGym/resources/robots/mit_humanoid/trajectories/humanoid3d_getup_faceup.csv
t,x,y,z,qw,qx,qy,qz,x_v,y_v,z_v,wx,wy,wz,left_arm_pitch,left_shoulder_abad,left_shoulder_yaw,left_elbow,left_hip_yaw_joint,left_hip_abad_joint,left_hip_pitch,left_knee,left_ankle,right_arm_pitch,right_shoulder_abad,right_shoulder_yaw,right_elbow,right_hip_yaw_joint,right_hip_abad_joint,right_hip_pitch,right_knee,right_ankle,left_arm_pitch_v,left_shoulder_abad_v,left_shoulder_yaw_v,left_elbow_v,left_hip_yaw_joint_v,left_hip_abad_joint_v,left_hip_pitch_v,left_knee_v,left_ankle_v,right_arm_pitch_v,right_shoulder_abad_v,right_shoulder_yaw_v,right_elbow_v,right_hip_yaw_joint_v,right_hip_abad_joint_v,right_hip_pitch_v,right_knee_v,right_ankle_v
0,0,0,0.101246474,0.656387343105296,-0.0679270354005481,-0.74736854160603,-0.0773423344006241,0,0,0,0,0,0,0.2868285335081,0.444781888049658,-0.0441517648718745,-0.9797380203,-0.166593448319978,0.0677297546298415,0.133098355523568,0.1580971597,0.733986362818014,0.249060173150143,0.475938260662366,0.257005170112753,-0.3911293793,-0.0515010844898783,0.108505835905349,0.057015178452837,0.2890195429,0.610534072315912,0,0,0,0,0,0,0,0,0,0,0,0,0,0,0,0,0,0
0.0166660007,2.323244e-05,-0.00014660968,0.10109001,0.656353261221858,-0.0673443316022427,-0.747443408524891,-0.0774176242025782,0.00139400210153597,-0.00879693230782116,-0.00938821513430004,0,0,0,0.288993417717693,0.44117977347134,-0.050763654812172,-1.004042565,-0.171132360318591,0.0697098944905073,0.129963105705948,0.163807877,0.731950489305053,0.250595727509662,0.477841731463551,0.250506760561566,-0.3877574513,-0.0466424373015959,0.107008509973022,0.0521307355842116,0.2988684358,0.607166123305106,0.129898243049608,-0.21613551104185,-0.396729248925175,-1.45833095398826,-0.272345602302322,0.118813139175364,-0.188122506056356,0.342656729877613,-0.122157291938743,0.0921369431790885,0.114212811786602,-0.389920153500728,0.202323764452981,0.29153048027188,-0.0898431458920486,-0.293078282939558,0.590957187467298,-0.202085015561375
0.0333320014,6.111868e-05,-0.00030799643,0.101043782,0.6561213270238,-0.066741531402421,-0.747691387827122,-0.0775110365028116,0.00227326523513226,-0.00968359193696662,-0.00277379083513391,0,0,0,0.288509738697102,0.439879054081531,-0.0516914347184107,-1.0237296628,-0.173266317573936,0.0706194822774052,0.128936667266707,0.1670315001,0.730637679823524,0.252562713901184,0.480434831188682,0.243987941745392,-0.3787412255,-0.0416754545411993,0.105519743084045,0.0464064752759768,0.312057889,0.601614917156897,-0.0290219008925751,-0.0780462819618794,-0.0556690187969746,-1.18127306930931,-0.12804255164498,0.0545774480195418,-0.0615887673183893,0.193425114880741,-0.0787717164519532,0.118023899490322,0.155592200661024,-0.391144758332667,0.540995165084806,0.298030874341471,-0.0893295827701245,-0.34346934284209,0.791398814713837,-0.333085678330103
0.0499980021,0.00011353573,-0.00051359105,0.101132682,0.655570916763234,-0.0661783471962886,-0.74819809535804,-0.0777612342956391,0.00314514867385071,-0.012336170128686,0.00533421314448817,0,0,0,0.287192211005874,0.440756839733274,-0.0500023951042318,-1.0187363176,-0.173571571968587,0.0711106495038592,0.130347187303426,0.1676004774,0.729496099506364,0.255397569949884,0.483548441197914,0.23766153934758,-0.3641722136,-0.0359934881683792,0.103444711080627,0.0403591917512086,0.3282545446,0.593303489792879,-0.079054820346165,0.0526692436622656,0.101346426451242,0.299612683923634,-0.0183159955496342,0.0294712111978959,0.0846345840318547,0.0341400021662063,-0.0684975560549346,0.170098159704255,0.186824065669932,-0.379599311898042,0.874175644310394,0.340931605314292,-0.124506895251582,-0.362851510306738,0.971838168709545,-0.498705569118219
0.0666640028,0.00017459596,-0.0007842072,0.101287368,0.654946085088658,-0.0657022075988623,-0.748735649287034,-0.0782545399986449,0.00366376019652993,-0.016237617822733,0.00928153087141146,0,0,0,0.284951510199555,0.443397565241384,-0.0497775244326948,-0.9870956052,-0.172313330299427,0.0713935017417591,0.132811784691557,0.1669547056,0.729394788186851,0.2581200821818,0.486225203952171,0.232296065183003,-0.349558387,-0.0292385451017796,0.100337051281982,0.0332276297275563,0.3474688741,0.582459878771917,-0.134447420629177,0.158449861826149,0.0134927794367004,1.89851860500642,0.0754975168793927,0.0169718124336749,0.147881752346923,-0.0387478562868415,-0.00607892207237268,0.163357261344415,0.160612182997014,-0.321941314005615,0.876864633757035,0.40531277948402,-0.186467038768611,-0.427910819879681,1.15290583781147,-0.650642659637126
0.0833300035,0.00020834576,-0.00111271251,0.101440276,0.65445582880885,-0.0653832588008841,-0.749100284910129,-0.0791287606010699,0.00202506891770381,-0.0197111062163822,0.00917484660851955,0,0,0,0.283501661066477,0.447642928880555,-0.0581268219537558,-0.9560512472,-0.170689608979586,0.0720353677238403,0.134981011581405,0.1658900548,0.728481350067669,0.260040301716185,0.488409117306013,0.228452149679696,-0.3343642536,-0.0214369070489133,0.095823235886062,0.0243091225880139,0.3696136118,0.571858039404037,-0.0869944241079149,0.254731996931396,-0.500977869337362,1.86273591120154,0.0974271721854068,0.0385134978472214,0.130158814276789,-0.0638816005809967,-0.054808477188044,0.115217775934996,0.131040037328371,-0.230644146277214,0.911684433086579,0.468116988190589,-0.270839745969791,-0.535131811169455,1.32873735568726,-0.636135780786326
0.0999960042,0.0002462194,-0.00148248205,0.10168564,0.653918236390488,-0.0651553658990523,-0.749473880289098,-0.0802160904988333,0.00227250920492281,-0.0221870589505015,0.0147224282787907,0,0,0,0.284794620479402,0.452779415226789,-0.075326033956603,-0.9382155037,-0.169309127452973,0.0731986873524185,0.137258518204216,0.1652966427,0.726896281423071,0.261392089086957,0.490907349062066,0.225290317231739,-0.3148429422,-0.0133015182387125,0.0905373032954017,0.013591744688068,0.3961007285,0.563796816681553,0.0775806647437091,0.308201495889408,-1.03199395658536,1.07018737254704,0.08283220140586,0.0698019668616805,0.136655857863391,-0.0356061487504915,-0.0951079189981312,0.0811104832590078,0.149899895063181,-0.189717527610424,1.17132548782384,0.488142833823405,-0.317168628863688,-0.643068369722673,1.58929050687007,-0.483692690741543
0.1166620049,0.00032702369,-0.00188626655,0.102066132,0.653163656929951,-0.0649257846029772,-0.750037063334394,-0.081279046403727,0.00484845113441043,-0.0242280381039465,0.022830432258412,0,0,0,0.290158795018551,0.45833510104336,-0.093745089275616,-0.933960661,-0.168298070836137,0.0745813414930758,0.13990840270584,0.1659633585,0.723550875596693,0.262980615268479,0.493371824322315,0.221992812573308,-0.2951383077,-0.00579549804822658,0.0853496293137458,0.001238951034221,0.4273683021,0.560622032960712,0.321863333364008,0.333354469172116,-1.10518748022211,0.255300763307899,0.0606658210950199,0.0829625634575513,0.158999423396442,0.0400045465016688,-0.200732370446711,0.0953153795032375,0.147874424381177,-0.197858185523233,1.18232531335487,0.450379207681534,-0.311272876740964,-0.741197235989973,1.87612938237786,-0.190494635035121
0.1333280056,0.00045567347,-0.00233031666,0.102508854,0.652322603313571,-0.0645678445013433,-0.750674132215617,-0.0824291325017149,0.0077192952475995,-0.0266440712437988,0.0265643814595539,0,0,0,0.297584687525872,0.463881137155997,-0.11042094864427,-0.9385090816,-0.168207180199135,0.0762802044316902,0.141855006186703,0.1690054676,0.716859987851933,0.26406676567004,0.495857491467197,0.217942701107527,-0.2758686126,-0.000282281823014975,0.0807295380617351,-0.0138968983308956,0.4641336627,0.561628471055818,0.445571354579437,0.332775463800212,-1.00059154375617,-0.272916141183172,0.00545365613733459,0.101935849469537,0.11680087598113,0.182533839687166,-0.40146930659618,0.0651716282215814,0.149145988268354,-0.24301639839612,1.15622790655469,0.330806191866511,-0.277216552139636,-0.908187251253181,2.20600978373894,0.0603886987179787
0.1499940063,0.00066575593,-0.00282261406,0.103084926,0.651232787998964,-0.0640186466998982,-0.751511986698805,-0.0838284113998666,0.0126054512886226,-0.0295390243203338,0.0345657011762874,0,0,0,0.30573225439705,0.468947762416376,-0.125555483677061,-0.9467045442,-0.166637560256297,0.0774760679186635,0.143313541376078,0.1746865143,0.709540996060807,0.264715842407062,0.497949290731416,0.213623012689503,-0.2592455142,0.00370967466450287,0.0765514984458726,-0.0314556498705512,0.5065695983,0.56666684123105,0.488873546679862,0.304009663240853,-0.908108388162388,-0.491747405242821,0.0941809598530819,0.0717546763917598,0.0875156083111735,0.340876422740101,-0.439157055305132,0.0389461604320067,0.125512971100388,-0.259191661861813,0.997425759138483,0.239526960269349,-0.250692394118433,-1.05356719081715,2.54625787937235,0.302314290388349
0.166660007,0.00092737358,-0.00355154499,0.103813906,0.649867096918297,-0.0641765458018069,-0.752485952921186,-0.0855512593024088,0.0156976862481471,-0.0437376034671593,0.0437405477848078,0,0,0,0.313965854313611,0.474707055105281,-0.13729787397733,-0.9513013201,-0.166961582942639,0.0814737907302452,0.142731580137271,0.1846139471,0.703462192036834,0.266030842524015,0.49775447965914,0.208399861600889,-0.2493154144,0.0105092529296931,0.0695574237671568,-0.0520398990105015,0.5586083352,0.565619459032125,0.494035735673588,0.345571369675114,-0.704571571287015,-0.275817575118664,-0.0194421380494533,0.239872953538374,-0.0349190696245587,0.59566976977266,-0.364742815831861,0.0789031598295947,-0.0116891314108551,-0.313401588217539,0.595829796166997,0.407990998415731,-0.419661249547155,-1.23510430069467,3.12244898081637,-0.062845443113721
0.1833260077,0.00118309114,-0.00450967237,0.104638898,0.64830230900717,-0.0650503566007194,-0.753516184708333,-0.0876694167009696,0.0153436667022341,-0.0574899399830218,0.0495014979808561,0,0,0,0.32247179092442,0.480508627254217,-0.144805162749583,-0.9523630637,-0.167110565649596,0.0876348998746676,0.139267869143339,0.2009292849,0.692123050862149,0.268005758816201,0.49524278892907,0.202455946297097,-0.2460280014,0.0198446914958612,0.0599761311422145,-0.076869753870096,0.6247196619,0.541068339634991,0.510376590276348,0.34810823864518,-0.450455325629074,-0.0637071616107635,-0.0089393196147939,0.369681320391549,-0.207830964145585,0.978959385259116,-0.680375656931556,0.118499712542717,-0.150707465773128,-0.356649169214986,0.19725266182186,0.560148696391693,-0.57490052937189,-1.48985082303485,3.96683810891715,-1.47312602699783
0.1999920084,0.00147767389,-0.00549793083,0.105595462,0.646620613587667,-0.0658455910987441,-0.754658756085606,-0.0896454241982902,0.0176756712844732,-0.0592978770245702,0.0573961334347002,0,0,0,0.330853515190677,0.484444515448266,-0.150432277281413,-0.9540178509,-0.164908144459509,0.0928512796158071,0.13480398420291,0.2217021935,0.669931546249582,0.27061881578083,0.492478376075444,0.195135976530553,-0.2477897478,0.027935887718268,0.0508009445937392,-0.106537743879386,0.702378087,0.514065748007845,0.502923551794689,0.236162728233238,-0.337640363343453,-0.0992911994777492,0.132150551876983,0.312995291134208,-0.267843798928257,1.246424320623,-1.33154348256852,0.156789682879871,-0.165871399106892,-0.439215736175036,-0.105709007920538,0.485491172600682,-0.550533191113772,-1.78015053181236,4.65969169796087,-1.62022023838903
0.2166580091,0.00177713284,-0.00663003691,0.106585808,0.644996878799631,-0.0665899473999619,-0.755707485499568,-0.0919293293999474,0.0179682549755323,-0.067929079110143,0.0594231344296057,0,0,0,0.338873945606193,0.48720867350854,-0.157028562882317,-0.960375539,-0.16211017922163,0.0986330065062432,0.125679463815768,0.2535474711,0.629407281132535,0.27307741526347,0.48879117277465,0.187759292803986,-0.2553282192,0.0371112393523366,0.0400473290942084,-0.143135345619761,0.7922293823,0.496103891045382,0.481245054520851,0.165856110894904,-0.395792951148952,-0.381476529039143,0.167884622606482,0.346917475554657,-0.547493099957825,1.91079300746699,-2.43155306702026,0.147521863637053,-0.221241038397057,-0.442618709752412,-0.452326358056615,0.550543096645175,-0.645242712580154,-2.19594384994684,5.39129314329141,-1.07775448266137
0.2333240098,0.00209153777,-0.00796382125,0.107592156,0.643406077719467,-0.0670672809020292,-0.756674248122894,-0.0947347941028665,0.0188650496096523,-0.0800302582490592,0.0603832927956138,0,0,0,0.346476709998178,0.489357639669003,-0.164528195004724,-0.9731905075,-0.161717110084693,0.10603891699379,0.10899981826157,0.3017185586,0.56814912260039,0.275062323054406,0.484223953856938,0.181731134545049,-0.2691915377,0.0474959078931955,0.0273992820627212,-0.186292441765709,0.8934096098,0.491943777631398,0.456184091723069,0.128943121937057,-0.449995908280924,-0.768928834858388,0.0235850906292938,0.444372385484605,-1.00081872396646,2.89038074383376,-3.67563638300731,0.119099226423024,-0.274044085316291,-0.361703948502614,-0.831832348356976,0.623105010481542,-0.758913146540744,-2.58952924116629,6.07105623726513,-0.249616779026322
0.2499900105,0.00256207112,-0.0094125472,0.108570056,0.641938157756493,-0.0673787186954335,-0.757480003348663,-0.0979773157933597,0.0282331291393742,-0.086927030430282,0.0586763445893773,0,0,0,0.352850532842003,0.491297622227834,-0.174474938654084,-0.9892104974,-0.164585369843721,0.114472063977632,0.0823237312520022,0.3693727563,0.485159826297184,0.276436075085912,0.478883124405159,0.177509635429946,-0.2905799241,0.0564830038312641,0.0136619074219272,-0.237474236059022,1.0093762665,0.499860173495783,0.382444652352908,0.116403604785069,-0.596828467033517,-0.961237803140137,-0.172102462411866,0.506009038139666,-1.60062917851478,4.05941406806733,-4.97955675132104,0.0824284155649974,-0.320462572150208,-0.253300068270341,-1.28335446427768,0.539247303527872,-0.824275414844667,-3.07103036983028,6.95827744084998,0.475002732022258
0.2666560112,0.00326741604,-0.0108344355,0.109610186,0.64037092430525,-0.0675006629005534,-0.758371195706217,-0.10120212120083,0.0423223863179125,-0.0853167070849817,0.0624102937905193,0,0,0,0.360257214832334,0.492587555294095,-0.186373299088688,-1.0092973168,-0.167257095954395,0.121972879630465,0.047395231533676,0.4539775919,0.376541000469615,0.278180853688192,0.473213409310337,0.174462042526449,-0.3238371505,0.0643262069189012,-0.000153620339334884,-0.29593039975212,1.1423563929,0.497922694134749,0.444418677501363,0.0773990766880007,-0.713930153297298,-1.20525732367213,-0.160309972306337,0.450066922944085,-2.09579372682531,5.07649298250659,-6.51738997152259,0.104690899375748,-0.340196499261048,-0.182862881044768,-1.99551332072127,0.470610989932162,-0.82896478945078,-3.50750997466947,7.97912641393326,-0.116253406915667
0.2833220119,0.00411466258,-0.01181802461,0.110933018,0.638266891814226,-0.0667394674014875,-0.759992071916939,-0.102826401902292,0.0508368237378029,-0.0590177048294496,0.0793730915899935,0,0,0,0.369072975665677,0.490268069785043,-0.197109369929105,-1.0328096459,-0.167059503608059,0.124041850759475,0.00698306887490774,0.5522605727,0.248207705872793,0.282911349402062,0.46980116666353,0.171094918124276,-0.3668684123,0.0689991373098282,-0.00942405884075151,-0.357400062184642,1.2871000384,0.478500532581578,0.528966786455414,-0.139174691685472,-0.644189990968694,-1.41079611859131,0.0118560145227973,0.124143228255679,-2.42482665074941,5.89721448889655,-7.70030536461109,0.283841084554248,-0.204742739918809,-0.202035537066418,-2.58197887871204,0.280387027160451,-0.556248536664025,-3.68832712412653,8.68496576386199,-1.16537625929479
0.2999880126,0.00515257036,-0.01233913555,0.112421204,0.635851784799974,-0.0655293143999973,-0.762142531199969,-0.102650761599996,0.0622769552625784,-0.0312679058029801,0.0892947280387431,0,0,0,0.377686301956944,0.48555646440806,-0.202736119657355,-1.0559987084,-0.162296893781794,0.120297203710237,-0.0379711496913477,0.6623891032,0.116121944865882,0.290681231695656,0.468314492202104,0.167008209513456,-0.4106964865,0.0694538813834274,-0.0140240920993765,-0.418993774806594,1.4334895295,0.455708514690498,0.516820228578753,-0.282707619050042,-0.337618474253988,-1.39139934753513,0.285768008293951,-0.224687801029433,-2.69736089512198,6.60797587149988,-7.92546234603906,0.46621156649741,-0.0892040321002631,-0.245212314842858,-2.62978953313017,0.0272857346993393,-0.27601302444593,-3.6957704329121,8.78372044590158,-1.36757571905539
0.3166540133,0.00640804185,-0.01256576874,0.11384716,0.63363883229577,-0.0641710845995716,-0.764257400594898,-0.101461952199323,0.0753312994880649,-0.0135985347702524,0.0855607788376003,0,0,0,0.385247321082545,0.479920655842639,-0.205758379397567,-1.0799552108,-0.151852591764991,0.11254753527071,-0.0869774836162077,0.7837104301,0.00444582346016282,0.299354956925194,0.467914891275983,0.162543804264618,-0.4541543916,0.0683336103788709,-0.0157661893788214,-0.480716989177873,1.5735626739,0.441980594527244,0.453679275652512,-0.33816202620349,-0.18134283050954,-1.43744758153046,0.626683162014006,-0.464998686789148,-2.94049753189198,7.27957049107768,-6.70083503630955,0.520444309686051,-0.0239770136407752,-0.267875018680274,-2.60757849962169,-0.0672189462080426,-0.104530013576976,-3.70354084836197,8.40472449998156,-0.823708123524468
0.333320014,0.00786907562,-0.01277339049,0.114752162,0.632667486317986,-0.0632266486017974,-0.765293364721756,-0.100301089602851,0.0876655291392134,-0.0124578027888838,0.0543022898108964,0,0,0,0.389261871147543,0.475787652188349,-0.207075355379158,-1.1013021986,-0.141452682114329,0.105455545976743,-0.146687053718721,0.9197361561,-0.0716374260204325,0.305350844931289,0.466766606384092,0.157542009501034,-0.5000772359,0.0675164736607466,-0.0180181295110036,-0.547087515584589,1.7060959962,0.436355731891027,0.240882629087977,-0.247990128446921,-0.0790217164452041,-1.28087044902141,0.624019513611425,-0.425536361219941,-3.58271736437126,8.16186969198916,-4.56517738419364,0.359767655961661,-0.0688998466135613,-0.300119677997157,-2.75548076150027,-0.0490301622346793,-0.135121807128105,-3.98239071277107,7.95231709668655,-0.33750524420757
0.3499860147,0.00953139215,-0.01298357312,0.115169992,0.632860408289256,-0.0630248268989301,-0.765290544987009,-0.0992267935983156,0.0997429773298882,-0.0126114617287877,0.0250708017790971,0,0,0,0.389944214884822,0.473825384941003,-0.206887772802408,-1.1175838136,-0.131663368967451,0.0994780872913462,-0.217033974962643,1.0693143637,-0.107033308484763,0.308739098547589,0.464865680723714,0.152026570502971,-0.5425397954,0.0643678047720943,-0.0226419193639747,-0.619555497994641,1.8333427158,0.436187557186198,0.0409422602075828,-0.117740739525236,0.011255404348467,-0.976935936406149,0.587382259433038,-0.358661852534092,-4.22098393671144,8.9750510810911,-2.12383781217115,0.20330334057291,-0.11406009723602,-0.330939563566851,-2.54785537720516,-0.188927682491474,-0.277438477064931,-4.34825269208417,7.63510825965584,-0.0100908855013591
0.3666520154,0.0114127573,-0.01292946753,0.115187772,0.634093346501096,-0.0631477611001092,-0.764461341101321,-0.0976567773001688,0.112886419715559,0.00324646512225329,0.0010668426288983,0,0,0,0.387868047628759,0.472960102122544,-0.204614511330019,-1.1287614671,-0.119574320028706,0.09171108954258,-0.295438997143684,1.2258843604,-0.106519101020113,0.30958538943307,0.463739075064828,0.145095332306577,-0.577506899,0.0576341858409698,-0.0273834991965368,-0.69787704151765,1.9506375683,0.443070617080839,-0.124575013132159,-0.0519190436886938,0.136401138660008,-0.670686009271552,0.725371920735853,-0.466038486891828,-4.70448931284646,9.39457519043546,0.0308536807303814,0.0507794821753684,-0.0675990406556501,-0.415890909952589,-2.09811005228147,-0.404033280229286,-0.284506158250797,-4.69948039321811,7.03797237330009,0.413000096336306
0.3833180161,0.01337838824,-0.01273425048,0.114773498,0.636207884195058,-0.0636492858995056,-0.762882496994075,-0.095909291899255,0.117942569149178,0.0117134910476754,-0.0248574332533175,0,0,0,0.383386372745147,0.473361221006681,-0.201717532971908,-1.1363401511,-0.107418990515158,0.084178651680918,-0.378792959435365,1.3798904682,-0.0847334662586348,0.307757617254033,0.462770543182989,0.138299551796434,-0.6063301507,0.0509319652302552,-0.0312400629819424,-0.780586598026594,2.0534898212,0.458662547738094,-0.268911238171955,0.024068094761115,0.173825647211922,-0.454739210469375,0.729348914136834,-0.451964331290474,-5.00143758494386,9.24073570931747,1.30719031839946,-0.109670712964559,-0.0581142350389128,-0.407763124007488,-1.72946420793082,-0.402149305724832,-0.231403073528344,-4.96277169296797,6.17138177007277,0.935553222270962
0.3999840168,0.01527217636,-0.01245795761,0.114129862,0.638740008210166,-0.0639870710010184,-0.760905047512111,-0.0945535051015049,0.113631827700571,0.0165782346330995,-0.0386197031660993,0,0,0,0.377771787434918,0.474139886284432,-0.199794403027149,-1.1415234765,-0.100175037416583,0.0776514573123186,-0.465445031430777,1.5275156523,-0.0355504331776853,0.304055485975462,0.462225517262224,0.134565759451557,-0.6305690097,0.0469267949352995,-0.0337243629418514,-0.866553960189165,2.1400354627,0.493996544476201,-0.336888580007608,0.0467217835741247,0.115392407535308,-0.311011951415554,0.434654553841175,-0.391647311559237,-5.19933207463575,8.85786498856922,2.95109990490697,-0.22213675285463,-0.032702861986889,-0.224036492742842,-1.45438965450181,-0.240319820396724,-0.149063953892015,-5.15824784302156,5.19294598973585,2.12012452022202
0.4166500175,0.01703813804,-0.01166919544,0.113324428,0.641685248510149,-0.0626336809009906,-0.758826166012001,-0.092194976201458,0.105961934826992,0.0473276213170926,-0.0483279710890701,0,0,0,0.37089615306076,0.471161966095226,-0.197945150715217,-1.1461393052,-0.0982601966781501,0.0650631264571637,-0.555715516561409,1.6641993674,0.0510205829844627,0.30067246112418,0.46609560880242,0.132002112244262,-0.6491262716,0.0425406157525465,-0.0302838650102381,-0.955856894195039,2.2083947737,0.549301937992977,-0.412554547304111,-0.178682351141734,0.110959572438516,-0.276960788799198,0.114895035281762,-0.755330032786746,-5.41644553816873,8.2013506155679,5.19446853030241,-0.202989602135416,0.232214771249644,-0.153824978976156,-1.11348020644209,-0.263181267162258,0.20643812475139,-5.3583901509061,4.10172255662992,3.31845620987977
0.4333160182,0.01848084546,-0.01037799511,0.112421204,0.645023005600865,-0.0598175538000803,-0.756592138601015,-0.0890815262001196,0.0865659042004001,0.0774751155506671,-0.0541956055480053,0,0,0,0.362703347958286,0.464645156488483,-0.196244822889972,-1.1495562609,-0.0981030523719015,0.047132677637997,-0.649651835623999,1.7850459649,0.173403425517667,0.296797104957665,0.473197383446932,0.130048960022293,-0.6612041215,0.0379108625979148,-0.0228847482875453,-1.04862176820414,2.2596708018,0.620901998347823,-0.491587949019697,-0.391024200949598,0.102023746179582,-0.205025534410311,0.00942903514030343,-1.07586991876022,-5.63640436320094,7.25108558887796,7.34326397413411,-0.232530661451075,0.426123505713712,-0.117193816148666,-0.724699951560661,-0.277796289462036,0.443964743304782,-5.56611485136326,3.07668462416422,4.29617528786295
0.4499820189,0.0193037733,-0.00911288098,0.111605102,0.647960616808388,-0.0573655088007427,-0.754577927509769,-0.0864198402011188,0.0493776434318761,0.0759098810070253,-0.0489680766664074,0,0,0,0.355537824253637,0.458242133833387,-0.196006300187042,-1.1516908322,-0.100273837294851,0.0293669930997697,-0.745667219675793,1.8872576818,0.29810518945383,0.293386693534965,0.479056780172522,0.1290863706799,-0.665919351,0.0347356170710706,-0.018831953693695,-1.14093593941087,2.2936767969,0.694830360143515,-0.429948602165199,-0.384196711037964,0.0143119340520582,-0.128079395796487,-0.130252299998349,-1.065983666869,-5.76115324726911,6.13294807433916,7.48240481810152,-0.204632862081922,0.351577851883235,-0.0577576684245192,-0.282925075120153,-0.190522344502493,0.243177392513264,-5.53907160262704,2.04044123795097,4.43587895659284
0.4666480196,0.01952603002,-0.00797919843,0.11065565,0.650878271394472,-0.0553696911995297,-0.752458920293609,-0.0842451564992844,0.0133359360773338,0.0680236710898495,-0.0569693963831409,0,0,0,0.348231945356186,0.452275940500522,-0.197241075117947,-1.1538803656,-0.104758229490403,0.00983019951988648,-0.844310111498556,1.9700177042,0.428733239570047,0.288584974244991,0.483447518658606,0.128651537269724,-0.663702911,0.0332410771512101,-0.0190173358376305,-1.23295350177032,2.3083096373,0.764358291469972,-0.438370250245512,-0.357985904372695,-0.0740894563207732,-0.131377253572308,-0.269074283403369,-1.17225445573654,-5.91881001317627,4.96579976742711,7.83799619762511,-0.288114669884388,0.263454836293403,-0.0260910471566023,0.13299171408291,-0.0896759784643777,-0.0111233731038735,-5.52127436064759,0.878005507344063,4.17184257807319
0.4833140203,0.01911947541,-0.00720744745,0.109505284,0.653648851094899,-0.0542639066995766,-0.750216582394146,-0.0835086066993484,-0.0243942513454952,0.0463069091314751,-0.0690247180896854,0,0,0,0.341039001043018,0.448425373165042,-0.200730463920363,-1.1564860095,-0.109981923740969,-0.00690648825611954,-0.945297028333495,2.0332701819,0.555799681370786,0.280310527608047,0.484632692248063,0.130167224229518,-0.6564419933,0.0368861507190842,-0.025051783551563,-1.32571779272028,2.3051017222,0.798382738976252,-0.431593904419294,-0.231043272155826,-0.209371694219133,-0.156344881228761,-0.313434179236891,-1.00424139403798,-6.0594571338845,3.79530031460996,7.62429115947046,-0.496486636829684,0.0711132569109144,0.090944851562006,0.435672470600582,0.218713153412633,-0.362081330881765,-5.56607986641682,-0.192482597219617,2.04154842656877
0.499980021,0.01812209917,-0.00675460646,0.108322914,0.655593818391112,-0.0537776672992709,-0.748439966089854,-0.0845122768988543,-0.0598449656851389,0.0271715451205999,-0.0709450348217007,0,0,0,0.335522142265064,0.446498066650167,-0.206857381692637,-1.1595446787,-0.116703711720681,-0.0195746423221029,-1.04659198282012,2.0785300599,0.64427848410596,0.269628976797622,0.482783541656274,0.134187449692221,-0.645794481,0.0466390260734455,-0.0358283946643894,-1.41759551025438,2.2864581151,0.754085650757214,-0.331024753764367,-0.11564301175599,-0.367629756086249,-0.183527485391266,-0.403323394778906,-0.76011961681865,-6.07794013152939,2.71570119398831,5.30894029874689,-0.64091865845328,-0.110953468986072,0.241223166557471,0.638876266217842,0.585195904519629,-0.646622504511624,-5.51288333583862,-1.11866112546125,-2.65793149876911
0.5166460217,0.01667065442,-0.00602660471,0.10742858,0.656197741115304,-0.0533756919012449,-0.747939383817444,-0.084511763701971,-0.0870901649488112,0.0436818504393799,-0.0536621842335582,0,0,0,0.330956139649112,0.443020949445754,-0.211757707531859,-1.1626359477,-0.119566915665257,-0.036440441281906,-1.14388228723038,2.1053924225,0.667483376269812,0.260328850857835,0.481942034984768,0.135708007450701,-0.6325827603,0.0563730447161092,-0.0502059260854858,-1.50706690898752,2.2584927046,0.692237950776703,-0.273971104294517,-0.208635368916829,-0.29403129925597,-0.18548355155174,-0.17179910142305,-1.01198837461966,-5.83765152549508,1.61180616055057,1.39234916531908,-0.558029854144096,-0.0504924178664003,0.0912371111612965,0.792734918101857,0.584064456607382,-0.862686356487212,-5.36849843844904,-1.6779916791915,-3.71101028337954
0.5333120224,0.01480217172,-0.00528665368,0.106578696,0.656120727376054,-0.0540127611980287,-0.748041311072699,-0.0837998189969414,-0.112113441828909,0.0443988358886844,-0.0509950776613137,0,0,0,0.326030563607804,0.440378576650201,-0.216016369390138,-1.1669511968,-0.118669354461141,-0.0587630726838194,-1.24017769262182,2.1107959618,0.644892043548708,0.252534898557075,0.480385754710833,0.136334647711095,-0.610788272,0.0647196704180644,-0.065322535618628,-1.58986337223301,2.2133008942,0.65220307136112,-0.295546371920393,-0.158548703022253,-0.255529921961348,-0.258925292136825,0.0538558242179387,-1.3394114043157,-5.77795519902008,0.324225313395075,-1.3555341276989,-0.467655824637045,-0.0933805477359869,0.0375999180411715,1.30772155193778,0.500817553785127,-0.907032815205762,-4.96798630552631,-2.71161697479108,-2.40218875159314
0.5499780231,0.01250627735,-0.00498595545,0.106073744,0.654460912715204,-0.0565691815013142,-0.749307380217408,-0.0837812114019464,-0.137759166780786,0.0180426147468,-0.0302983306606967,0,0,0,0.325842094919596,0.441574455327024,-0.222907224132269,-1.1738588845,-0.116219676611844,-0.0797026275034024,-1.33722785346921,2.0948279444,0.63663103851529,0.247719097480497,0.474985660585756,0.135220124776275,-0.5799369403,0.0723997101975878,-0.0796336897574252,-1.6658241202802,2.1516471383,0.643464471111892,-0.011308573160429,0.071755587819153,-0.41346780587447,-0.414477823704883,0.146986544246177,-1.25642349334493,-5.82324233596076,-0.958119328532135,-0.495680108390876,-0.288959610842804,-0.32401859463964,-0.06687404824244,1.85115387040635,0.460820800248936,-0.858703560404699,-4.55782700448283,-3.69937317355328,-0.524336966410171
0.5666440238,0.00983288516,-0.00508121628,0.105888832,0.651533490387736,-0.0610856863988502,-0.751449552285856,-0.0842390656984145,-0.160409941060425,-0.00571587819506086,-0.0110951633405357,0,0,0,0.328322167830903,0.446789540398947,-0.226682090966647,-1.1833014494,-0.109620888714168,-0.0955079124870379,-1.4300221303772,2.056711699,0.63915705505086,0.247261037204232,0.465684106698777,0.128675278310898,-0.5455799467,0.0783207777428481,-0.0934149045319596,-1.73635373202874,2.0834222178,0.628052030019783,0.148810320841192,0.312917607877141,-0.226501060592041,-0.56657653326512,0.395943094954736,-0.948354993386958,-5.56787909579227,-2.28706611058764,0.151567048450338,-0.0274847148101873,-0.558115534399277,-0.392706479688149,2.0615019894965,0.355278248923892,-0.826905927979135,-4.23194580500295,-4.09365880441851,-0.924783418022333
0.5833100245,0.0069671707,-0.00500907351,0.10599729,0.647698023709673,-0.065819299800983,-0.754383810211266,-0.084024738901255,-0.171949738367646,0.00432873916775963,0.00650774003627588,0,0,0,0.330866111902582,0.452734917736065,-0.225140334443896,-1.1742654084,-0.0982852607158975,-0.106466854203153,-1.51944936722862,2.004391964,0.608869729894889,0.250969533251427,0.456502476835824,0.116926321497442,-0.5129692577,0.0824103161706171,-0.107341572202933,-1.80293850619637,2.0093225192,0.594450971678672,0.152642743599533,0.356736894719904,0.0925090878431979,0.542184124593257,0.680164857923637,-0.657562777860393,-5.36584861966466,-3.13930954053063,-1.81731212551614,0.222518654232093,-0.550919805430726,-0.704965577821903,1.95671952659884,0.245382110644519,-0.835633450499831,-3.99524609210097,-4.44615957564432,-2.01614406155109
0.5999760252,0.00393792945,-0.00474182751,0.106100414,0.643706536280943,-0.0702883979979192,-0.757455696977576,-0.0834404180975298,-0.18176173783552,0.0160354007425429,0.00618768724760681,0,0,0,0.33316889309665,0.458709960406351,-0.224717819665083,-1.1581437036,-0.0834416176092621,-0.117867028551726,-1.60488961600875,1.9394744424,0.574393147330884,0.258325049214151,0.447722358999343,0.100253217922889,-0.4861033959,0.0850378369822772,-0.119925882798795,-1.8648355844586,1.9275328997,0.559093259924932,0.13817239273653,0.3585168858349,0.0253518997399981,0.967340941009319,0.890654175157657,-0.684037793696508,-5.12661977628077,-3.89520694067892,-2.06867761406042,0.441348593170539,-0.526828121186928,-1.00042618950282,1.61201612094016,0.157657548379922,-0.75508880759026,-3.71397309867102,-4.90757326681259,-2.12154747801852
0.6166420259,0.00083181364,-0.00431249448,0.106365336,0.639323192121036,-0.0742791176024441,-0.760877563425036,-0.0825457581027161,-0.186374395748105,0.0257610111584838,0.0158959551705768,0,0,0,0.336710125217975,0.464208483131785,-0.230832114767723,-1.1413400976,-0.0647894928008887,-0.13359105928528,-1.68529676011218,1.8654358302,0.562910224732117,0.269052655234767,0.440085198847316,0.0801783099280295,-0.4591378682,0.0871911726787477,-0.132058552566444,-1.92103146604377,1.8421391753,0.53721443866583,0.212482417651962,0.329924546651082,-0.366872365644386,1.00825664791913,1.1191722083855,-0.943479543568877,-4.82462142842866,-4.44249424518505,-0.689002887103399,0.643682081485573,-0.458247919792014,-1.20454261080524,1.61799631389671,0.129205304573793,-0.727989275054421,-3.37188762899565,-5.12382820192729,-1.31278173167854
0.6333080266,-0.00230923133,-0.00399053662,0.107149434,0.634061518859821,-0.0777911345950706,-0.764890802851531,-0.0828045251947529,-0.188470229093414,0.0193182435183745,0.0470477599343913,0,0,0,0.344895602325284,0.47099111871136,-0.245664021169619,-1.1215128995,-0.0478949733282051,-0.145225624405664,-1.76143494477943,1.7808030694,0.558693247183576,0.282002650512342,0.432028318548264,0.0614197597193608,-0.4396044503,0.0927093189879189,-0.147220738211971,-1.97088436258086,1.7577455247,0.515706055794127,0.491148251740376,0.406974396657411,-0.88994994473367,1.18967942321039,1.0137116742521,-0.698101801974826,-4.56847362710406,-5.07816856145937,-0.253028763435789,0.777030765249815,-0.48343213492436,-1.12555798756619,1.17205190685009,0.331102008724336,-0.909767491221007,-2.99129331832402,-5.06382137617455,-1.29055454028054
0.6499740273,-0.00533966622,-0.00339245095,0.10845982,0.627890045400614,-0.0797500823000779,-0.769751157000752,-0.0829287137000809,-0.181833359097363,0.0358865741557301,0.078626301749766,0,0,0,0.358010512914642,0.476044680280571,-0.264835003230162,-1.0938512471,-0.0343934651402527,-0.15299091338496,-1.83091469213165,1.6875937608,0.545710428311902,0.297376053134001,0.426631139131281,0.0458143585207504,-0.4243551115,0.0985929036661126,-0.159567045106814,-2.01572202753313,1.6753467854,0.475659492748214,0.786926079353728,0.303225810449627,-1.15030488751529,1.65976546490846,0.81012286216647,-0.465935956626689,-4.16895142409471,-5.59278199238286,-0.779000259592784,0.922441016197684,-0.32384370516579,-0.936361487048922,0.914996889445709,0.353029187031876,-0.740808014897286,-2.69036739883684,-4.94412191522349,-2.4028897974253
0.666640028,-0.00818635741,-0.00282993613,0.10987333,0.622062246182497,-0.0816011171977039,-0.774278630078214,-0.0829000756976675,-0.170808296557914,0.0337522378719209,0.0848139889973711,0,0,0,0.371949699764092,0.482266834153749,-0.283629571160849,-1.0587875828,-0.0213791107350752,-0.159064233666288,-1.89267992073254,1.5827064539,0.530329917976439,0.312664305847896,0.421145416940307,0.0310301801683992,-0.412352977,0.106332754595445,-0.172140945283,-2.06000572371221,1.5940441129,0.429451773717904,0.836384631224091,0.373344150476237,-1.12771913724251,2.10390392579306,0.780892467211859,-0.36441377812543,-3.70606180287068,-6.293489889269,-0.922867496067198,0.91733181757844,-0.329156483893209,-0.887086147329346,0.720156846027253,0.464409612639225,-0.754464157449919,-2.65712794426302,-4.87835527932025,-2.77257392832762
0.6833060287,-0.01089541215,-0.00261741452,0.111469974,0.616075317207166,-0.0839661905009767,-0.778684052409058,-0.0839763592009768,-0.162549779564092,0.0127518061366696,0.0958024680750207,0,0,0,0.387961065288373,0.491578798551083,-0.304272490364667,-1.0209143074,-0.0103535209776677,-0.163180122298761,-1.94671216434053,1.4671010802,0.513339337029968,0.327779099621985,0.413437421453943,0.0179003935854893,-0.4040260851,0.118127242272431,-0.187386448066499,-2.1029006180687,1.51223704,0.400779258426366,0.960720319919424,0.558740189980558,-1.23862464519266,2.27248732804865,0.661561820131659,-0.246963186103392,-3.24206416287888,-6.9365995946466,-1.01947559299398,0.906923865309179,-0.462498209685294,-0.787818674633195,0.499633478354529,0.707697538797419,-0.914766719258522,-2.57379650515014,-4.90862051265845,-1.72041966202113
0.6999720294,-0.01336751598,-0.00212349333,0.11376715,0.608703926422689,-0.0852526529031777,-0.784259294629232,-0.0845510137031516,-0.148332156856324,0.0296364556134934,0.13783606765359,0,0,0,0.408344284207271,0.499311573621525,-0.328279665696556,-0.9761803803,9.01208270305739e-05,-0.167004808025732,-1.99102571193469,1.3511152247,0.505451099787182,0.34618134616056,0.408239228523868,0.00628975043994203,-0.3991243623,0.127480031895869,-0.197395520335847,-2.14138327484309,1.4344826218,0.383337551528635,1.2230420054463,0.463985044140924,-1.440488078936,2.68414287898116,0.626643547704774,-0.229490313592211,-2.65891910073924,-6.95942941488056,-0.473313147213902,1.10417891309551,-0.311904038866079,-0.696666426129893,0.294115120251976,0.561189801428378,-0.600568333670367,-2.30905167154999,-4.6654515141116,-1.04654423167826
0.7166380301,-0.01565490367,-0.00163807889,0.116768414,0.599778429895856,-0.0863506685994033,-0.790905536894535,-0.0853101914994104,-0.137248745585376,0.0291260302179154,0.180083035757944,0,0,0,0.432893778591037,0.506970150421546,-0.353901626559714,-0.9260976815,0.00904955130178336,-0.167515745270828,-2.0273980922575,1.2371609325,0.510019541099008,0.367798835051438,0.403379967469327,-0.00229499624600563,-0.3971004955,0.1340023800639,-0.202638052705363,-2.17251950833756,1.3584211731,0.357790104778903,1.47302852229968,0.459532970019664,-1.53737908238282,3.00508200506675,0.537587309398876,-0.0306574597165646,-2.18243002490735,-6.83753074605356,0.274117431893883,1.29710116302091,-0.291567313719171,-0.515105383737783,0.121436860374067,0.391356527906035,-0.314564511539735,-1.86824866114868,-4.56386928508889,-1.53290805692408
0.7333040308,-0.01779341207,-0.00122879932,0.120356418,0.589737095684902,-0.0876629937977557,-0.798207452879565,-0.0859663867977992,-0.128315631235993,0.0245577554787934,0.215288842511569,0,0,0,0.459939960287447,0.513746925742006,-0.375699934065613,-0.8706624527,0.0182938816681893,-0.166543320598979,-2.05422698865955,1.1218330663,0.512585145778264,0.391940107010935,0.39847434445266,-0.00777229169806043,-0.3977210349,0.139883426818285,-0.205747767652916,-2.19932023830664,1.2877318477,0.34584149479027,1.62283574705537,0.40662276706013,-1.30795071344856,3.32624663816317,0.554681985967153,0.058347811772809,-1.60979810843598,-6.91994847930133,0.15394243198704,1.44853419809936,-0.294349142603075,-0.328650859354326,-0.0372338517902504,0.352876905518461,-0.18659035263049,-1.60810805492619,-4.24152900701607,-0.716945247016114
0.7499700315,-0.0198168817,-0.00056317464,0.124694738,0.578231781709189,-0.088221991901402,-0.806504795212817,-0.0861098256013687,-0.121413029221822,0.0399390766856262,0.260309601451055,0,0,0,0.490577707766392,0.517043597824602,-0.393632127002629,-0.8221895092,0.0211749743990429,-0.156582919121966,-2.06945678493408,1.0105962516,0.487866872482385,0.41951243114951,0.395547618453639,-0.00897351431702988,-0.4044006969,0.141819626739701,-0.202990124947191,-2.22216945233821,1.2224320991,0.372716164231846,1.83833830505869,0.197808228976966,-1.07597457001281,2.9084928275564,0.172872471489432,0.597647969438362,-0.913824291062717,-6.67447558069525,-1.48315566168664,1.65440555505163,-0.175610576988682,-0.0720762371604518,-0.400795734995981,0.116176637471068,0.165465174000928,-1.37100762461679,-3.91814147709714,1.6125446005517
0.7666360322,-0.0220828076,9.691234e-05,0.130016292,0.563908858801729,-0.0885208895002715,-0.816485505102504,-0.086731027000266,-0.135960986729108,0.0396068014085707,0.3193059988291,0,0,0,0.528574601241374,0.518280826225336,-0.409901952100842,-0.7874060513,0.01654950804027,-0.139268942412452,-2.07555600705968,0.9180170069,0.446439454588667,0.453489713188308,0.392877207158007,-0.00507314025193324,-0.4210887192,0.140599660671114,-0.196703902867114,-2.23656020428183,1.1656373398,0.410993804302841,2.27990470893128,0.0742366703929177,-0.976228514031754,2.08709086997699,-0.277539071432593,1.03888011414243,-0.365967950883594,-5.55497664775689,-2.48574439899782,2.03871838543711,-0.160231080251445,0.234031795348277,-1.00132134879845,-0.0732008890763482,0.377188396498614,-0.863479619536047,-3.4078217277406,2.29675017780331
0.7833020329,-0.0245691572,0.00083150011,0.13654333,0.546251676697547,-0.0884787488996027,-0.82841618339628,-0.0866443522996109,-0.149186937211637,0.044077027429862,0.39163792906837,0,0,0,0.574192348538069,0.516936471444598,-0.422137581742031,-0.7659991376,0.0065847970024462,-0.116138509664207,-2.07525474967373,0.8505897018,0.398668724412492,0.4951386286612,0.391957848195378,0.00105509286518895,-0.4413838478,0.134020074875968,-0.183636484342216,-2.23948332785223,1.1153090256,0.431795964148792,2.73717420980881,-0.0806645100367667,-0.734167114320922,1.28446614669828,-0.597906553419488,1.38788142186058,0.0180761654445383,-4.04579996807512,-2.86635834451723,2.49903478480549,-0.0551637419905466,0.367708679930764,-1.21775637510924,-0.394790922764475,0.784076441620285,-0.175394422634028,-3.01981951794829,1.24817946551214
0.7999680336,-0.02745335894,0.00174788565,0.144274074,0.525483994617384,-0.0881551486029164,-0.841901342427852,-0.085424649802826,-0.173059019492301,0.0549853295037963,0.463863175044747,0,0,0,0.625874609415636,0.513284525449793,-0.430233333659188,-0.756987614,-0.00799506865540626,-0.0868196070627965,-2.07012422494329,0.8098240465,0.364980966580534,0.542904933999847,0.393229452926046,0.00788299755918898,-0.4543980416,0.122492453089595,-0.165750167988301,-2.23284567232853,1.0774859953,0.436688509257091,3.10105956479206,-0.219125515505669,-0.485764525208318,0.540713021810927,-0.87482689580425,1.75920445037604,0.307843784647991,-2.44603705674872,-2.02134623887044,2.86609284365665,0.0762993326088029,0.409690652059077,-0.780882830516143,-0.691684945529459,1.07322186503419,0.398275245703988,-2.26947250158222,0.293564436745714
0.8166340343,-0.03092999112,0.00283367126,0.153037836,0.502263539910021,-0.0874426101017447,-0.856247170317085,-0.0832220508016605,-0.208606266289189,0.0651497398533051,0.525846731783711,0,0,0,0.681558074264695,0.507523009568312,-0.43442658642522,-0.7579634564,-0.0286982153743098,-0.0491792591493486,-2.06156406280625,0.7975700898,0.347153474190193,0.593676751720562,0.396189459272557,0.0139238661927962,-0.4737200875,0.110730076790172,-0.147612031246156,-2.21841702071479,1.048710752,0.443376238917806,3.34114139627148,-0.345704766559909,-0.251605219603258,-0.0585528836561207,-1.24223844049782,2.25851112039422,0.513630251860452,-0.735266781790064,-1.06969228618485,3.0464307925245,0.177607477630298,0.362466601456896,-1.1593690800697,-0.705770779154128,1.08833169208647,0.865753690610234,-1.72658358882704,0.401279813981668
0.833300035,-0.03533746069,0.00438415712,0.162713712,0.476802407997011,-0.0862043409994597,-0.871203055094539,-0.0789525940995052,-0.26445874144239,0.0930328690073798,0.580575758646162,0,0,0,0.739046962046348,0.499199925701613,-0.432621222931427,-0.7652082877,-0.0462373173483632,-0.0164232828395051,-2.045616390905,0.8090665735,0.349244814729364,0.649905265724848,0.401714691355138,0.0159368115574127,-0.5039761885,0.0989018232463319,-0.130579828715399,-2.19346215587423,1.0256148098,0.464452907170534,3.44947110086543,-0.499404987226393,0.108326138123421,-0.434707248032222,-1.05238816976969,1.9654371135268,0.956898549826769,0.689816585691131,0.125485446497693,3.37384565238176,0.331527172117553,0.120781548066088,-1.81543860129563,-0.709723571764907,1.02197298784205,1.49735172161392,-1.38581190627216,1.26465062807348
0.849966035700001,-0.04048467066,0.00604182229,0.17265451,0.450867526200634,-0.0854897583001202,-0.885424048201245,-0.0737172294001035,-0.308844939026074,0.0994638845779,0.596471713816741,0,0,0,0.794782929894979,0.491777125990502,-0.425354313447814,-0.7740008787,-0.0578397181724398,0.00894618142856232,-2.02771018027891,0.8405051894,0.353471235823904,0.707801023098523,0.407351838874883,0.0107305979423119,-0.52250985,0.0875170537791942,-0.116870820307686,-2.16462675481347,1.0137256271,0.501905124948206,3.34429170212567,-0.445385779391629,0.436031991983094,-0.527576540903419,-0.69617186708006,1.52222868129769,1.07441556906329,1.88639233046474,0.253595398837381,3.47388425188744,0.338242366673203,-0.312385299197838,-1.11206412585834,-0.683113463876051,0.822573372849621,1.73019319870531,-0.713379467216754,2.24722286119142
0.866632036400001,-0.0461977852,0.00799595447,0.182712656,0.425158054689495,-0.0844095808979145,-0.898652266077797,-0.0673777103983354,-0.342800570025177,0.117252615980029,0.603512875167465,0,0,0,0.847752874708516,0.483538617908231,-0.414268858210185,-0.7826460454,-0.0650094757692235,0.026861455289494,-2.00745742223058,0.884017993,0.352400378452549,0.766564697788992,0.415501484012334,-0.00431633409506516,-0.5290341714,0.077051459052561,-0.105299317755516,-2.13497344739383,1.0213003559,0.530242674595633,3.17832368827018,-0.494330237383902,0.665153892476972,-0.518730729442489,-0.430202645844347,1.074959384883,1.21521404042238,2.610872541245,-0.0642540097430236,3.52596137179263,0.488998247639048,-0.902851998402773,-0.391474926555111,-0.627960775654664,0.694317896684743,1.77926954123074,0.454501888986486,1.70032092026898
0.883298037100001,-0.05240975957,0.01009696793,0.19271035,0.400134164616023,-0.0832076933033319,-0.910658919036465,-0.0605760948024256,-0.372733355879434,0.126065844939032,0.599885610229215,0,0,0,0.896767371584647,0.47527630454321,-0.399124362916928,-0.7928908449,-0.0683079049062594,0.0371122205842773,-1.98564994937267,0.9361282884,0.348822385262961,0.824124029111913,0.424943879230338,-0.0259755578356422,-0.5221979668,0.066130459147211,-0.0947175966188825,-2.10352216198554,1.0416840563,0.536692047640133,2.94098732853955,-0.495758611423877,0.908706027670881,-0.614712532683375,-0.19791365645604,0.615070494673825,1.30850065654388,3.1267426623833,-0.21468816988516,3.45369788223523,0.566566351938521,-1.29960535406536,0.410188666318729,-0.655286178246116,0.63492863867653,1.88715253133819,1.22307089546684,0.386977845530705
0.899964037800001,-0.05917949415,0.01220751196,0.202668928,0.37527091820531,-0.0822306923011636,-0.921684723013042,-0.053917738800763,-0.406200305751817,0.126637701989296,0.597538556445638,0,0,0,0.9437288024607,0.46763746211748,-0.380993231044214,-0.8057224262,-0.0692631208166688,0.0420392790516937,-1.96167823961973,0.9967662626,0.350710170732663,0.880636486483623,0.434461288115737,-0.047936845988609,-0.5029733279,0.0547632644010397,-0.0861493013507822,-2.06889718110272,1.0759972295,0.518634795729604,2.81779844615345,-0.458348860247557,1.08791138312591,-0.769925642688834,-0.0573152448271132,0.295635321041141,1.43836005916705,3.63842383613965,0.113271654290881,3.3908829352029,0.571067351833187,-1.31772994303107,1.15352442652903,-0.68205893848134,0.51411825922342,2.07758186898596,2.05887266043376,-1.08347840826194
0.916630038500001,-0.06647631956,0.01423841216,0.212563498,0.350527270792848,-0.0814055285983389,-0.931779613480987,-0.0478594216990234,-0.437827019292037,0.121858881237176,0.593697922981608,0,0,0,0.989625475177897,0.460746475683492,-0.362605402325798,-0.818865934,-0.0694695976681305,0.0443022620269275,-1.93667068866309,1.0720300961,0.359513590914543,0.936049869953616,0.443516175138591,-0.0713668116719865,-0.4738788438,0.0445608846679218,-0.0814087939635118,-2.03026775439032,1.1237215125,0.519344272734052,2.75391040378375,-0.413475707701615,1.10331380931816,-0.788641980556256,-0.0123891061316084,0.135784404187251,1.50051301489776,4.51601046074599,0.52822631777996,3.32493586598692,0.543314931149256,-1.40585411612142,1.74573880223106,-0.612167244965847,0.284441808962031,2.31785821972226,2.8635714025861,0.0425703212917389
0.933296039200001,-0.0741807486,0.01625125369,0.22228738,0.326147119301973,-0.0802799806004858,-0.940947742205693,-0.0424326257002569,-0.462284214352637,0.120775317740146,0.583456233744186,0,0,0,1.03439192350804,0.45424591992504,-0.345905870386771,-0.8350154417,-0.0701284679705339,0.0447303675848211,-1.91020736174981,1.1624678219,0.359546091644871,0.989650885455504,0.452832231467779,-0.0950613631534912,-0.4359554669,0.0331297559730143,-0.0755442471836213,-1.9857562020858,1.1784131499,0.523954932271808,2.68609423076203,-0.390048931082281,1.00201195473529,-0.969009181668882,-0.0395337978356946,0.0256873598891431,1.58786306262917,5.42648037930299,0.00195012174264193,3.21618944261105,0.558985715702526,-1.42172989837357,2.2754935381708,-0.685895128692004,0.351886867488878,2.67079985809207,3.28162937134642,0.276650626671099
0.949962039900001,-0.08221108273,0.01808167382,0.231854798,0.30245895010901,-0.0791039105023564,-0.949095301228273,-0.0384612016011456,-0.481839301134795,0.109829596371012,0.574068018609889,0,0,0,1.07796925470243,0.449121477391219,-0.332932169806249,-0.8532194766,-0.0729869080209697,0.0461486486681368,-1.88313494763705,1.2626881182,0.355404013615811,1.03979264230369,0.461426674999397,-0.116366812367919,-0.3930076064,0.0217451281384917,-0.069695689856886,-1.93820953257012,1.2419187001,0.520977877544033,2.61474435161781,-0.307478838268679,0.778453140261915,-1.09228573955358,-0.171513256352846,0.0851002654353505,1.62440975493059,6.01345806375732,-0.248534612689619,3.00862562955398,0.515687217726928,-1.27837803429513,2.5769746007511,-0.683104965579571,0.350927461963645,2.85291416768505,3.81048527137048,-0.178630421380837
0.966628040600001,-0.09049880553,0.0198290659,0.241135958,0.279501946906635,-0.0778929796018491,-0.956330425522702,-0.0352627654008372,-0.497283238443641,0.104847714304968,0.556891852284633,0,0,0,1.12013356618089,0.444712751167462,-0.3232874166943,-0.8739943958,-0.0783893376575177,0.0496081239534201,-1.85394393632308,1.3673764575,0.3517812339622,1.08747737671987,0.469645910812389,-0.137373169825671,-0.3515729961,0.0090815428486207,-0.0611226799236641,-1.88837311539246,1.3141980205,0.511911279170876,2.52995978084046,-0.264534143680739,0.578708310743575,-1.24654496144357,-0.324158730927452,0.207576811471226,1.75153066650042,6.28155135622909,-0.217375465105529,2.86119839273615,0.493173855020429,-1.26043181179949,2.48617596061903,-0.75984547929792,0.514401150434482,2.99030451724739,4.33693251914959,-0.544017640246318
0.983294041300001,-0.09899452206,0.02148978601,0.250066852,0.257182292200115,-0.076203222000034,-0.96280899600043,-0.0323909672000147,-0.509763360924376,0.09964718830235,0.535875052495346,0,0,0,1.16080909119984,0.43992683641015,-0.315666677821019,-0.8925136017,-0.0866937233146409,0.0542197227228453,-1.82169793327604,1.4788977607,0.365619109482894,1.13337824149163,0.478466041359256,-0.158612566074595,-0.3156507156,-0.00347084647704403,-0.0499544374090153,-1.8352939563185,1.3944918928,0.493120230531279,2.44062902379211,-0.287166360032164,0.457262603696006,-1.11119675519994,-0.498283049821493,0.276706982823136,1.93483749505906,6.691545572778,0.83030570859718,2.75416193710815,0.529228979743558,-1.27441469799792,2.15542295639049,-0.753173454844793,0.670121327586935,3.18487680574504,4.81782484864531,-1.12750797133931
0.999960042000001,-0.10743357527,0.02342062968,0.25841634,0.236062222195152,-0.0746488762984669,-0.968444983880111,-0.0285742141994131,-0.506363425869771,0.115855249544061,0.500989298530392,0,0,0,1.19787899347331,0.435596178511775,-0.304907237408806,-0.9060957571,-0.0919608577319313,0.0547972630655183,-1.78381369088885,1.5934629182,0.375784233451487,1.177906271357,0.486879329365464,-0.182456309571302,-0.2872986839,-0.0190009818108187,-0.0354364750817616,-1.77933592254443,1.4837427948,0.470510227266884,2.22428301430863,-0.259849856983062,0.645592221306772,-0.814961888247128,-0.316040693391456,0.0346538052571306,2.27314537357399,6.87418412864941,0.609931809770804,2.67178855124954,0.504817451868248,-1.43068177698489,1.70118987814515,-0.931845354703164,0.871112547550397,3.35761619007231,5.35526810580296,-1.35665440506042
1.0166260427,-0.1156182419,0.02546147485,0.266189756,0.216490394202099,-0.0727454685007054,-0.973259376209438,-0.0246209799002388,-0.491099621158662,0.122455603280996,0.466423597354102,0,0,0,1.2315893642903,0.431129190099036,-0.292969398981091,-0.9168323802,-0.0970193512151116,0.0549265176033934,-1.74170929808464,1.7092934393,0.387312979972957,1.21874877581152,0.495856040569797,-0.207966937992042,-0.2631605303,-0.0349931351735585,-0.0183246447575881,-1.71906526944774,1.5746796849,0.454388131633987,2.02270307218887,-0.268030014707652,0.716298927535424,-0.644223127867744,-0.303521737112388,0.00775558217005424,2.52636451672626,6.95010897845457,0.691752432331892,2.45064819027117,0.538624194605529,-1.5306988689098,1.44834708905299,-0.959567544164316,1.02675084636073,3.61638368926088,5.45643143408725,-0.967364391920203
1.0332920434,-0.12353159847,0.02749817714,0.273267974,0.198739141595085,-0.0704250448982584,-0.977289669275832,-0.0211652775994766,-0.474820367072228,0.122207020548127,0.424710050564202,0,0,0,1.261803975624,0.426386723633703,-0.283359856334475,-0.9241794949,-0.103571743827872,0.0564725221308231,-1.69544785451268,1.8225408732,0.405490804090943,1.25408475263845,0.505550184495857,-0.235886014299434,-0.2426934814,-0.0490208696869954,-0.00179743658976251,-1.65469146989322,1.6611345692,0.448359047532276,1.81294912184315,-0.284559358342857,0.576595598403858,-0.440844497264418,-0.393159266623588,0.092763978308829,2.77579752963545,6.79511755330718,1.09071302979045,2.12024333029933,0.581671878008485,-1.67521151654529,1.22807200530119,-0.841697703363049,0.991672115303918,3.86258231433502,5.18750034013859,-0.361759501288812
1.0499580441,-0.13103888119,0.02934133923,0.279606544,0.183419418805815,-0.068197274302162,-0.980491015431083,-0.0185423095005878,-0.45045496247939,0.110594144520827,0.380329397202053,0,0,0,1.28685968990411,0.42214790906095,-0.276408190406897,-0.9267812305,-0.111569506033381,0.0609197275131281,-1.64618091067079,1.930740815,0.432908362618926,1.28215362220576,0.514892390328079,-0.26305224927666,-0.2269516636,-0.0611726158551652,0.0141708699115723,-1.58893394709106,1.7429817845,0.434024737847093,1.50340292978035,-0.254339037244406,0.417116622800724,-0.156110373858325,-0.479884907571673,0.266842985450311,2.95613475174542,6.49225592556228,1.64511924735382,1.68419947128078,0.560554748579984,-1.63003923174117,0.944546810201442,-0.729133904822756,0.95813667530536,3.94560902677506,4.91102915290289,-0.860092948705025
1.0666240448,-0.13814522526,0.030867564,0.285345928,0.170004316092353,-0.0676350853969577,-0.982980081755785,-0.0165585809992554,-0.426397682198587,0.0915771454395773,0.3443768006082,0,0,0,1.30784825116544,0.421494376757089,-0.273265502267334,-0.9199595253,-0.117625840911996,0.0682590789476666,-1.5929238320986,2.0344029004,0.466724640530895,1.30386903151067,0.521106608976621,-0.285805798830529,-0.2159934951,-0.0744743818570929,0.0295371725600621,-1.52292512861554,1.8281939946,0.410657462252977,1.25936399734686,-0.0392135051248747,0.188568823206796,0.40931866755532,-0.363394613238859,0.440378682723719,3.19555240221421,6.21997366170757,2.02905775180782,1.30297662263467,0.372868017972788,-1.365267526592,0.657516383039634,-0.798137852107955,0.922015000784787,3.96068736967752,5.11293690873301,-1.40209256046149
1.0832900455,-0.14460534753,0.03216755661,0.290441676,0.158750440501826,-0.0688125060007914,-0.984807312611326,-0.01475444630017,-0.387622824832833,0.0780026734308253,0.3057570974421,0,0,0,1.32564865426246,0.424439353664507,-0.272122792927884,-0.9090863333,-0.119004601288914,0.0734488845228153,-1.53697286081135,2.1320069483,0.498455844603095,1.32068414252563,0.523822280125623,-0.303485386912538,-0.2126413665,-0.0895359332324198,0.0452981160652701,-1.45588695605205,1.9133573355,0.389604860088661,1.06806686363683,0.176705675250443,0.0685653000992839,0.652417589302035,-0.0827289282976379,0.311400777461188,3.35719242393002,5.85647688710345,1.90394832229907,1.00894697640045,0.162946779967558,-1.0608176730731,0.201135752982416,-0.903729193730735,0.945694398369253,4.0224510829098,5.11000463956538,-1.26320660506848
1.0999560462,-0.15025699283,0.03358941082,0.294849338,0.149765941900867,-0.0698091386004041,-0.986180377105708,-0.0120461872000695,-0.339112268248015,0.0853146616032481,0.264470287703755,0,0,0,1.3406160869646,0.426948952145783,-0.272610807250683,-0.9021787719,-0.1171782363707,0.0735093238249996,-1.48052778393,2.2223120292,0.538775173188858,1.3345993763214,0.526776358059718,-0.316219971519025,-0.2202509106,-0.105232705345119,0.0655044503907885,-1.38970512078833,1.9901396053,0.374872938160487,0.898081847682727,0.150581925829157,-0.029282029419261,0.414470245402068,0.109586273941182,0.00362650303886648,3.38683994423167,5.41852136727679,2.41925638379236,0.834947390574364,0.177251758671444,-0.764105608521163,-0.4565908904588,-0.941843960962924,1.21242850574934,3.97106879179002,4.60712027931212,-0.883950636590005
1.1166220469,-0.15517168604,0.0349565153,0.298540466,0.142420107696784,-0.0704318275984093,-0.987259148077703,-0.0086743945998039,-0.294893375949515,0.0820295465366205,0.221476529759179,0,0,0,1.35328357891041,0.428511746864995,-0.273953131000078,-0.8994492938,-0.114095825295048,0.0712904858578016,-1.4217383845137,2.3034017715,0.596912663059465,1.34465089406861,0.531515190955052,-0.319839079160296,-0.2318687002,-0.119395309307025,0.0873601597009476,-1.32447137095908,2.0595181885,0.37360507067027,0.760079888021023,0.0937714300715062,-0.0805426432866652,0.16377523013064,0.184952054853367,-0.133135597864101,3.52750491701937,4.86557895680396,3.48838878127531,0.603115164108542,0.284341335431144,-0.21715513556113,-0.697095230531222,-0.849790193630923,1.31139495932933,3.91418139261496,4.16288133241227,-0.0760750892214058
1.1332880476,-0.15947114428,0.03595669777,0.30149728,0.13607961100308,-0.0701996062015892,-0.988189325122371,-0.00601768000013656,-0.257977802677041,0.060013346213288,0.177415929185697,0,0,0,1.3654273080831,0.428223942620846,-0.278793624271363,-0.8977946327,-0.113828155678834,0.0716316141880319,-1.36060778533621,2.3793759539,0.644070752093538,1.35358051493455,0.538261065019192,-0.316962068778164,-0.2624414808,-0.127311014254465,0.106795509339055,-1.25745889538555,2.1227916098,0.370148293220883,0.728652865872523,-0.0172689446814538,-0.290441201726625,0.099283633175415,0.016060818731017,0.0204685176948487,3.66798251589453,4.55863309786132,2.82959840713753,0.535798661399176,0.404768617592839,0.172627520778369,-1.83444013655898,-0.474961275349043,1.16616757601045,4.02090920190173,3.79655698082386,-0.207414934849216
1.1499540483,-0.16308141682,0.03624248712,0.303712668,0.130975461701687,-0.070477415300908,-0.98886193561274,-0.00551676180007096,-0.216625008302081,0.0171480462016303,0.132928591560661,0,0,0,1.37827937240724,0.429053001781335,-0.290247583191217,-0.9008167292,-0.11617597570419,0.0774742345278443,-1.30066009379524,2.445351145,0.677564395305923,1.36179655711198,0.543425692622711,-0.308282562717339,-0.3155410589,-0.128914754768284,0.115796002095098,-1.18872845400593,2.1803944565,0.37404299773529,0.771154673246693,0.0497455373615371,-0.687264996925988,-0.181333035705438,-0.14087483059787,0.350571228513889,3.5970052215929,3.95866964652175,2.00969889629165,0.492982229229742,0.30989003879729,0.520791173423202,-3.18610199626357,-0.0962282759186029,0.540051144726239,4.12399126922014,3.4563089091914,0.233691608713747
1.166620049,-0.16557185638,0.03607664172,0.304975048,0.127874948304372,-0.0710326508024285,-0.989224341933821,-0.00612873900020871,-0.149432344617626,-0.00995112162691816,0.0757458266517418,0,0,0,1.38939436415313,0.430552052264745,-0.303787510409057,-0.9140431557,-0.118443161044385,0.0847706011243155,-1.24583083819268,2.4956846953,0.70627003188449,1.36795601953312,0.547718912875523,-0.295848881391144,-0.3813438222,-0.127631254897986,0.117951622550161,-1.12256232424999,2.2247781793,0.392190480040214,0.666926153788808,0.0899466230917843,-0.812428096072275,-0.793617301360131,-0.1360365561604,0.437799489380273,3.2898867934506,3.02013369650224,1.72240701865366,0.369582513046021,0.257603508489698,0.746050690265208,-3.94832356511302,0.077013069506121,0.129342395567198,3.97012642366789,2.66312978133978,1.08889244825986
1.1832860497,-0.16695843353,0.03577534737,0.305437328,0.12576895930492,-0.0714987366027968,-0.989456877738704,-0.00672210050026296,-0.083197953423822,-0.018078383376043,0.0277379083513441,0,0,0,1.39928368829551,0.432427444314314,-0.316773823770535,-0.9357286826,-0.118546231218857,0.0900225162404141,-1.19505991587751,2.5268929276,0.737217185831531,1.37815008932091,0.551840318595832,-0.271875415269537,-0.4413949101,-0.125620649928149,0.117804341768484,-1.06172038717496,2.2561888699,0.426562362654289,0.593383158946804,0.112528019368747,-0.779209937359363,-1.30118360669455,-0.0061844575868831,0.315127498830511,3.04637706604481,1.8725687621026,1.85690343496987,0.611668628322559,0.24729422460117,1.43846544549872,-3.60320925103525,0.120641118768006,-0.00883720001746333,3.65066209765829,1.88471674551172,2.06239536603854
1.1999520504,-0.16734895114,0.03532262083,0.305277308,0.124622635099392,-0.0723758256996469,-0.989535388895173,-0.00711707799996533,-0.0234319928955722,-0.0271646778461972,-0.0096015836600822,0,0,0,1.4075753307518,0.435788597336627,-0.329820149172492,-0.96710506,-0.11574536020825,0.0911650075778293,-1.15081770095519,2.5379443525,0.770240887295412,1.3932607944811,0.55442890010715,-0.243173443689419,-0.4882271922,-0.124153255301695,0.115906943521926,-1.00877532537852,2.2768640402,0.483943709772563,0.497518427218595,0.201677239957907,-0.782810803671483,-1.88265787124322,0.16805897593699,0.0685522194545004,2.65463896940309,0.663111990628908,1.98150126466041,0.906678538672327,0.155321096999469,1.72218710995956,-2.81004920994633,0.0880471957770903,-0.113848443949566,3.17683064758532,1.24055978828803,3.44301840322583
1.2166180511,-0.16651416789,0.03495435041,0.304398976,0.125227701504575,-0.0726742786026552,-0.98944228843615,-0.00635844790023194,0.0500889964561203,-0.0220971081562479,-0.0527020258675485,0,0,0,1.41111796524228,0.438438890997357,-0.338386954889595,-1.0038036667,-0.109989205666321,0.0855721093464595,-1.11346945142199,2.5273100613,0.778991705039561,1.40948808401835,0.55708118951341,-0.229625975415065,-0.5307286685,-0.121958052447318,0.117806748324605,-0.964262761165849,2.2859310257,0.545226212396483,0.212566563163936,0.159023973923737,-0.514028882592301,-2.20200438969141,0.345383073332628,-0.335587303279655,2.2409845172515,-0.638082968519238,0.525070045397833,0.973676278391769,0.159143723440518,0.812880577543357,-2.55019047851114,0.131717434427901,0.113992843086731,2.67086057500694,0.544040868785039,3.67709708688056
1.2332840518,-0.16470376937,0.0345288279,0.302960574,0.127307868004319,-0.072096941702446,-0.989225602733561,-0.00523876300017804,0.108628251767683,-0.0255323708224732,-0.0863075686778295,0,0,0,1.41190402424386,0.440004695742765,-0.346184234764601,-1.0465377326,-0.103736482180713,0.0771613865712605,-1.08188148802155,2.5019591539,0.753638844856775,1.41617409427719,0.560853942839653,-0.226499757298566,-0.5833880925,-0.117412869012131,0.119112418144149,-0.926803379289216,2.2837074762,0.60363100938273,0.0471654247305761,0.0939520388600365,-0.467855487069873,-2.56414641216233,0.37517840051498,-0.504663531857347,1.89535353856311,-1.52111522472215,-1.52123239637126,0.401176645747155,0.226374245036653,0.187580582334868,-3.15969169496075,0.272721903533049,0.0783433196150283,2.24765272430553,-0.133418301128478,3.50442784910284
1.2499500525,-0.16217074174,0.03401402837,0.301173684,0.130405313498761,-0.0716309923993196,-0.988862288890607,-0.00385081149996315,0.151987730925753,-0.0308892060708961,-0.107217684204225,0,0,0,1.410315435001,0.442087914257305,-0.349578224591241,-1.0845852037,-0.0959090505817001,0.0662036388903792,-1.05394967302711,2.4660804204,0.709034167619377,1.41787571980296,0.563438807751871,-0.225990503710056,-0.6312177139,-0.112801434442321,0.119128341322472,-0.894615717274003,2.2712894585,0.652133805443275,-0.0953191633345677,0.124998105546746,-0.203647526946283,-2.28293948769604,0.469664662801367,-0.657491132883564,1.67597586830963,-2.15281003198327,-2.67638757733872,0.102101611321987,0.155098092142652,0.0305564362847014,-2.86989195914291,0.276697130452497,0.000955428876388501,1.93133689327235,-0.745110835138748,2.91028405276286
1.2666160532,-0.15888950581,0.03343916877,0.29914143,0.134865474896553,-0.071165453998181,-0.98830216677474,-0.00236832989993971,0.196882022811867,-0.0344929542694666,-0.121940112483015,0,0,0,1.40495025017729,0.443801977428341,-0.345181544856603,-1.106923012,-0.0860154915817521,0.0549428664669448,-1.02872390961531,2.4207070958,0.677988824598985,1.41615661826692,0.565354440263612,-0.227748385435802,-0.6718721041,-0.107640705816627,0.119192831917683,-0.8682527204508,2.2521519232,0.670798311184504,-0.321923952859693,0.102847899858533,0.263811325451181,-1.34032205458866,0.59363726055454,-0.675673343961544,1.51360628538849,-2.72250826198513,-1.86279501478673,-0.103150213838514,0.114942543578649,-0.105477118199481,-2.4393608839822,0.30965609077976,0.00386959033376673,1.58184301667547,-1.14829800169156,1.1199150940411
1.2832820539,-0.1548683542,0.03264498902,0.29683892,0.14106230999339,-0.0698910333967252,-0.987528706053728,-0.0019294739999096,0.241278737615797,-0.0476526891061516,-0.138156120442263,0,0,0,1.39607867349837,0.442843291813574,-0.333623629022596,-1.1327412018,-0.077003670355604,0.0456835391225258,-1.00795872164925,2.3664605173,0.656519053360021,1.40847801136489,0.568807289013948,-0.228173927077282,-0.7092973917,-0.0986021985709596,0.114836773233701,-0.848983676068217,2.2277312764,0.674349450655299,-0.532315871012789,-0.0575234354074838,0.693502661019773,-1.54915328906713,0.540730880093388,-0.555581840604322,1.24596106407537,-3.25492477028397,-1.2882377497418,-0.460734824163547,0.207179203486748,-0.0255335187571447,-2.24560698596394,0.542332105246282,-0.261373965019835,1.15618886194953,-1.46529735835184,0.213076882373752
1.2999480546,-0.15024481927,0.03169833905,0.294342608,0.148793650296066,-0.0680485077982008,-0.986521474573917,-0.00228701169993994,0.27742318107547,-0.0568012678650612,-0.149784705097246,0,0,0,1.38385925028227,0.439495184087851,-0.314168804635879,-1.1631543282,-0.0670501081604361,0.0411089557957056,-0.990007628803542,2.30665332,0.653254786715942,1.39547362619484,0.573795681041214,-0.226005285205147,-0.7362358775,-0.0866875412377682,0.106868903545942,-0.835364127128025,2.2009788696,0.670176637017812,-0.733194689959723,-0.200894490885452,1.16733610761921,-1.82486050177593,0.59723759612994,-0.274485967519506,1.07710860984846,-3.58857523028906,-0.195863824971503,-0.780294289202134,0.299315481683962,0.130123711811378,-1.61637373506171,0.714908006285602,-0.478091284837088,0.817205590312459,-1.6052085489232,-0.250378822886225
1.3166140553,-0.14510791988,0.03063138575,0.291675608,0.157768693604144,-0.0660919539017359,-0.985257048925878,-0.00307253800008082,0.308226279505677,-0.0640197561014143,-0.160026394334663,0,0,0,1.36872967464626,0.43557915054122,-0.290338564703274,-1.1677274598,-0.0568782499937742,0.0386731573881704,-0.97318543908535,2.2448948442,0.663420134258542,1.37898348983897,0.57938388645937,-0.223365450863508,-0.7513731461,-0.0745130989426995,0.0975152485449559,-0.824643237382751,2.171915647,0.653446279353873,-0.907810812465186,-0.234971401785086,1.4298715307629,-0.274398860429662,0.610335877800721,-0.146153744463429,1.00937171556653,-3.70565661862717,0.609945224747344,-0.989447717704546,0.335305723235467,0.158396389701326,-0.908272408748907,0.730495726852373,-0.561241726156067,0.643279088862284,-1.74386303727925,-1.00386157213701
1.333280056,-0.13945629425,0.02938450879,0.288717016,0.167946978101929,-0.0644179375007398,-0.983679828011297,-0.00425885410004894,0.339111088000855,-0.0748156070820276,-0.177522613448587,0,0,0,1.35090203165774,0.432161792276664,-0.264838550305581,-1.1459772821,-0.0468015468069363,0.0363548355695746,-0.955883815686436,2.1841992743,0.669738027274157,1.35965692572172,0.584686895057621,-0.21939662359592,-0.755250687,-0.0630088987369342,0.0873212884127389,-0.815421772449516,2.1419815048,0.611080605070347,-1.06970132243676,-0.205049689248835,1.53006200207909,1.30506280969975,0.604626350870006,-0.139104867468045,1.03813888588845,-3.6418797162297,0.379088728564298,-1.15964018393724,0.318193230260138,0.238139151619471,-0.232661750698236,0.690279594537957,-0.611662048725158,0.553310005155283,-1.79612030137501,-2.54204203192707
1.3499460567,-0.13345796891,0.02800159159,0.285473944,0.178873483604687,-0.0629142358016485,-0.981842062625726,-0.00567801510014892,0.359913901839688,-0.0829783476488154,-0.194592095510953,0,0,0,1.33182055994209,0.429082035278278,-0.239628926810865,-1.1199287466,-0.0356486753973464,0.035127257387986,-0.936903876210563,2.1253956411,0.666272832607507,1.33938140109518,0.589825669501765,-0.213337896400205,-0.7488236864,-0.0512382609293792,0.0774255170731592,-0.807324912699473,2.1121485921,0.560391992463402,-1.14493405221381,-0.184792803854052,1.51263785166621,1.5629745833384,0.66919902443001,-0.0736576341070566,1.13884187439599,-3.52835897816806,-0.207919988065881,-1.21658008969996,0.308338787249908,0.363538158000647,0.385635445221121,0.706266489449686,-0.593770006236693,0.485830997837581,-1.7900462886696,-3.04143828620778
1.3666120574,-0.12731716403,0.02657897956,0.282024624,0.189950182993087,-0.0612872466977695,-0.97985283746434,-0.00715669519973953,0.368463015845188,-0.0853601326201792,-0.206967470006165,0,0,0,1.31311101457735,0.425567106930733,-0.214389695359318,-1.106367788,-0.0243165533570676,0.0345498578441286,-0.916402508452768,2.0688556998,0.661820236892828,1.32011410365505,0.595349406978222,-0.204716373596038,-0.7326328586,-0.0391585940726099,0.0688686562935894,-0.8000682846994,2.0818950548,0.522412925527322,-1.12261757943753,-0.210904128159821,1.51441440006345,0.8136900294262,0.679954492038319,-0.0346453569906192,1.23013121905095,-3.39253203679513,-0.267166418316506,-1.15608404121376,0.331437492166736,0.517312039004426,0.971488486736948,0.724808973323117,-0.513432162496536,0.435415078320105,-1.81528477314897,-2.27883507385667
1.3832780581,-0.12100672465,0.02511172545,0.278367278,0.201556443593236,-0.0594122534980062,-0.977631631567192,-0.00903200639969668,0.378641492556759,-0.0880387644529502,-0.219449528764271,0,0,0,1.29468990776012,0.421035165632254,-0.189432448800624,-1.1086399876,-0.0128127402802227,0.0365518851258452,-0.895144027308819,2.0170316383,0.662158230418756,1.30033215267392,0.601271260414522,-0.193796928322801,-0.7109133793,-0.0279346171151688,0.0598627671998232,-0.794385928105761,2.0511632973,0.503031022115649,-1.10531057503358,-0.271927343581548,1.49749463041208,-0.136337423770774,0.690256365874565,0.12012643691516,1.27555983745696,-3.10956794211581,0.0202804219207727,-1.18696448759476,0.355325404270532,0.655192896591983,1.30322083209801,0.673465527782022,-0.540374937927742,0.340955019499011,-1.84397913171814,-1.16296067428302
1.3999440588,-0.11448632055,0.0237144859,0.274407672,0.21399956840713,-0.0573486254019106,-0.975087442832486,-0.0109452600003644,0.391239879163092,-0.083837722987735,-0.237585853455533,0,0,0,1.27602298019312,0.415423748933052,-0.163670167894947,-1.1203592873,-0.000430321572095822,0.0385993038915127,-0.873413168842421,1.9691502757,0.656700517384987,1.27975156257254,0.60723916639042,-0.182581150138531,-0.6835435279,-0.0192885367874248,0.0512563669708966,-0.790852426179797,2.0197037375,0.495429038215465,-1.1200604093941,-0.336698455749039,1.5457986213619,-0.703186079909379,0.74297481027508,0.122850034781739,1.3039036093643,-2.87299655519637,-0.327475867306817,-1.23488474960741,0.35808866706084,0.672973581734591,1.64225670529343,0.518785549297621,-0.516404648232531,0.212018587396577,-1.88764901467933,-0.456137260343683
1.4166100595,-0.10773483322,0.02240285509,0.269950226,0.227522517290632,-0.0553645284977205,-0.972113458959975,-0.0127943744994735,0.405105427002652,-0.0787009933342916,-0.267457447064672,0,0,0,1.25553917343375,0.409103072101923,-0.134468875434646,-1.1306980607,0.0135020303057568,0.0395344321739404,-0.852302911540333,1.9235326051,0.642810054586494,1.25668877336542,0.612963694973155,-0.169667864127419,-0.6726587335,-0.0132909346514796,0.0437374649367565,-0.789828147812641,1.9874814689,0.490700873888038,-1.22907751704125,-0.379255764169543,1.75214755993025,-0.62035119199293,0.835974516540892,0.0561099389866073,1.26666605156737,-2.73716960782319,-0.833461071347098,-1.3838226472128,0.343485439955308,0.77482812124879,0.653113761119661,0.359870507862466,-0.451152149185985,0.0614591578143957,-1.93341337133149,-0.283701195777971
1.4332760602,-0.10071158195,0.02106720791,0.264875814,0.242424679893258,-0.0537339774985055,-0.968566970273063,-0.0148646673995865,0.421411914977298,-0.0801420331153592,-0.304476886287421,0,0,0,1.23279882254754,0.402989741080591,-0.10463233608573,-1.1418827265,0.0301416352433611,0.041653152102802,-0.833357146739876,1.8807894916,0.623484948226744,1.23118997770666,0.617466468311039,-0.155267457796023,-0.6688676982,-0.00855917703221679,0.0368758304989079,-0.792118610851411,1.9549939102,0.486829038944482,-1.36447557488808,-0.366814518454451,1.79026389629973,-0.671106764084086,0.998416190970415,0.127128275523325,1.13679131193465,-2.56468928985463,-1.15955271499238,-1.5299888748211,0.270177196013442,0.864058905949529,0.227471207294502,0.283916801903339,-0.411714517559603,-0.137433273884978,-1.94933141338461,-0.232319379631123
1.4499420609,-0.09358663538,0.01959708275,0.259250222,0.258226918005213,-0.0521580203010529,-0.964515818919471,-0.0175395208003539,0.42751387679949,-0.0882110343365099,-0.33754900778325,0,0,0,1.20919847391395,0.396578007469464,-0.07451242198573,-1.1482190003,0.0399618883068252,0.0450049925328308,-0.818074975204589,1.8445896176,0.612542278612147,1.20436410987183,0.621076640483875,-0.138718491002901,-0.6651686846,-0.00360458720931775,0.0292672044568725,-0.79563256515654,1.9209983871,0.483148258779447,-1.41607750164004,-0.384719389284971,1.80726706077724,-0.380191619696734,0.589238728608966,0.201118462093237,0.916966932281906,-2.17207923194195,-0.656586412755654,-1.60961638714104,0.216618986031583,0.992977684989674,0.221949684665501,0.297287268378612,-0.456535804779815,-0.210845683279567,-2.03981289284357,-0.22085563485157
1.4666080616,-0.08633268308,0.01805036877,0.252991662,0.275173151903685,-0.0503333993006741,-0.959853315512855,-0.020685697600277,0.435254529900505,-0.0928065471640118,-0.375528605372015,0,0,0,1.18380700819351,0.389084939699461,-0.0421621407971277,-1.1387718453,0.0426549772762148,0.0483069357753352,-0.807312485740399,1.813941636,0.606106320048576,1.17430511822553,0.624594046731855,-0.119101000008268,-0.663229622,0.00125020911274301,0.0211921895472621,-0.801536620887865,1.8884392698,0.474840861921506,-1.52354882119033,-0.449602031398189,1.94109443356752,0.566851950270225,0.161591795048318,0.198124511209485,0.645775171735686,-1.83895237685908,-0.386172944512833,-1.80361156748889,0.211052808126929,1.17709649409968,0.116348405049568,0.291299419065833,-0.484520255036975,-0.354257499300645,-1.95362510095178,-0.498463729090158
1.4832740623,-0.07887143096,0.01665552987,0.246053906,0.293522911815469,-0.0484710188025544,-0.954436610050299,-0.0233584668012312,0.447693016117539,-0.0836936782319948,-0.416281993795911,0,0,0,1.15536659965043,0.380777999024497,-0.00327409013327334,-1.1073337945,0.0417996200858999,0.0499043609043539,-0.803088047289098,1.7892085752,0.599154702664854,1.14262673737984,0.627800944284499,-0.0995487770631374,-0.6662383993,0.00294017348661917,0.0159970844953427,-0.810373047074201,1.85928529,0.455789387930509,-1.70649270061993,-0.498436357017765,2.33337627688053,1.88635842310987,-0.0513234822025957,0.0958493376889573,0.253476435489512,-1.48404294738809,-0.417113710052898,-1.90077880206097,0.192421541938608,1.17318025464444,-0.180533851771645,0.101401914250259,-0.311718758773325,-0.530206757181767,-1.74930868687651,-1.14313411681287
1.499940063,-0.07104535662,0.01527140965,0.238276934,0.313739255294786,-0.0468376349992216,-0.947995013384245,-0.0260647315995668,0.469583224006465,-0.0830505317331469,-0.466636965879881,0,0,0,1.12390180876209,0.37259858821156,0.0395694112621943,-1.0607058625,0.0373219205664203,0.0518465697379014,-0.806248688796228,1.7714358872,0.591349269742745,1.10896600150831,0.630224516811962,-0.0790455020301712,-0.6777562043,0.00139085807304917,0.0119291898577757,-0.824246494170714,1.831747485,0.433086050764364,-1.88796289252144,-0.490784259533669,2.57071280427029,2.79778771400147,-0.268672706792791,0.11653718660575,-0.189646068305405,-1.06640389136669,-0.468344689443648,-2.01972485645797,0.145420162346611,1.23024566013406,-0.69109591481057,-0.0929626394153456,-0.24408343133977,-0.832440088431844,-1.65233432397493,-1.36225466294053
1.5166060637,-0.06278985286,0.01357657035,0.229468722,0.336285148390398,-0.0459748014986873,-0.940159799773156,-0.0299694425991443,0.495350018796051,-0.101694421505694,-0.528513838355952,0,0,0,1.09014332318139,0.366049639526391,0.0813101284520845,-1.009775036,0.0289967009536593,0.0578444846694591,-0.817863755172702,1.7627266944,0.577292403453149,1.07159789922816,0.630202709149489,-0.0546539575117886,-0.6917575305,-0.0015502330798622,0.00454745737709366,-0.844958013197674,1.8059445373,0.409302343801346,-2.02559007337041,-0.39295262271102,2.50454310792692,3.05597170051722,-0.499533137110756,0.359889276349168,-0.696931830590528,-0.522572448949918,-0.843445679778227,-2.24217572966667,-0.00130851203393417,1.46355115167988,-0.840113141240894,-0.176472520663663,-0.442921647104097,-1.24274079905445,-1.54823872652303,-1.42707944102134
1.5332720644,-0.0541646182,0.01178200772,0.219604378,0.361201311800982,-0.0454950196001237,-0.930756644202532,-0.0339983061000923,0.51753475925391,-0.107678060399938,-0.591884290512482,0,0,0,1.05485098969867,0.360053630906748,0.123143091302649,-0.973361227,0.0171419908330735,0.0642287922158718,-0.839038791706818,1.7659014483,0.551968377898899,1.03294065428169,0.628563175479288,-0.0309620688868531,-0.7057146263,-0.00768743339295542,-0.00331521382886725,-0.872951483340363,1.7831103946,0.386379808558843,-2.1176246250077,-0.359774893063777,2.51007806873334,2.18491584486732,-0.711311029801276,0.383073759646053,-1.27055296080218,0.190492845713129,-1.51950224952592,-2.31952738046288,-0.0983759511183134,1.42157012059501,-0.837459211195163,-0.368246733188558,-0.47177912370788,-1.67967532502799,-1.37010330858801,-1.37540707306605
1.5499380651,-0.04521813373,0.00995581013,0.208655454,0.388151833908606,-0.0452772372010038,-0.919723774220391,-0.0373671615008285,0.536810518074681,-0.109576233847152,-0.656961690875246,0,0,0,1.01900928027834,0.354525204596222,0.165056165801327,-0.9550516951,0.00210002931544283,0.0689685585125048,-0.869911202805992,1.7797733252,0.527389147662385,0.99600456908416,0.626295541137286,-0.011449929871193,-0.721250849,-0.0178931637632923,-0.0105601021915466,-0.909298995350803,1.7669434099,0.378971042034626,-2.15058849843506,-0.331718833452725,2.51488495969392,1.09861581249064,-0.902553755300793,0.28439734174696,-1.85241868489625,0.832345872876396,-1.47481274475847,-2.21625366891617,-0.13606349734531,1.17077512277196,-0.932210611271605,-0.612368291232393,-0.434710671929789,-2.18093786654163,-0.970057843571307,-0.444543754532315
1.5666040658,-0.03611339417,0.00806085007,0.196721518,0.416179781984718,-0.0457909257983186,-0.907245536366687,-0.0400389425985299,0.546306202903255,-0.113702146910386,-0.716064772516179,0,0,0,0.985263467641579,0.351553383508245,0.206579715118796,-0.938827764,-0.0159121987004244,0.0714602342356325,-0.907929012364586,1.8012199309,0.519965514421046,0.96452913066674,0.623398860485703,0.00531836572125533,-0.7383964418,-0.0320533382275327,-0.018868442834252,-0.950016021216573,1.7597369454,0.390862212643918,-2.02482966634958,-0.178316390444896,2.49151251490516,0.973474764104623,-1.08077686663407,0.14950651736908,-2.2811597240959,1.28684776186287,-0.445435793203751,-1.88860176979474,-0.173807784106437,1.00613793880666,-1.02877667585841,-0.849644417946074,-0.498520358438809,-2.4431191741022,-0.432405148044909,0.713498746540418
1.5832700665,-0.02698719282,0.00634056248,0.183839908,0.446312083913611,-0.0470938354014363,-0.892667073527224,-0.0416316017012697,0.547593961759524,-0.103221379919899,-0.77292748463643,0,0,0,0.951961161120494,0.350549816575885,0.25013208398361,-0.9292164812,-0.0346930596253225,0.0692793812816807,-0.954497144342823,1.8290108088,0.525713689850315,0.937796660008869,0.619745778074178,0.0185637902742377,-0.7577008101,-0.0516920595905504,-0.0276649871109416,-0.996544761009595,1.7629954752,0.413852909759747,-1.99821823606939,-0.0602164220694417,2.61324655199461,0.576700011779071,-1.12689668403159,-0.130856405997374,-2.79419956932061,1.66751930473638,0.344904307442415,-1.60401233259702,-0.219193703233464,0.79475723008834,-1.15830838168632,-1.17837036710419,-0.527813746983079,-2.79183594376195,0.195519600572204,1.3794969488888
1.5999360672,-0.01800209026,0.00491292354,0.169749258,0.478350354611393,-0.0483441113011514,-0.875797854120859,-0.0426837658010165,0.539127696064479,-0.085661759272577,-0.84547278340148,0,0,0,0.920886003087949,0.349731350436725,0.296309687637835,-0.9287139842,-0.0536246609446941,0.0631603098781856,-1.00824011337575,1.8601457372,0.53059429217038,0.917144842616588,0.616164258252559,0.0287715855955263,-0.778177897,-0.0748508661858556,-0.0378083722880024,-1.0470959008888,1.7737257593,0.442226604813864,-1.86458398699965,-0.0491099306842024,2.7707669335586,0.0301510247746507,-1.13594146911152,-0.367158955147239,-3.22470699481764,1.86817035235094,0.292847840817926,-1.23915855783453,-0.214899776262442,0.612492193240376,-1.22867430936805,-1.38958392071262,-0.608627430158498,-3.03318959294198,0.643842772669503,1.70248973133174
1.6166020679,-0.00934492944,0.00374026093,0.154662928,0.511530216013138,-0.0491711836012629,-0.856718915922004,-0.0441784100011346,0.519450405399299,-0.070362568147498,-0.905215970619753,0,0,0,0.894169779003365,0.350554864190721,0.336001263098437,-0.936191473,-0.073830419634743,0.0545736037603466,-1.06726125381672,1.8929509458,0.535647835485525,0.902189292556741,0.612573692529194,0.0357151758572411,-0.8002194425,-0.0999147891531164,-0.0532920559334954,-1.0990350852428,1.7897426459,0.466745413487052,-1.60303749924741,0.0494127996764213,2.38158969119701,-0.448667255846215,-1.21239396624104,-0.515222954349148,-3.54140993411623,1.96839116897432,0.303224715161893,-0.897368860655724,-0.215442552055357,0.416632063486883,-1.32254557627614,-1.50389547069087,-0.929058142034824,-3.1164755893715,0.961051597699748,1.47118730609365
1.6332680686,-0.00079389891,0.00261766757,0.138468904,0.548505318315726,-0.0507864491014561,-0.83327988212389,-0.0469818094013471,0.513082333543884,-0.0673582931026758,-0.971680266400087,0,0,0,0.868907689330051,0.354839840602859,0.365856959776014,-0.9706469293,-0.0956593098976961,0.0447933594663916,-1.1394254410165,1.928976287,0.548506446649683,0.885435779422097,0.606392009266741,0.0401647839232383,-0.8258856379,-0.127652255197985,-0.0802852474683585,-1.15894731155222,1.8136466752,0.471554244143967,-1.51578594817376,0.257108858284025,1.79141338195051,-2.06740998756828,-1.30978575219627,-0.586838106514364,-4.33002425109576,2.16160684548633,0.771547499344471,-1.00525095589632,-0.370915816801384,0.26698715223246,-1.54003326064903,-1.66431446536952,-1.61965621031464,-3.59487722266923,1.43429906972222,0.288541368950928
1.6499340693,0.00751013004,0.0015840797,0.121476558,0.589565724796795,-0.0523963233997152,-0.804430094095627,-0.0505875987997251,0.498261646538872,-0.0620177503052667,-1.01958150043759,0,0,0,0.841899617333104,0.360622051183309,0.38241994223606,-1.0204911907,-0.116641897824891,0.02829312905696,-1.22384049967347,1.9672024884,0.553578017664965,0.865678140553716,0.598468845278168,0.0386601694403855,-0.8615237914,-0.155538490984986,-0.116350439004504,-1.22938826595781,1.8406678628,0.483277152659615,-1.62054907371671,0.346946498115167,0.993818658608731,-2.99077518939502,-1.2590055829768,-0.990053385119056,-5.06510591092062,2.29366373421548,0.304306420392839,-1.18550570253973,-0.475408835700634,-0.090280476398444,-2.13837465517447,-1.6732410065842,-2.16399796119929,-4.22662615186357,1.62133604134554,0.70340261750066
1.66660007,0.01457827518,0.00106867166,0.109638634,0.621878526110275,-0.0524079547008659,-0.779475119112879,-0.0542129480008958,0.424105654813755,-0.030925718129845,-0.710303822320133,0,0,0,0.841960971687213,0.361084487988744,0.381229013404103,-1.0839564458,-0.137088496125847,0.00860035169008801,-1.27509791227686,2.0239536143,0.50050917326964,0.873093771967129,0.593211580049543,0.0318171153922865,-0.905998902,-0.18579262717552,-0.149659854156362,-1.27336461688175,1.8905284288,0.456032878492451,0.00368140834824346,0.0277473170533886,-0.0714585852595222,-3.80806746875991,-1.22684492032668,-1.18161385693882,-3.07556764973547,3.40520361912621,-3.18425790029671,0.444955664343213,-0.315448518409453,-0.410599649626743,-2.66861326844898,-1.81532070801688,-1.99864477095918,-2.63868649207111,2.99175350448653,-1.63472177024232
1.6832660707,0.02130707866,0.00144664814,0.103660998,0.647205293995982,-0.0504818392996866,-0.75856928329529,-0.0561207070996516,0.403744341616402,0.0226794950272623,-0.358672491835428,0,0,0,0.862912159639692,0.352431409354491,0.362599013190659,-1.1527259862,-0.153853207001209,-0.0164060360356361,-1.30112528067056,2.0979712825,0.449092564692049,0.905717688848091,0.589313420692992,0.0118913941304678,-0.9607617454,-0.224639430015853,-0.172291475206326,-1.29563815557641,1.9604602813,0.432458911267019,1.25712150920998,-0.51920546446713,-1.11784467964437,-4.12633730418601,-1.00592284718684,-1.50044321825356,-1.56170450621037,4.44123755497024,-3.08511978987199,1.9575132311714,-0.233898907525582,-1.19559104913626,-3.28590190206821,-2.33090130857448,-1.35795152402486,-1.33646572417717,4.19607881691737,-1.41449455389933
1.6999320714,0.02820768671,0.00304305288,0.103298286,0.666904829797613,-0.0457086081998364,-0.741663647197346,-0.0555311223998015,0.414053027730882,0.0957881119013754,-0.0217635896295153,0,0,0,0.899597060849051,0.333681121292263,0.33554567864359,-1.213446243,-0.164208483221019,-0.0441108379275063,-1.30335818658202,2.1824940875,0.410513784018375,0.960594583102184,0.585850556788116,-0.0218892331182316,-1.0229059183,-0.274070459374894,-0.1750679802542,-1.29993198183968,2.0385323494,0.493685188577617,2.20118202739303,-1.12506223897061,-1.62326493524443,-3.6433609894184,-0.621341400748303,-1.66235453787484,-0.133979708248787,5.071570949832,-2.31481933597148,3.29274522675933,-0.207780136771275,-2.02691862653645,-3.7287993693652,-2.96598027618232,-0.166596959753738,-0.257639870569823,4.68451126970132,3.6737234332768
1.7165980721,0.03515839005,0.00467480202,0.106143086,0.680900366080401,-0.0433551966987521,-0.729170592379011,-0.0529647580984753,0.417058865238138,0.0979088606422535,0.170694820623643,0,0,0,0.952163181954296,0.318236926394515,0.304250401826603,-1.2703974998,-0.165871863747595,-0.062547098878652,-1.28593412129354,2.2566670901,0.401378344824539,1.03568124731746,0.571631308539505,-0.0586964425412441,-1.0843630261,-0.335189034885796,-0.157611768693127,-1.28534490374696,2.1141295408,0.568786958443745,3.15409329757466,-0.926688722492837,-1.87779164181765,-3.41721195295522,-0.0998068196754421,-1.10621985940189,1.04548569282604,4.45055799139624,-0.548148254538083,4.50537987888606,-0.853188986642207,-2.20852081345541,-3.68757381607454,-3.66726106707183,1.04741454625477,0.875259659188647,4.53601273399682,4.50628625415386
1.7332640728,0.04221440741,0.00580470268,0.107439248,0.697578554092492,-0.043855750799528,-0.713310889592322,-0.051462693099446,0.423377958936483,0.0677967486224815,0.0777728276466473,0,0,0,1.00169954806716,0.307967964247587,0.265988912579081,-1.3310937334,-0.162433499583549,-0.0709512175542188,-1.28720472869011,2.3093411269,0.416004225978751,1.09672126303712,0.548324572765347,-0.0902439875570788,-1.1416032973,-0.385509522823151,-0.142347412778893,-1.28491945152429,2.1692034053,0.647422253755816,2.97230073396444,-0.616162349430816,-2.29578108967208,-3.64191953982096,0.206310093581484,-0.504267270045583,-0.0762394901721633,3.16056849799605,0.877587935911466,3.66254729124424,-1.39846002611518,-1.89292833858063,-3.43455350988916,-3.01934992342556,0.915897952304455,0.02552815341416,3.30456391376488,4.7183062528055
1.7499300735,0.04888428363,0.00660366574,0.106696044,0.717323018279967,-0.0430624587987974,-0.693536589180632,-0.050993250098576,0.40020856473383,0.0479396991744996,-0.0445940218879273,0,0,0,1.03986393928931,0.294761566080686,0.234615558889599,-1.3945668834,-0.155778613918677,-0.0815003080522753,-1.3060818473111,2.3361598562,0.42081057295132,1.14496509763994,0.525506630949759,-0.125669292203389,-1.2075356477,-0.415880424598983,-0.13125190322936,-1.30066901697274,2.1942453894,0.712525454902254,2.28995497535034,-0.792415553354751,-1.88247644136255,-3.80854118168854,0.399309095485142,-0.632970722127507,-1.13267237658211,1.60918805793642,0.288392341935312,2.89474574441915,-1.36913121668045,-2.12560321363182,-3.95609910180791,-1.82232692308913,0.665757175297196,-0.945011687683941,1.5025790860551,3.90634815864598
1.7665960742,0.05508198374,0.00627675909,0.104962494,0.73741629813424,-0.0422442909019615,-0.672135820531209,-0.0516339219023974,0.371876866055814,-0.0196151827834736,-0.104017156317532,0,0,0,1.06772053039162,0.276834401654795,0.200927459445534,-1.454325647,-0.149912930928259,-0.0901919509213244,-1.33396893187947,2.3389017685,0.41833846303502,1.18350222156825,0.502282015137688,-0.159800762789672,-1.2804240256,-0.42719439847746,-0.133039056802431,-1.32479705504593,2.1985964952,0.716846096483826,1.67146225442693,-1.07567284728909,-2.02136673641598,-3.58566909216559,0.351955042844691,-0.52151941101557,-1.67329193550099,0.164521311942575,-0.148332522048942,2.31231983137483,-1.39353263150112,-2.04797006796494,-4.37347742941111,-0.678865558818629,-0.107233499220418,-1.44774013319158,0.261076780105985,0.259248853960032
1.7832620749,0.06069808976,0.00519211826,0.102704434,0.756489086309328,-0.0417812207005152,-0.650532513808021,-0.0527829553006509,0.336979826239897,-0.0650810503086083,-0.135489013870016,0,0,0,1.08517621240235,0.256379642056395,0.167211927125063,-1.4981901507,-0.146212046744036,-0.0944788508493094,-1.36384065291206,2.3224066617,0.389224973595651,1.19846398689859,0.475189022326837,-0.185231075490794,-1.3293446715,-0.425500495314849,-0.148566535563486,-1.35088921686303,2.1854716192,0.67554142747958,1.04738277196497,-1.22733461774066,-2.02301277477273,-2.63197539047264,0.222061924203731,-0.257224273846634,-1.79237488167105,-0.989745956268913,-1.74687916815991,0.897741791786902,-1.62564452615504,-1.52587973316972,-2.93535604495684,0.101638251017923,-0.931685953970679,-1.56559226696216,-0.787524027885107,-2.47837917132969
1.7999280756,0.06561459863,0.00374551989,0.100542386,0.773963978185047,-0.0409091721992097,-0.629465489787839,-0.055492317198928,0.295002319902698,-0.0867993705292476,-0.129728063673969,0,0,0,1.08981030603401,0.237738969314096,0.144415421305297,-1.5156015798,-0.14638817649708,-0.0950200680027459,-1.39078565629332,2.2896485769,0.353065413608078,1.2012553050346,0.452983053421923,-0.198627073733021,-1.3502572931,-0.412682475496621,-0.17294809301769,-1.37466436786825,2.1562932048,0.626850743240643,0.278056728490318,-1.11848505696383,-1.36784500553665,-1.0447274912211,-0.0105682074670315,-0.0324743268153398,-1.6167648055637,-1.96556362799146,-2.16966029454046,0.167485780557164,-1.33241137478854,-0.803792012454853,-1.25480743559552,0.769111921267843,-1.46295190388441,-1.42656606303985,-1.75077482146032,-2.92155779394252
1.8165940763,0.06990040869,0.0023330328,0.099031086,0.789125159713969,-0.0387741304006864,-0.610167218610801,-0.0589407707010434,0.257158879154494,-0.0847526119448681,-0.0906816234563097,0,0,0,1.08820686222156,0.227581222369581,0.143090679526949,-1.5048408065,-0.14933472933916,-0.0964566217408917,-1.41339933955956,2.2461445,0.305082389982093,1.20185076483996,0.443051067521104,-0.196371977650601,-1.3415246749,-0.393419291885296,-0.195499142925279,-1.39403163602321,2.1154594816,0.571937663016972,-0.096210473125307,-0.609489170639213,-0.0794876828697447,0.645672197769673,-0.176800235108652,-0.0861966685352311,-1.35687521399447,-2.61034891832206,-2.87909646049542,0.0357290159818684,-0.595942966738215,0.135311171708997,0.52397802911409,1.15583720162239,-1.35311706230693,-1.16208252379084,-2.45012129394666,-3.29491647169264
1.833260077,0.07366043755,0.00092285319,0.097900278,0.802881376887095,-0.0356927123994263,-0.591694872390489,-0.0632827220989829,0.225610746554211,-0.0846141576125099,-0.0678511911978977,0,0,0,1.08053247032436,0.229881029951736,0.16681951553218,-1.4667472748,-0.15503645176336,-0.0948755337136982,-1.43253089012692,2.193288949,0.264058100832924,1.19659602371821,0.445787934312035,-0.176463700570292,-1.2921497635,-0.367437495872168,-0.219136420212727,-1.41085783900242,2.0675432124,0.516087543612288,-0.460481913768296,0.137993968892291,1.42378705199691,2.28570323412984,-0.342117015763671,0.0948690724100082,-1.14793890338383,-3.17145978519012,-2.46155570779314,-0.315297065945458,0.164218569301438,1.19454435642196,2.96261306409281,1.55897005411309,-1.41829330941091,-1.00961252085015,-2.87509103488757,-3.35114106917591
1.8499260777,0.07708574923,-0.00038839416,0.097082398,0.815401748047763,-0.0321428138018828,-0.574023682933624,-0.0677025866039657,0.2055269132444,-0.0786779848149172,-0.0490747609292976,0,0,0,1.07343313226125,0.242941122975657,0.205844598957215,-1.4121402922,-0.160685652860608,-0.0922432249668181,-1.44950536176568,2.1353021299,0.238149504332651,1.19100977080123,0.463855367892064,-0.130060620458519,-1.2171355091,-0.339104012727237,-0.239191168359282,-1.4264712521308,2.0160786887,0.483194297321684,-0.425977304987561,0.78363689399831,2.34159857109781,3.27654988038012,-0.338965610222759,0.157944835972559,-1.01850899590846,-3.47934817379432,-1.55457790784043,-0.335188568483613,1.08408933284333,2.78429606160837,4.50103511636119,1.70007692036947,-1.20333297157217,-0.936842222044098,-3.0879948120967,-1.97367364148758
1.8665920784,0.08016515927,-0.00191194766,0.096392534,0.826944357821239,-0.0291414518007485,-0.556859134214303,-0.072261397001856,0.184771985518997,-0.0914168628350052,-0.0413934940012332,0,0,0,1.06825741174308,0.253705888052253,0.240880498804208,-1.3541860849,-0.166191395957384,-0.0843849393189987,-1.46727411933637,2.0762087722,0.227004389108913,1.18815983583255,0.49385344764572,-0.0620677723207495,-1.147409504,-0.309442726197828,-0.25361217779129,-1.44094462405005,1.9622719332,0.48053638852854,-0.310555640272591,0.64591171393599,2.10223799204523,3.47739138760506,-0.330357786242955,0.471515979704682,-1.0661680561844,-3.54574314280448,-0.668733634682835,-0.171002931055634,1.79995670788945,4.07973390627361,4.18372747938262,1.77974830694733,-0.865295141383746,-0.86843701616108,-3.22853433577498,-0.159480900126423
1.8832580791,0.08301883527,-0.00337225665,0.095695558,0.837986302689863,-0.0268965260996747,-0.539732961893471,-0.0757882789990832,0.171227401904525,-0.0876220406014983,-0.0418202310527917,0,0,0,1.06509673403513,0.264644940562835,0.276959380345789,-1.2971277132,-0.166034289430592,-0.070319547976118,-1.48533954130503,2.0185430935,0.236827499229791,1.18350986491894,0.521796297362208,0.00841635726910077,-1.0795876078,-0.281363360865551,-0.261914255602873,-1.45764664862146,1.9113275177,0.488079862703874,-0.189648240441247,0.656369377842541,2.1648193943482,3.42363910377131,0.00942676828230472,0.843957203414774,-1.08396863133808,-3.46007897983589,0.589410158903793,-0.279009403474375,1.67663797808964,4.22921676643457,4.06947638013721,1.68482924234349,-0.498144573555846,-1.00216151865478,-3.05678707309787,0.45262653657119
1.8999240798,0.08563865793,-0.0040656189,0.094550526,0.849741645711801,-0.0240634650003342,-0.520959790607235,-0.0772073945010722,0.157195640823416,-0.0416033973885529,-0.0687046653010172,0,0,0,1.05667599379566,0.273500771381691,0.315691270471355,-1.2459097088,-0.154790214286868,-0.0557018323897253,-1.50758133360032,1.9666020949,0.268298219122895,1.17265976142774,0.542050868406994,0.0695404126509713,-1.0103192072,-0.258581471988289,-0.264633355911501,-1.4821916938842,1.86466614,0.500940760858091,-0.505264603731291,0.531371081657034,2.3240062701765,3.073203063048,0.674671467145949,0.877097982264737,-1.33456086410037,-3.11658444848139,1.88831864702274,-0.651032223417708,1.21532282455656,3.66758987246835,4.15627011224114,1.36696795394126,-0.163152537766813,-1.4727615643711,-2.79979453619008,0.771684724231213
1.9165900805,0.08813497308,-0.00457489417,0.093313038,0.861356624615896,-0.0219560945004052,-0.501541064109256,-0.0777126512014341,0.149784894104799,-0.0305577372260641,-0.0742522469712842,0,0,0,1.04627489204881,0.27944527597396,0.348261158343101,-1.198621063,-0.14197259690911,-0.0381601945416212,-1.53309528147118,1.9248171673,0.310040102106622,1.15753948129682,0.554273138842299,0.123754189735818,-0.9481944456,-0.240989085758764,-0.26806900976545,-1.50685018454234,1.8235706174,0.503772469956892,-0.624091042240782,0.356684527936482,1.95427136107985,2.83743212611289,0.769087773874747,1.05254032829269,-1.53089804387593,-2.50719583853131,2.50461305835223,-0.907253059872836,0.733365529938145,3.25295660673092,3.72763464482514,1.05558535285101,-0.206147468477476,-1.47956856008894,-2.46582988563057,0.169909335165277
1.9332560812,0.09062851266,-0.00482335693,0.091997318,0.872594514388665,-0.0194675693997471,-0.481850441193741,-0.0775885269989921,0.149618353250159,-0.0149083613083012,-0.0789463545384334,0,0,0,1.03511749083521,0.281070574478068,0.374132062905433,-1.1544424324,-0.128190337803705,-0.0208855043682366,-1.5620809148568,1.8963683006,0.35466422150782,1.1428875843757,0.559053217446493,0.166239016868499,-0.8985466425,-0.226954048909837,-0.273485689182604,-1.53306464826035,1.7888595092,0.505376922544255,-0.669470823531659,0.0975218070228702,1.55231630119467,2.65082375761571,0.826968590335228,1.03652282778222,-1.73920749839043,-1.70700021031441,2.67755415378073,-0.879148944300864,0.286816176852431,2.54919148855436,2.97898722037135,0.842135861000356,-0.325013751928717,-1.57293067424412,-2.08274971451309,0.096271002038451
1.9499220819,0.09317564228,-0.00494572526,0.090745606,0.883350741366391,-0.0170213263993524,-0.462091138182419,-0.0766389077970842,0.152833884136343,-0.00734239318734697,-0.0751057210744037,0,0,0,1.02357876941241,0.281836360491011,0.398571842348943,-1.1104268063,-0.11429821813314,-0.00359016671463109,-1.59318401174468,1.8800302734,0.398869842176429,1.1322892710224,0.556541848593718,0.193844306277826,-0.8646154244,-0.217896715297884,-0.280898619618151,-1.56058939795384,1.7630565617,0.506495883891599,-0.69235095032706,0.0459489968065893,1.46644536283441,2.64104309680006,0.833560487643832,1.03776172609938,-1.86626038530508,-0.980320803658672,2.65244322644299,-0.635924211457899,-0.150688152363687,1.65638355033352,2.03595443866746,0.543461732361088,-0.444793599195482,-1.65155097428374,-1.54823871452255,0.0671403636352978
1.9665880826,0.09580463242,-0.00506542855,0.089677028,0.893311432322824,-0.0147615411003772,-0.442812903311314,-0.075455380501928,0.157745711603144,-0.00718248439771158,-0.0641172419967549,0,0,0,1.01211001178467,0.280693214857712,0.419317574518725,-1.0665071591,-0.102374248427554,0.0123917260726024,-1.62457181525259,1.8751782581,0.438819534738356,1.1274900900233,0.547070336499856,0.203107777443701,-0.8490022215,-0.212999018264466,-0.291000191079305,-1.58668665058775,1.7462246063,0.507863935418615,-0.688152954880206,-0.0685914787762278,1.24479366965233,2.63528413268338,0.715466770956389,0.958951885033431,-1.88334346511275,-0.291132551074477,2.39707733613185,-0.287962366346097,-0.568313434299934,0.555830479826763,0.936829607837471,0.293873564604956,-0.606118506952533,-1.56589772817588,-1.00995767988898,0.0820863716281789
1.9832540833,0.09858659972,-0.00523174505,0.08886626,0.902297374726189,-0.0127646034003705,-0.424544742112323,-0.0738801354021444,0.166924707977482,-0.00997938875641595,-0.0486480238777383,0,0,0,1.00092534803731,0.279140920488012,0.439201277266571,-1.0204960767,-0.0917636174929215,0.0235698670166606,-1.65417192858261,1.8807633117,0.470461375325387,1.12902947133902,0.531608583381348,0.192948566012639,-0.8480195288,-0.21244552235306,-0.305521063767612,-1.61044416913265,1.7374770161,0.516736570806622,-0.671106640920587,-0.0931413839254124,1.19306983755535,2.7607752590578,0.636663295869952,0.670715257083735,-1.77607776831702,0.335116606589363,1.89858629893314,0.0923665697266372,-0.927742257835629,-0.609577043343181,0.0589639180802426,0.0332110817327485,-0.871287176191402,-1.42550807314517,-0.524876385010595,0.532379396096348
